/* XPM */
static char *BRICK1[] = {
/* columns rows colors chars-per-pixel */
"64 64 80 1 ",
"  c #573513",
". c #5D3614",
"X c #5E3815",
"o c #5F3A18",
"O c #623612",
"+ c #653A16",
"@ c #6A3B16",
"# c #633C1A",
"$ c #6C3D19",
"% c #723D17",
"& c #733E18",
"* c #783F19",
"= c #67401E",
"- c #6A411E",
"; c #72421D",
": c #79431D",
"> c #674221",
", c #6A4421",
"< c #6F4825",
"1 c #724522",
"2 c #794621",
"3 c #744925",
"4 c #724B28",
"5 c #794D29",
"6 c #824119",
"7 c #814923",
"8 c #DB551E",
"9 c #E6571E",
"0 c #E6581F",
"q c #E9581F",
"w c #C75421",
"e c #CD5521",
"r c #D35722",
"t c #D95721",
"y c #D65823",
"u c #DB5923",
"i c #D15E2C",
"p c #DB5E29",
"a c #E75C24",
"s c #EA5C24",
"d c #E45F29",
"f c #E95F28",
"g c #DC612C",
"h c #DF6835",
"j c #DD6C3A",
"k c #E7622B",
"l c #E8642D",
"z c #E56530",
"x c #E86630",
"c c #E16935",
"v c #E96A35",
"b c #E06C39",
"n c #E96D39",
"m c #EA713C",
"M c #EA7542",
"N c #EA7946",
"B c #D5AE8C",
"V c #DDB695",
"C c #E6BA97",
"Z c #E4BD9C",
"A c #ECBF9C",
"S c #F4BF9A",
"D c #E5C09F",
"F c #EAC19F",
"G c #F6C29E",
"H c #E7C2A1",
"J c #EAC5A4",
"K c #EDC8A7",
"L c #EDCAAA",
"P c #F6C6A3",
"I c #F6C8A5",
"U c #F5CCAA",
"Y c #F8CEAC",
"T c #F6D0AF",
"R c #F8D0AF",
"E c #F7D3B3",
"W c #F9D5B5",
"Q c #FCD8B7",
"! c #F9D7B8",
"~ c #FCD9B9",
/* pixels */
"aaavY!WWWWWWWQEE!EW!E!E!EWWWWWWWWW~J#.X@uaalY!QEWQE!WWWWWE!Ylaaa",
"aaavYWEEEWEEEEQEEWEEEEEEEEEWEEWEEE~J#OX@asalYWEEEEEEWWWWWEWUlaaf",
"a09kE!!!!Q!Q!Q!!!~!~!!!!~WW~~~!!W!~J#..@8a9kRQ!~!~Q!!!!!!!~Ylaff",
"vvvMPYIIUUUIIUIUIYIIIYIYUUIUIUUIUIYC#X.@cnvMPPPPPIPIIIIPPPIGgyuy",
"EEWYnfkklfklxfllklkslllllflfxlfllklp#..,UEEYvalslsfffkffkkkp$++#",
"WE!Ykaaaaaaaaaaaaaaaaqaaaaaaaaaaaast#..,L!!Ylaaaaaaaaaaaqaqu@..o",
"WE!Yxaaaaaaaaaaaaaaaaaaaaaaaaaaaaasy#..-UWWUxaaaaasaaaaassfu@.O#",
"WE!Yxaaaaaaaaaaaaaaaaafaaaaaaaaaaasy+O.,YWWUlaaaaafaaaaaaaau@.oo",
"WE!Ylaaaaaaaaaaaaaaaaaaafaaaaafaaaay+X.,L!WYlaaaaaaaaaaaaasu@..#",
"WW!Yxaaaaaaaaaaaaaafaaaaaaaaaaaaaasu+X.>L~WYlaaaaaaaaaaaaafu@..#",
"WWWYxaaaaaaaaaaaaaaaaaaaaaaaaaaaaasy+O.,LWWYxaaaaaasaaaaaasu@..#",
"!E!Yl0aaaaaaaaafaaaaaaaaaaaaaaaaaasu+..-L~WYxaaaaaaaaaaaaasu@..#",
"EW!Yxaaafaaaaaaafaaaafaaaaaaaaaaaasu+O.>U~!Uxaaaaaasaafaaasu@..o",
"WE!Tlaaaaaaaaafaaaaaaaaaaaaaaaaaaasy+X.,LW!Yfaaaaaaaaaaaaasu+.X#",
"EE!Yxaaaaaaaaaaaaaaaaaaasaaaasaaaaau+X.,UW!Yxsssaaaaaaaaaaau@.X#",
"!E!Ylaaaaaaafaaaaaaaaaaaaaaaaaaaaasy+X.>L~!Ygtuuaaafaaaaaafy@XXo",
"EE!Yxaaaaaaaaaaaaaaaafaaaaaaaaaaaaau+X.,UQ!L1++*aaaaaaaaaasu$XX#",
"!E!Rxaaaaaafaaaaafaaaaaaaaaaaaaaaaau+O.,LWWK=  %aaaaaaaaaaay@X.#",
"EEQYx0aaaaaaaaafaaaaaaaaaaaaafaaaaau+X.-L~~U,.X&asaaasaaaasu# .X",
"!E!Yzaaaaaaaaaaaaaaaaaaaaaaaaaaaaaay+X.>JRYA-. %uuuauuauauar&@@$",
"EE!Yx0aaaaaaaaaaasaaasaaaaaaaaaaaaau+X.@zxld@XXX$@@@@@@@@@@&uuap",
"WE!Rxaaaaaaaaaaaaaaaaaaaaaasaaaaaaau+XX+uaau@.+XXXXX.XXX + @aaaa",
"!EEYlaaafaaaaaaaaaaaaaaaaaaaaaaaaafu+..@aasa@ ..X...X...X. @aaaf",
"EW!Yxaaaaaaaaaaaaaaafaaaafaaaaaaaaau+..@pxxp1>=>>>=>>>=>=,>1udud",
"WWWYlaaaaaaaaaaaaaaaaaaaaaaaaaafaaau+X.=JRYKLLLLLLKLLLLLLLLZ1@$;",
"WWQYlaaaaaaafaaaaaaaaasaaaaaaaaaaaau+X.,T~W!QWQQW~WQ!QWQ!!~K= .X",
"EE!Yxaaaaaaaaaaaaaaafaaaaasaaaaaaaau+X.,LQEE!EEE!EEWEEEWEEWK=.+#",
"!!!Ylaaaaaaaaaaaaaaaaaaaaaaaaaaaaasu+X.,UQEEE!EWE!E!E!WE!E~K=..o",
"EE!Yxaaaaaaaaaaafaasaaaaaaasaaaaaaay+X.=L!EYNnnMnnnMnMnnnnMj+.+#",
"WE~Ylaaaaaaaaaaaaaaaaaaaaaaaaaaaaasu+X.,UQ!Yf9aaaa9qqaaqa9st+X.o",
"WEWYxaaaaaaaaaaaaaaaaaaasaaaaaaaaasu+X.,L!EUxassaaaaaaaaaaau+X.#",
"W!WYxaaaaaaaaaaaaaaaaaasaasasfaaaaat+X.,UQQYxaaaaaaafaaaaaau+..#",
"WWWTl0kaaaaaaafaaakaaaaq0k000kkaaaau+X.>L!!Rlasaaaaaaaaasasu+..#",
"WW!Yxaaaaaaaaaaaaa0aaaak0qkks00aaaau+X.,U!WUx0kaaasaaaaaaasy+..#",
"WE!Yxaaaaaaaaaaaaaaaaaaakqk00k0saaau+X.,L!WYxaaaaaaaaaaaaasu+..#",
"WWWTx0aaafaaaaaaaaaaas0k0kq0k0k0aasu+O.,UQWYlqaaaaaaasaaaasu+o.#",
"WEWYlaaaaaaaaaaasaaaaaaq0k0aasa0aasu+X ,L!!Rl0faaaaaaaaaaasu+..#",
"WEWYlaaaaaaaaaaaaaaaaak0kqaaaaakaasy+XX,U!WUlaaaassaaaaaaasu+..#",
"!!!Exaaaaaaaaaaaaaaaaaaaaaasaak0sssuO..$L~!Rv0aaaaaakasaaas8+o.#",
"ULUPl8daaaaaaaaaa0kasaaaaaaaaaqkuuye###<GYUGlaaaaaaaaaaaaak8+..#",
"4<,1$$@:usaaaaaaaaaaaaaaaaaaaas8@++#BKHFnfkksaaaasaaaasaaas8+..#",
"....XX.@dsaaaaaaasaakqaaaaaakaa9@.XoJ~!Wv0aaaaaaaaaaaaaaaasy+o.#",
".X.... @usaaaaaaaaaaaaasaa0k0asg@..+Z~WRvasasaaaaaaaaaaaaasu+..#",
",>>,>,>2asaaaasaaaaaaaaaaaa0aas8@.X#Z~WRv0aaaaaaaaaaaaaaaasu+..#",
"LULUULTH7%:%%;%6uaaakaasaakkaas8@..#Z~WYv0aaafaaaaaaaaaasaku+..#",
"!Q!WWW~U- .....+aaaa0aaaaa00assg+.X+Z~WRv0aaaaaaaaasaaaaasqu+..#",
"WEWEWE!L- +..O.@ukaaqkasaaqkasa8@..#H~WEv0aaaaaaaaaaaaaaaaq8+..#",
"WWWEEW!L1#==+==:uqaaauaaaaauaaa8##+#ZWEYv0aaaaaaaaaaaaaaaaku+..#",
"WWWUmmvNFJJJJJKC:$%;%%;$%;@%;;@:VHDCmvvvkaaaaaaaaaaaasaaaas8+o.#",
"WW!Yk99lW~QQ~Q~L= ... ........ =R~~Qv9090saaaaaaaaaaaaaaaasy+..#",
"WW!YlaavR!W!WW~K= +..O O....X+.-L!ETv0saaaaasaaaaasaaaaaaasu+..#",
"WWWUla0xURRRRRWK<+=====+=+==O..=L!!Rn0kaaaaaaaaaaaaaaaaaaasu+..#",
"WWQUlqaavvnvnnvmFJJJJJJJFFKD=..=JQWRv0kaaaaasaaaaak0aaaaaasu+..#",
"WRQUlska0000009xR~~~QQQQ~~~T-..=JQWRv0qaaaaaaaaaaaaaaaaaaas8+..#",
"WWWUl0aakkk00k0vREWEEWWWWEWL-.X=J~WRv0aaaasaaaaaaaaaasaaask0+..#",
"WW!Ulaaa000k0k0vRWWWWWWWEEQL-..=H~WEv9kaaaaaaaaaasaaaaaauuue+..#",
"WW!Yl0aak0qkqaakvmmnmnnnmnmb@..#J~WEv0k0qkqqk0qsaaaaaak8@+++#..#",
"WWWUlaaak0kqaaa0qqq9099999q8@..=J~WRv0kakq0kk0kqaaaaa0su#.X..+.#",
"RW!Yxsasqkqkqksskkkkkkqkkqka@..=H~WRnqs0ksqkqkqksssskqk0+.... .X",
"WW!Ug8uuuu8uuuu8u88u8uauuuur+..=J~WRc8uuuu8uuu8uuuuuuuue+.+.$;;-",
"mmmj$++@++@+@++@++@+++++@@+;wregU!WT5O@+++++++++++@+++@+...+80au",
"00q8+ o.......o...X.XXX..X.+0sqxRW!T4 X...XXXXX....X..XX+#X+ukqk",
"kak8@...+..o.#..+.XX+X+..+.+uk0lUWWT3 +X+.XX+X+.XX+X+.XX...+usaa",
"aasu+.++.o+....+XXXXXXXXX..+8k0lRWWR4.X.XXXXXXXXXXXXXXXX.+.+usaa"
};
