/* XPM */
static char *COLLECTIBLES2[] = {
/* columns rows colors chars-per-pixel */
"64 64 197 2 ",
"   c #000000",
".  c #010000",
"X  c #000001",
"o  c #010001",
"O  c #010101",
"+  c #020201",
"@  c #030301",
"#  c #020202",
"$  c #030202",
"%  c #020303",
"&  c #030303",
"*  c #040301",
"=  c #040302",
"-  c #060401",
";  c #070501",
":  c #060402",
">  c #070502",
",  c #040304",
"<  c #040404",
"1  c #050405",
"2  c #050505",
"3  c #050506",
"4  c #060506",
"5  c #060507",
"6  c #060606",
"7  c #060607",
"8  c #070707",
"9  c #080602",
"0  c #080603",
"q  c #0A0703",
"w  c #090604",
"e  c #070807",
"r  c #0B0802",
"t  c #0C0902",
"y  c #0D0902",
"u  c #0D0903",
"i  c #0E0A02",
"p  c #0E0B02",
"a  c #0F0B02",
"s  c #0E0A03",
"d  c #0E0B03",
"f  c #080808",
"g  c #090909",
"h  c #0D0D0D",
"j  c #0E0E0E",
"k  c #130E02",
"l  c #130E04",
"z  c #161003",
"x  c #171103",
"c  c #151004",
"v  c #1A1304",
"b  c #1B1305",
"n  c #1B170A",
"m  c #221904",
"M  c #291F05",
"N  c #291F06",
"B  c #2E2306",
"V  c #342706",
"C  c #372A07",
"Z  c #382A06",
"A  c #3D2D07",
"S  c #3A2C08",
"D  c #262211",
"F  c #262113",
"G  c #4C3906",
"H  c #4E3B07",
"J  c #42310A",
"K  c #4C3A09",
"L  c #523E06",
"P  c #533E06",
"I  c #564107",
"U  c #5A4306",
"Y  c #5A4406",
"T  c #5B4507",
"R  c #5F4707",
"E  c #634D0E",
"W  c #7A5D0A",
"Q  c #654F13",
"!  c #84640A",
"~  c #85650A",
"^  c #86660B",
"/  c #86660D",
"(  c #926F08",
")  c #926E09",
"_  c #926F09",
"`  c #916E0A",
"'  c #947009",
"]  c #95710B",
"[  c #96710A",
"{  c #A0790B",
"}  c #AA8209",
"|  c #AB810A",
" . c #AD840A",
".. c #B58A0A",
"X. c #B68C0A",
"o. c #BA8E0D",
"O. c #BB8F0D",
"+. c #BC8F0D",
"@. c #BF9109",
"#. c #BE910D",
"$. c #A88217",
"%. c #C1930A",
"&. c #C2940A",
"*. c #C4950A",
"=. c #C5950A",
"-. c #C5950B",
";. c #C5960A",
":. c #C6970A",
">. c #C4960D",
",. c #C6970C",
"<. c #C6970D",
"1. c #C4950E",
"2. c #C6980A",
"3. c #C7980A",
"4. c #C7980D",
"5. c #C9990A",
"6. c #CD9C0A",
"7. c #C9990C",
"8. c #C9990D",
"9. c #CA9A0D",
"0. c #D09F0A",
"q. c #D4A109",
"w. c #D5A209",
"e. c #D7A409",
"r. c #DDA80A",
"t. c #D3A210",
"y. c #DEAB11",
"u. c #E1AC0B",
"i. c #E5AE0B",
"p. c #E9B109",
"a. c #E8B00A",
"s. c #EBB30B",
"d. c #ECB40C",
"f. c #EFB60D",
"g. c #F0B70A",
"h. c #F1B70A",
"j. c #F1B70B",
"k. c #F1B80B",
"l. c #F4BA09",
"z. c #F8BC08",
"x. c #FABE08",
"c. c #FBBE08",
"v. c #FABE09",
"b. c #FBBE09",
"n. c #FBBF09",
"m. c #E8B61F",
"M. c #F5BF19",
"N. c #EDBA20",
"B. c #FDC007",
"V. c #FEC106",
"C. c #FEC007",
"Z. c #FEC107",
"A. c #FFC107",
"S. c #FEC207",
"D. c #FFC207",
"F. c #FFC307",
"G. c #FFC407",
"H. c #FFC607",
"J. c #FFC707",
"K. c #FDC008",
"L. c #FCC009",
"P. c #FDC109",
"I. c #FEC108",
"U. c #FEC109",
"Y. c #FFC308",
"T. c #FFC309",
"R. c #FDC10A",
"E. c #FDC10B",
"W. c #FFC30A",
"Q. c #FFC408",
"!. c #FFC709",
"~. c #FCC10C",
"^. c #FDC10C",
"/. c #FCC10D",
"(. c #FDC10D",
"). c #FDC20C",
"_. c #FCC10E",
"`. c #FCC20F",
"'. c #FBC110",
"]. c #FAC112",
"[. c #FCC210",
"{. c #FDC211",
"}. c #FDC311",
"|. c #FCC212",
" X c #FCC213",
".X c #FEC413",
"XX c #FAC114",
"oX c #FBC214",
"OX c #FBC215",
"+X c #F9C116",
"@X c #FCC214",
"#X c #FCC316",
"$X c #FAC118",
"%X c #FBC31C",
"&X c #FAC41D",
"*X c #FDC61D",
"=X c None",
/* pixels */
"=X=X=X=X=X=X=X=X=X=X=X=X=X=X=X=X=X=X=X=X=X=X=X=X=X=X=X=X=X=X=X=X=X=X=X=X=X=X=X=X=X=X=X=X=X=X=X=X=X=X=X=X=X=X=X=X=X=X=X=X=X=X=X=X",
"=X=X=X=X=X=X=X=X=X=X=X=X=X=X=X=X=X=X=X=X=X=X=X=X=X=X=X=X=X=X=X=X=X=X=X=X=X=X=X=X=X=X=X=X=X=X=X=X=X=X=X=X=X=X=X=X=X=X=X=X=X=X=X=X",
"=X=X=X=X=X=X=X=X=X=X=X=X=X=X=X=X=X=X=X=X=X=X=X=X=X=X=X=X=X=X=X=X=X=X=X=X=X=X=X=X=X=X=X=X=X=X=X=X=X=X=X=X=X=X=X=X=X=X=X=X=X=X=X=X",
"=X=X=X=X=X=X=X=X=X=X=X=X=X=X=X=X=X=X=X=X=X8 8 , 8 . 8 8 8 . 8 8 8 8 8 . 8 . 8 8 . 8 8 =X=X=X=X=X=X=X=X=X=X=X=X=X=X=X=X=X=X=X=X=X",
"=X=X=X=X=X=X=X=X=X=X=X=X=X=X=X=X=X=X=X=X=X. . . . . . . . . . . . . . . . . . . . . . =X=X=X=X=X=X=X=X=X=X=X=X=X=X=X=X=X=X=X=X=X",
"=X=X=X=X=X=X=X=X=X=X=X=X=X=X=X=X=X=X=X=X=X. . . . . . . . . . . . . . . . . . . . . . =X=X=X=X=X=X=X=X=X=X=X=X=X=X=X=X=X=X=X=X=X",
"=X=X=X=X=X=X=X=X=X=X=X=X=X=X=X=X=X=X=X=X=X. . . . 8 8 8 8 8 8 8 8 , 8 . . . . . . . . =X=X=X=X=X=X=X=X=X=X=X=X=X=X=X=X=X=X=X=X=X",
"=X=X=X=X=X=X=X=X=X=X=X=X=X=X8 . . . . . . . . . 8 =X=X=X=X=X=X=X=X=X=X=X. . . . . . . . . . . . . f =X=X=X=X=X=X=X=X=X=X=X=X=X=X",
"=X=X=X=X=X=X=X=X=X=X=X=X=X=X8 . . . . . . . . . 8 =X=X=X=X=X=X=X=X=X=X=X. . . . . . . . . . . . . 8 =X=X=X=X=X=X=X=X=X=X=X=X=X=X",
"=X=X=X=X=X=X=X=X=X=X=X=X=X=X8 . . . . . . . . . 8 =X=X=X=X=X=X=X=X=X=X=X, , . * . * . . . . . . . e =X=X=X=X=X=X=X=X=X=X=X=X=X=X",
"=X=X=X=X=X=X=X=X=X=X=X8 8 8 . . . 8 =X=X=X=X=X=X=XM.{. X{.oX{.oXoX{..Xt. . .} }  . .W * . . . . . 8 =X=X=X=X=X=X=X=X=X=X=X=X=X=X",
"=X=X=X=X=X=X=X=X=X=X=X. . . . . . 8 =X=X=X=X=X=X=X~.Z.Z.Z.Z.Z.Z.Z.Z.Z.Z.F.F.F.F.F.J.X.* . . . . . 8 =X=X=X=X=X=X=X=X=X=X=X=X=X=X",
"=X=X=X=X=X=X=X=X=X=X=X. . . . . . 8 =X=X=X=X=X=X=X`.Z.n.Z.Z.Z.Z.Z.Z.Z.Z.Z.F.Z.Z.Z.F...* . . . . . 8 =X=X=X=X=X=X=X=X=X=X=X=X=X=X",
"=X=X=X=X=X=X=X=X=X=X=X. . . . . . n =X=X=X=X=X=X=X XR.R.R.`.R.R.R.`.`.s.w.w.e.l.F.F.@.B M B t . . 8 =X=X=X=X=X=X=X=X=X=X=X=X=X=X",
"=X=X=X=X=X=X=X=X=X=X=X. . 8 =X=X=X=X`.R.R.R.R.R.$X=X=X=X=X=X=X=X=X=X=X=Xx x m 5.F.Z.z.s.a.i.G . . . . . . =X=X=X=X=X=X=X=X=X=X=X",
"=X=X=X=X=X=X=X=X=X=X=X. . . =X=X=X=XR.Z.Z.Z.Z.Z.@X=X=X=X=X=X=X=X=X=X=X=X. . t *.!.Z.Z.Z.Z.x.L . . . . . . =X=X=X=X=X=X=X=X=X=X=X",
"=X=X=X=X=X=X=X=X=X=X=X. . . =X=X=X=XR.Z.Z.Z.Z.Z.oX=X=X=X=X=X=X=X=X=X=X=X. . t *.!.Z.Z.Z.R.x.L . . . . . . =X=X=X=X=X=X=X=X=X=X=X",
"=X=X=X=X=X=X=X=X=X=X8 . . , =X=X=X=XR.Z.Z.Z.Z.Z.oX=X=X=X=X=X=X=X=X=X=XE . . t *.Z.Z.Z.Z.Z.x.L . . . . . . =X=X=X=X=X=X=X=X=X=X=X",
"=X=X=X=X=X=X=X. . . . . . , =X=X=X=XR.Z.Z.Z.Z.Z.oX=X=X=X&XR.R.Z.R.R.R.( . . t *.Z.Z.Z.Z.Z.x.P . . . . . . =X=X=X=X=X=X=X=X=X=X=X",
"=X=X=X=X=X=X=X. . . . . . . =X=X=X=XR.Z.Z.Z.Z.Z.oX=X=X=X%XR.Z.Z.Z.Z.!.( . . t *.F.Z.Z.Z.Z.n.P . . . . . . =X=X=X=X=X=X=X=X=X=X=X",
"=X=X=X=X=X=X=X. . . . . . 8 =X=X=X=XR.Z.Z.Z.Z.Z.oX=X=X=X%XZ.Z.Z.Z.Z.F.( . . t *.F.Z.Z.Z.R.x.Y * r 9 . . . =X=X=X=X=X=X=X=X=X=X=X",
"=X=X=X=X=X=X=X. . . f =X=X=Xm.{.{.`.R.Z.Z.Z.Z.Z.oX=X=X=X%XZ.Z.Z.Z.Z.F.( . . t *.!.Z.Z.Z.Z.Z.q.@.&.] r . . 8 8 8 8 =X=X=X=X=X=X=X",
"=X=X=X=X=X=X=X. . . 8 =X=X=X@XZ.Z.Z.Z.Z.Z.Z.Z.Z.oX=X=X=X%XR.Z.Z.Z.Z.F.' . . t *.F.Z.Z.Z.Z.Z.Z.F.F.2.p . . . . . . =X=X=X=X=X=X=X",
"=X=X=X=X=X=X=X. . . 8 =X=X=X@XZ.Z.Z.Z.Z.Z.Z.Z.Z.@X=X=X=X%XZ.Z.Z.Z.Z.F.( . . t *.F.Z.Z.Z.Z.Z.Z.Z.F.*.t . . . . . . =X=X=X=X=X=X=X",
"=X=X=X=X=X=X=X. . . 8 =X=X=X@XZ.Z.Z.Z.Z.Z.Z.Z.Z. X=X=X=X%XZ.Z.Z.Z.Z.F.' . . t *.!.Z.Z.Z.Z.Z.Z.Z.R.*.t . . . . . . =X=X=X=X=X=X=X",
"=X=X=X=X=X=X=X. . . 8 =X=X=X@XZ.Z.Z.Z.Z.Z.Z.Z.Z.oX=X=X=X%XR.Z.Z.Z.Z.F.( . . t *.F.Z.Z.Z.Z.Z.Z.Z.F.*.t . . . . . . =X=X=X=X=X=X=X",
"=X=X=X=X=X=X=X. . . 8 =X=X=X@XZ.Z.Z.Z.Z.Z.Z.Z.Z.oX=X=X=X%XZ.Z.Z.Z.Z.F.' . . t *.F.Z.Z.Z.Z.Z.Z.Z.F.*.t . . . . . . =X=X=X=X=X=X=X",
"=X=X=X=X=X=X=X. . . 8 =X=X=X@XZ.Z.Z.Z.Z.Z.Z.Z.Z.oX=X=X=X%XZ.Z.Z.Z.Z.F.' . . t *.F.Z.Z.Z.Z.Z.Z.Z.F.*.t . . . . . . =X=X=X=X=X=X=X",
"=X=X=X=X=X=X=X. . . 8 =X=X=X@XZ.Z.Z.Z.Z.Z.Z.Z.Z.oX=X=X=X%XR.Z.Z.Z.Z.Z.( . . t *.F.Z.Z.Z.Z.Z.Z.Z.F.*.t . . . . . . =X=X=X=X=X=X=X",
"=X=X=X=X=X=X=X. . . 8 =X=X=X@XZ.Z.Z.Z.Z.Z.Z.Z.Z.oX=X=X=X%XZ.Z.Z.Z.Z.F.( . . t *.Z.Z.Z.Z.Z.Z.Z.Z.F.2.t . . . . . . =X=X=X=X=X=X=X",
"=X=X=X=X=X=X=X. . . 8 =X=X=X@XZ.Z.Z.Z.Z.Z.Z.Z.Z.oX=X=X=X%XZ.Z.Z.Z.Z.!.( . . t *.!.Z.Z.Z.Z.Z.Z.Z.!.*.t . . . . . . =X=X=X=X=X=X=X",
"=X=X=X=X=X=X=X. . . 8 =X=X=X@XZ.Z.Z.R.Z.Z.Z.Z.Z.oX=X=X=X%XR.Z.Z.Z.Z.F.( . . t *.F.Z.Z.Z.Z.Z.Z.Z.F.*.t . . . . . . =X=X=X=X=X=X=X",
"=X=X=X=X=X=X=X. . . 8 =X=X=X{.Z.Z.Z.Z.Z.Z.Z.Z.Z.@X=X=X=X%XZ.Z.Z.Z.Z.F.( . . t *.F.Z.Z.Z.Z.Z.Z.Z.F.*.t . . . . . . =X=X=X=X=X=X=X",
"=X=X=X=X=X=X=X. . . 8 =X=X=X@XZ.Z.Z.Z.Z.Z.Z.Z.Z.oX=X=X=X%XR.Z.Z.Z.Z.Z.( . . t *.F.Z.Z.Z.Z.Z.Z.Z.F.2.t . . . . . . =X=X=X=X=X=X=X",
"=X=X=X=X=X=X=X. . . 8 =X=X=X@XZ.Z.Z.Z.Z.Z.Z.Z.Z.oX=X=X=X%XZ.Z.Z.Z.Z.!.( . . t *.F.F.Z.Z.Z.Z.Z.Z.!.*.t . . . . . . =X=X=X=X=X=X=X",
"=X=X=X=X=X=X=X. . . 8 =X=X=X@XZ.Z.Z.Z.Z.Z.Z.Z.Z.oX=X=X=X%XZ.Z.Z.Z.Z.!.( . . t *.F.Z.Z.Z.Z.Z.Z.Z.Z.*.t . . . . . . =X=X=X=X=X=X=X",
"=X=X=X=X=X=X=X. . . 8 =X=X=X@XZ.Z.Z.Z.Z.Z.Z.Z.Z.oX=X=X=X%XZ.Z.Z.Z.Z.Z.( . . t *.F.Z.Z.Z.Z.Z.Z.Z.F.*.t . . . . . . =X=X=X=X=X=X=X",
"=X=X=X=X=X=X=X. . . 8 =X=X=X@XZ.Z.Z.Z.Z.Z.Z.Z.Z.oX=X=X=X%XZ.Z.Z.Z.Z.F.( . . t *.F.Z.Z.Z.Z.Z.Z.Z.F.*.t . . . . . . =X=X=X=X=X=X=X",
"=X=X=X=X=X=X=X. . . 8 =X=X=X@XZ.Z.Z.Z.Z.Z.Z.Z.Z.oX=X=X=X%XZ.Z.Z.Z.Z.!.( . . t *.F.Z.Z.Z.Z.Z.Z.Z.F.*.t . . . . . . =X=X=X=X=X=X=X",
"=X=X=X=X=X=X=X. . . 8 =X=X=X@XZ.Z.Z.Z.Z.Z.Z.Z.R.oX=X=X=X%XR.Z.Z.Z.Z.F.( . . t *.F.Z.Z.Z.Z.Z.Z.Z.F.2.t . . . . . . =X=X=X=X=X=X=X",
"=X=X=X=X=X=X=X. . . 8 =X=X=X@XZ.Z.Z.Z.Z.Z.Z.Z.Z.oX=X=X=X%XR.Z.Z.Z.Z.!.( . . t *.Z.Z.Z.Z.Z.Z.Z.Z.F.*.t . . . . . . =X=X=X=X=X=X=X",
"=X=X=X=X=X=X=X. . . 8 =X=X=X@XZ.Z.Z.Z.Z.Z.Z.Z.Z.oX=X=X=X%XR.Z.Z.Z.Z.F.( . . t *.F.Z.Z.Z.Z.Z.Z.Z.F.*.t . . . . . . =X=X=X=X=X=X=X",
"=X=X=X=X=X=X=X. . . f =X=X=XN.{.{.~.R.Z.Z.Z.Z.Z.oX=X=X=X%XZ.Z.Z.Z.Z.!.( . . t *.F.Z.Z.Z.V.Z.r.6.q.[ r . . 8 e 8 e =X=X=X=X=X=X=X",
"=X=X=X=X=X=X=X. . . . , , e =X=X=X=XR.R.Z.Z.Z.Z.oX=X=X=X%XZ.Z.Z.Z.Z.Z.( . . t *.!.Z.Z.Z.n.x.E t z c . . . =X=X=X=X=X=X=X=X=X=X=X",
"=X=X=X=X=X=X=X. . . . . . . =X=X=X=XR.Z.Z.Z.Z.Z.oX=X=X=X%XZ.Z.Z.Z.Z.Z.( . . t *.F.Z.Z.Z.Z.x.L . . . . . . =X=X=X=X=X=X=X=X=X=X=X",
"=X=X=X=X=X=X=X. . . . . . , =X=X=X=XR.Z.Z.Z.Z.Z.oX=X=X=X%X!.F.R.R.!.!.] . . t *.F.Z.Z.Z.R.x.L . . . . . . =X=X=X=X=X=X=X=X=X=X=X",
"=X=X=X=X=X=X=X=Xh h f . . , =X=X=X=XR.Z.Z.Z.Z.Z.y.F =X=XQ ~ ~ ! ~ ~ ~ K . . t *.F.Z.Z.Z.Z.x.P . . . . . . =X=X=X=X=X=X=X=X=X=X=X",
"=X=X=X=X=X=X=X=X=X=X=X. . , =X=X=X=XR.Z.Z.Z.Z.F.<.d . . . . . . . . . . . . t *.F.Z.Z.Z.Z.x.P . . . . . . =X=X=X=X=X=X=X=X=X=X=X",
"=X=X=X=X=X=X=X=X=X=X=X. . 8 =X=X=X=XR.Z.Z.Z.Z.F.<.t . . . . . . . . . . . . r *.F.Z.Z.R.Z.x.L . . . . . . =X=X=X=X=X=X=X=X=X=X=X",
"=X=X=X=X=X=X=X=X=X=X=X. . . =X=X=X=X X`.R.Z.Z.Z.4.v d t t p t k k t t t p p v 2.F.Z.x.k.h.d.H . . . , . . =X=X=X=X=X=X=X=X=X=X=X",
"=X=X=X=X=X=X=X=X=X=X=X. . . 8 8 8 D =X=X=XoXR.Z.k.7.<.<.<.*.4.4.<.<.4.2.4.<.7.h.Z.F.*.A Z Z l . . 8 =X=X=X=X=X=X=X=X=X=X=X=X=X=X",
"=X=X=X=X=X=X=X=X=X=X=X. . . . . . 8 =X=X=XoXZ.Z.Z.F.F.R.F.F.F.F.Z.Z.F.F.F.Z.Z.Z.Z.F...* . . . . . e =X=X=X=X=X=X=X=X=X=X=X=X=X=X",
"=X=X=X=X=X=X=X=X=X=X=X. . . . . . 8 =X=X=X#XZ.!.F.Z.Z.Z.Z.Z.Z.Z.Z.Z.Z.Z.!.Z.F.F.F.J.X.* . . . . . 8 =X=X=X=X=X=X=X=X=X=X=X=X=X=X",
"=X=X=X=X=X=X=X=X=X=X=X8 8 , . . . 8 =X=X=X$.O.O.7.B.Z.Z.Z.Z.Z.Z.Z.Z.Z.i.o.#.o.#.#.#./ * . . . . . 8 =X=X=X=X=X=X=X=X=X=X=X=X=X=X",
"=X=X=X=X=X=X=X=X=X=X=X=X=X=X8 . . . . . = w 9 * J k.Z.Z.Z.Z.Z.Z.Z.Z.!.] w w w 9 r r * . . . . . . 8 =X=X=X=X=X=X=X=X=X=X=X=X=X=X",
"=X=X=X=X=X=X=X=X=X=X=X=X=X=X8 . . . . . . . . . S k.Z.Z.Z.Z.Z.Z.Z.Z.!.( . . . . . . . . . . . . . 8 =X=X=X=X=X=X=X=X=X=X=X=X=X=X",
"=X=X=X=X=X=X=X=X=X=X=X=X=X=Xf . . . . . . . . . S f.R.x.L.L.R.x.x.R.R.( . . . . . . . . . . . . . f =X=X=X=X=X=X=X=X=X=X=X=X=X=X",
"=X=X=X=X=X=X=X=X=X=X=X=X=X=X=X=X=X=X=X=X=X8 . . x I Y Y Y Y Y Y Y U Y V . . . . . . . =X=X=X=X=X=X=X=X=X=X=X=X=X=X=X=X=X=X=X=X=X",
"=X=X=X=X=X=X=X=X=X=X=X=X=X=X=X=X=X=X=X=X=X. . . . . . . . . . . . . . . . . . . . . . =X=X=X=X=X=X=X=X=X=X=X=X=X=X=X=X=X=X=X=X=X",
"=X=X=X=X=X=X=X=X=X=X=X=X=X=X=X=X=X=X=X=X=X. . . . . . . . . . . . . . . . . . . . . . =X=X=X=X=X=X=X=X=X=X=X=X=X=X=X=X=X=X=X=X=X",
"=X=X=X=X=X=X=X=X=X=X=X=X=X=X=X=X=X=X=X=X=X8 8 8 8 8 8 . 8 8 . 8 8 8 8 8 8 8 8 . 8 8 8 =X=X=X=X=X=X=X=X=X=X=X=X=X=X=X=X=X=X=X=X=X",
"=X=X=X=X=X=X=X=X=X=X=X=X=X=X=X=X=X=X=X=X=X=X=X=X=X=X=X=X=X=X=X=X=X=X=X=X=X=X=X=X=X=X=X=X=X=X=X=X=X=X=X=X=X=X=X=X=X=X=X=X=X=X=X=X",
"=X=X=X=X=X=X=X=X=X=X=X=X=X=X=X=X=X=X=X=X=X=X=X=X=X=X=X=X=X=X=X=X=X=X=X=X=X=X=X=X=X=X=X=X=X=X=X=X=X=X=X=X=X=X=X=X=X=X=X=X=X=X=X=X",
"=X=X=X=X=X=X=X=X=X=X=X=X=X=X=X=X=X=X=X=X=X=X=X=X=X=X=X=X=X=X=X=X=X=X=X=X=X=X=X=X=X=X=X=X=X=X=X=X=X=X=X=X=X=X=X=X=X=X=X=X=X=X=X=X"
};
