/* XPM */
static const char *EXIT[] = {
/* columns rows colors chars-per-pixel */
"477 454 256 2 ",
"   c #050605",
".  c #0A0C05",
"X  c #060609",
"o  c #0A0C0A",
"O  c #070906",
"+  c #0B1103",
"@  c #081708",
"#  c #111506",
"$  c #141B03",
"%  c #161B0B",
"&  c #191D0D",
"*  c #151708",
"=  c #0D0D15",
"-  c #0E0C1A",
";  c #060614",
":  c #0C1515",
">  c #141414",
",  c #14131C",
"<  c #19161D",
"1  c #1E1E1E",
"2  c #191915",
"3  c #140D16",
"4  c #211E1D",
"5  c #23171C",
"6  c #241A05",
"7  c #1B2305",
"8  c #1A220D",
"9  c #14230A",
"0  c #1E201D",
"q  c #142611",
"w  c #0C260F",
"e  c #21211E",
"r  c #262A16",
"t  c #272B0D",
"y  c #1E1D21",
"u  c #1A1825",
"i  c #151027",
"p  c #211D22",
"a  c #241A25",
"s  c #281C2F",
"d  c #1E2122",
"f  c #1B2423",
"g  c #222122",
"h  c #242329",
"j  c #29252A",
"k  c #2B2B2B",
"l  c #282527",
"z  c #343434",
"x  c #393939",
"c  c #30312C",
"v  c #155211",
"b  c #245C1D",
"n  c #255917",
"m  c #3D520F",
"M  c #24631D",
"N  c #29621E",
"B  c #39631E",
"V  c #256021",
"C  c #43550E",
"Z  c #47590C",
"A  c #485716",
"S  c #545816",
"D  c #5E711B",
"F  c #5D7217",
"G  c #586B1B",
"H  c #627A1C",
"J  c #637915",
"K  c #5F732B",
"L  c #5C7327",
"P  c #536C29",
"I  c #61732C",
"U  c #667A2A",
"Y  c #637430",
"T  c #6A7E31",
"R  c #6B772D",
"E  c #4C5725",
"W  c #535354",
"Q  c #5B5B5B",
"!  c #4D4D4E",
"~  c #71726F",
"^  c #0B9A01",
"/  c #149D02",
"(  c #1C9E02",
")  c #179A06",
"_  c #16950D",
"`  c #259C02",
"'  c #2B9D1C",
"]  c #30990C",
"[  c #0CA403",
"{  c #0DA708",
"}  c #14A304",
"|  c #1BA304",
" . c #15A904",
".. c #1CAB04",
"X. c #13A40B",
"o. c #1BA40A",
"O. c #15AA0B",
"+. c #1DAC0D",
"@. c #1CB10C",
"#. c #16B10B",
"$. c #1DAD11",
"%. c #17A913",
"&. c #1CB113",
"*. c #19B317",
"=. c #0EAE0F",
"-. c #22A304",
";. c #23A40B",
":. c #22AD0D",
">. c #2BAB0C",
",. c #29A705",
"<. c #34AC0C",
"1. c #3AAC0C",
"2. c #35A704",
"3. c #22B10D",
"4. c #2AB50B",
"5. c #37B20C",
"6. c #22AC10",
"7. c #29AB13",
"8. c #2CA31D",
"9. c #23AC19",
"0. c #27A715",
"q. c #39AD12",
"w. c #22B112",
"e. c #29B916",
"r. c #29B919",
"t. c #26B417",
"y. c #3CB112",
"u. c #36B312",
"i. c #2C9D21",
"p. c #2C9022",
"a. c #35AC27",
"s. c #2DAF23",
"d. c #1CB121",
"f. c #45AC09",
"g. c #48B50C",
"h. c #44AE13",
"j. c #45B313",
"k. c #4BB313",
"l. c #4AB917",
"z. c #52B514",
"x. c #52BC1B",
"c. c #5DBC1A",
"v. c #56BA15",
"b. c #54B30C",
"n. c #61BC1A",
"m. c #64BD17",
"M. c #6FBC19",
"N. c #6D8231",
"B. c #53B625",
"V. c #68BB26",
"C. c #58C21A",
"Z. c #4CC117",
"A. c #67C31B",
"S. c #74C81D",
"D. c #59C622",
"F. c #6AC825",
"G. c #73CB25",
"H. c #73CA29",
"J. c #79C926",
"K. c #7CD229",
"L. c #74D02F",
"P. c #51C325",
"I. c #9CB83E",
"U. c #8BAD3C",
"Y. c #85CE2A",
"T. c #87CD27",
"R. c #85D42C",
"E. c #8AD22B",
"W. c #88D529",
"Q. c #96DB2E",
"!. c #97D82D",
"~. c #8CD933",
"^. c #89D633",
"/. c #9BDB33",
"(. c #94D935",
"). c #8FCC32",
"_. c #AEDB2C",
"`. c #AAD928",
"'. c #B5DD2E",
"]. c #B9DE2E",
"[. c #B5DA27",
"{. c #ABCB3B",
"}. c #A8C838",
"|. c #AEDD32",
" X c #A1DE39",
".X c #A5DB37",
"XX c #B6DE32",
"oX c #B8DE31",
"OX c #B5DE39",
"+X c #BADD39",
"@X c #B6D635",
"#X c #B1CE38",
"$X c #9BE337",
"%X c #90E234",
"&X c #ADE22C",
"*X c #B5E12E",
"=X c #BBE22E",
"-X c #BBE62A",
";X c #A3E135",
":X c #A5E23A",
">X c #ACE43B",
",X c #ACE536",
"<X c #B4E132",
"1X c #BBE233",
"2X c #BCE936",
"3X c #B3E53C",
"4X c #BDE43C",
"5X c #B4EA3B",
"6X c #BCEA3C",
"7X c #B5EA35",
"8X c #BBF23B",
"9X c #A4D31C",
"0X c #C2DE2D",
"qX c #C7DC2B",
"wX c #C2DC33",
"eX c #C5DD39",
"rX c #C2E334",
"tX c #C2EB33",
"yX c #C2E53B",
"uX c #C2EA3C",
"iX c #CAE73A",
"pX c #CAF23D",
"aX c #C6F23C",
"sX c #C8E631",
"dX c #9EB941",
"fX c #8BB348",
"gX c #A0BB45",
"hX c #A4BC48",
"jX c #A8BC59",
"kX c #8B9D48",
"lX c #ADD442",
"zX c #B3D444",
"xX c #B7D64B",
"cX c #BBDD4C",
"vX c #B7D847",
"bX c #BBDA51",
"nX c #ADCC45",
"mX c #AAE743",
"MX c #BBEB42",
"NX c #B8E744",
"BX c #B7F24A",
"VX c #97DD44",
"CX c #C3EB43",
"ZX c #C6E946",
"AX c #CCF443",
"SX c #CEF44D",
"DX c #C9F648",
"FX c #D1F64E",
"GX c #D2F948",
"HX c #D4F852",
"JX c #C9EE51",
"KX c #C8E351",
"LX c #E6E6E6",
"PX c gray52",
"IX c None",
"UX c black",
/* pixels */
"IXIXIXIXIXIXIXIXIXIXIXIXIXIXIXIXIXIXIXIXIXIXIXIXIXIXIXIXIXIXIXIXIXIXIXIXIXIXIXIXIXIXIXIXIXIXIXIXIXIXIXIXIXIXIXIXIXIXIXIXIXIXIXIXIXIXIXIXIXIXIXIXIXIXIXIXIXIXIXIXIXIXIXIXIXIXIXIXIXIXIXIXIXIXIXIXIXIXIXIXIXIXIXIXIXIXIXIXIXIXIXIXIXIXIXIXIXIXIXIXIXIXIXIXIXIXIXIXIXIXIXIXIXIXIXIXIXIXIXIXIXIXIXIXIXIXIXIXIXIXIXIXIXIXIXIXIXIXIXIXIXIXIXIXIXIXIXIXIXIXIXIXIXIXIXIXIXIXIXIXIXIXIXIXIXIXIXIXIXIXIXIXIXIXIXIXIXIXIXIXIXIXIXIXIXIXIXIXIXIXIXIXIXIXIXIXIXIXIXIXIXIXIXIXIXIXIXIXIXIXIXIXIXIXIXIXIXIXIXIXIXIXIXIXIXIXIXIXIXIXIXIXIXIXIXIXIXIXIXIXIXIXIXIXIXIXIXIXIXIXIXIXIXIXIXIXIXIXIXIXIXIXIXIXIXIXIXIXIXIXIXIXIXIXIXIXIXIXIXIXIXIXIXIXIXIXIXIXIXIXIXIXIXIXIXIXIXIXIXIXIXIXIXIXIXIXIXIXIXIXIXIXIXIXIXIXIXIXIXIXIXIXIXIXIXIXIXIXIXIXIXIXIXIXIXIXIXIXIXIXIXIXIXIXIXIXIXIXIXIXIXIXIXIXIXIXIXIXIXIXIXIXIXIXIXIXIXIXIXIXIXIXIXIXIXIXIXIXIXIXIXIXIXIXIXIXIXIXIXIXIXIXIXIXIXIXIXIXIXIXIXIXIXIXIXIXIXIXIXIXIXIXIXIXIXIXIXIXIXIXIXIXIXIXIXIXIXIXIXIXIXIXIXIXIXIXIXIXIXIXIXIXIXIXIXIXIXIXIXIXIXIXIXIXIXIXIX",
"IXIXIXIXIXIXIXIXIXIXIXIXIXIXIXIXIXIXIXIXIXIXIXIXIXIXIXIXIXIXIXIXIXIXIXIXIXIXIXIXIXIXIXIXIXIXIXIXIXIXIXIXIXIXIXIXIXIXIXIXIXIXIXIXIXIXIXIXIXIXIXIXIXIXIXIXIXIXIXIXIXIXIXIXIXIXIXIXIXIXIXIXIXIXIXIXIXIXIXIXIXIXIXIXIXIXIXIXIXIXIXIXIXIXIXIXIXIXIXIXIXIXIXIXIXIXIXIXIXIXIXIXIXIXIXIXIXIXIXIXIXIXIXIXIXIXIXIXIXIXIXIXIXIXIXIXIXIXIXIXIXIXIXIXIXIXIXIXIXIXIXIXIXIXIXIXIXIXIXIXIXIXIXIXIXIXIXIXIXIXIXIXIXIXIXIXIXIXIXIXIXIXIXIXIXIXIXIXIXIXIXIXIXIXIXIXIXIXIXIXIXIXIXIXIXIXIXIXIXIXIXIXIXIXIXIXIXIXIXIXIXIXIXIXIXIXIXIXIXIXIXIXIXIXIXIXIXIXIXIXIXIXIXIXIXIXIXIXIXIXIXIXIXIXIXIXIXIXIXIXIXIXIXIXIXIXIXIXIXIXIXIXIXIXIXIXIXIXIXIXIXIXIXIXIXIXIXIXIXIXIXIXIXIXIXIXIXIXIXIXIXIXIXIXIXIXIXIXIXIXIXIXIXIXIXIXIXIXIXIXIXIXIXIXIXIXIXIXIXIXIXIXIXIXIXIXIXIXIXIXIXIXIXIXIXIXIXIXIXIXIXIXIXIXIXIXIXIXIXIXIXIXIXIXIXIXIXIXIXIXIXIXIXIXIXIXIXIXIXIXIXIXIXIXIXIXIXIXIXIXIXIXIXIXIXIXIXIXIXIXIXIXIXIXIXIXIXIXIXIXIXIXIXIXIXIXIXIXIXIXIXIXIXIXIXIXIXIXIXIXIXIXIXIXIXIXIXIXIXIXIXIXIXIXIXIXIXIXIXIXIXIXIXIXIXIXIX",
"IXIXIXIXIXIXIXIXIXIXIXIXIXIXIXIXIXIXIXIXIXIXIXIXIXIXIXIXIXIXIXIXIXIXIXIXIXIXIXIXIXIXIXIXIXIXIXIXIXIXIXIXIXIXIXIXIXIXIXIXIXIXIXIXIXIXIXIXIXIXIXIXIXIXIXIXIXIXIXIXIXIXIXIXIXIXIXIXIXIXIXIXIXIXIXIXIXIXIXIXIXIXIXIXIXIXIXIXIXIXIXIXIXIXIXIXIXIXIXIXIXIXIXIXIXIXIXIXIXIXIXIXIXIXIXIXIXIXIXIXIXIXIXIXIXIXIXIXIXIXIXIXIXIXIXIXIXIXIXIXIXIXIXIXIXIXIXIXIXIXIXIXIXIXIXIXIXIXIXIXIXIXIXIXIXIXIXIXIXIXIXIXIXIXIXIXIXIXIXIXIXIXIXIXIXIXIXIXIXIXIXIXIXIXIXIXIXIXIXIXIXIXIXIXIXIXIXIXIXIXIXIXIXIXIXIXIXIXIXIXIXIXIXIXIXIXIXIXIXIXIXIXIXIXIXIXIXIXIXIXIXIXIXIXIXIXIXIXIXIXIXIXIXIXIXIXIXIXIXIXIXIXIXIXIXIXIXIXIXIXIXIXIXIXIXIXIXIXIXIXIXIXIXIXIXIXIXIXIXIXIXIXIXIXIXIXIXIXIXIXIXIXIXIXIXIXIXIXIXIXIXIXIXIXIXIXIXIXIXIXIXIXIXIXIXIXIXIXIXIXIXIXIXIXIXIXIXIXIXIXIXIXIXIXIXIXIXIXIXIXIXIXIXIXIXIXIXIXIXIXIXIXIXIXIXIXIXIXIXIXIXIXIXIXIXIXIXIXIXIXIXIXIXIXIXIXIXIXIXIXIXIXIXIXIXIXIXIXIXIXIXIXIXIXIXIXIXIXIXIXIXIXIXIXIXIXIXIXIXIXIXIXIXIXIXIXIXIXIXIXIXIXIXIXIXIXIXIXIXIXIXIXIXIXIXIXIXIXIXIXIXIXIXIXIXIXIX",
"IXIXIXIXIXIXIXIXIXIXIXIXIXIXIXIXIXIXIXIXIXIXIXIXIXIXIXIXIXIXIXIXIXIXIXIXIXIXIXIXIXIXIXIXIXIXIXIXIXIXIXIXIXIXIXIXIXIXIXIXIXIXIXIXIXIXIXIXIXIXIXIXIXIXIXIXIXIXIXIXIXIXIXIXIXIXIXIXIXIXIXIXIXIXIXIXIXIXIXIXIXIXIXIXIXIXIXIXIXIXIXIXIXIXIXIXIXIXIXIXIXIXIXIXIXIXIXIXIXIXIXIXIXIXIXIXIXIXIXIXIXIXIXIXIXIXIXIXIXIXIXIXIXIXIXIXIXIXIXIXIXIXIXIXIXIXIXIXIXIXIXIXIXIXIXIXIXIXIXIXIXIXIXIXIXIXIXIXIXIXIXIXIXIXIXIXIXIXIXIXIXIXIXIXIXIXIXIXIXIXIXIXIXIXIXIXIXIXIXIXIXIXIXIXIXIXIXIXIXIXIXIXIXIXIXIXIXIXIXIXIXIXIXIXIXIXIXIXIXIXIXIXIXIXIXIXIXIXIXIXIXIXIXIXIXIXIXIXIXIXIXIXIXIXIXIXIXIXIXIXIXIXIXIXIXIXIXIXIXIXIXIXIXIXIXIXIXIXIXIXIXIXIXIXIXIXIXIXIXIXIXIXIXIXIXIXIXIXIXIXIXIXIXIXIXIXIXIXIXIXIXIXIXIXIXIXIXIXIXIXIXIXIXIXIXIXIXIXIXIXIXIXIXIXIXIXIXIXIXIXIXIXIXIXIXIXIXIXIXIXIXIXIXIXIXIXIXIXIXIXIXIXIXIXIXIXIXIXIXIXIXIXIXIXIXIXIXIXIXIXIXIXIXIXIXIXIXIXIXIXIXIXIXIXIXIXIXIXIXIXIXIXIXIXIXIXIXIXIXIXIXIXIXIXIXIXIXIXIXIXIXIXIXIXIXIXIXIXIXIXIXIXIXIXIXIXIXIXIXIXIXIXIXIXIXIXIXIXIXIXIXIXIXIXIXIXIX",
"IXIXIXIXIXIXIXIXIXIXIXIXIXIXIXIXIXIXIXIXIXIXIXIXIXIXIXIXIXIXIXIXIXIXIXIXIXIXIXIXIXIXIXIXIXIXIXIXIXIXIXIXIXIXIXIXIXIXIXIXIXIXIXIXIXIXIXIXIXIXIXIXIXIXIXIXIXIXIXIXIXIXIXIXIXIXIXIXIXIXIXIXIXIXIXIXIXIXIXIXIXIXIXIXIXIXIXIXIXIXIXIXIXIXIXIXIXIXIXIXIXIXIXIXIXIXIXIXIXIXIXIXIXIXIXIXIXIXIXIXIXIXIXIXIXIXIXIXIXIXIXIXIXIXIXIXIXIXIXIXIXIXIXIXIXIXIXIXIXIXIXIXIXIXIXIXIXIXIXIXIXIXIXIXIXIXIXIXIXIXIXIXIXIXIXIXIXIXIXIXIXIXIXIXIXIXIXIXIXIXIXIXIXIXIXIXIXIXIXIXIXIXIXIXIXIXIXIXIXIXIXIXIXIXIXIXIXIXIXIXIXIXIXIXIXIXIXIXIXIXIXIXIXIXIXIXIXIXIXIXIXIXIXIXIXIXIXIXIXIXIXIXIXIXIXIXIXIXIXIXIXIXIXIXIXIXIXIXIXIXIXIXIXIXIXIXIXIXIXIXIXIXIXIXIXIXIXIXIXIXIXIXIXIXIXIXIXIXIXIXIXIXIXIXIXIXIXIXIXIXIXIXIXIXIXIXIXIXIXIXIXIXIXIXIXIXIXIXIXIXIXIXIXIXIXIXIXIXIXIXIXIXIXIXIXIXIXIXIXIXIXIXIXIXIXIXIXIXIXIXIXIXIXIXIXIXIXIXIXIXIXIXIXIXIXIXIXIXIXIXIXIXIXIXIXIXIXIXIXIXIXIXIXIXIXIXIXIXIXIXIXIXIXIXIXIXIXIXIXIXIXIXIXIXIXIXIXIXIXIXIXIXIXIXIXIXIXIXIXIXIXIXIXIXIXIXIXIXIXIXIXIXIXIXIXIXIXIXIXIXIXIXIXIXIXIXIX",
"IXIXIXIXIXIXIXIXIXIXIXIXIXIXIXIXIXIXIXIXIXIXIXIXIXIXIXIXIXIXIXIXIXIXIXIXIXIXIXIXIXIXIXIXIXIXIXIXIXIXIXIXIXIXIXIXIXIXIXIXIXIXIXIXIXIXIXIXIXIXIXIXIXIXIXIXIXIXIXIXIXIXIXIXIXIXIXIXIXIXIXIXIXIXIXIXIXIXIXIXIXIXIXIXIXIXIXIXIXIXIXIXIXIXIXIXIXIXIXIXIXIXIXIXIXIXIXIXIXIXIXIXIXIXIXIXIXIXIXIXIXIXIXIXIXIXIXIXIXIXIXIXIXIXIXIXIXIXIXIXIXIXIXIXIXIXIXIXIXIXIXIXIXIXIXIXIXIXIXIXIXIXIXIXIXIXIXIXIXIXIXIXIXIXIXIXIXIXIXIXIXIXIXIXIXIXIXIXIXIXIXIXIXIXIXIXIXIXIXIXIXIXIXIXIXIXIXIXIXIXIXIXIXIXIXIXIXIXIXIXIXIXIXIXIXIXIXIXIXIXIXIXIXIXIXIXIXIXIXIXIXIXIXIXIXIXIXIXIXIXIXIXIXIXIXIXIXIXIXIXIXIXIXIXIXIXIXIXIXIXIXIXIXIXIXIXIXIXIXIXIXIXIXIXIXIXIXIXIXIXIXIXIXIXIXIXIXIXIXIXIXIXIXIXIXIXIXIXIXIXIXIXIXIXIXIXIXIXIXIXIXIXIXIXIXIXIXIXIXIXIXIXIXIXIXIXIXIXIXIXIXIXIXIXIXIXIXIXIXIXIXIXIXIXIXIXIXIXIXIXIXIXIXIXIXIXIXIXIXIXIXIXIXIXIXIXIXIXIXIXIXIXIXIXIXIXIXIXIXIXIXIXIXIXIXIXIXIXIXIXIXIXIXIXIXIXIXIXIXIXIXIXIXIXIXIXIXIXIXIXIXIXIXIXIXIXIXIXIXIXIXIXIXIXIXIXIXIXIXIXIXIXIXIXIXIXIXIXIXIXIXIXIXIXIXIXIX",
"IXIXIXIXIXIXIXIXIXIXIXIXIXIXIXIXIXIXIXIXIXIXLXLXLXLXLXIXIXIXIXIXIXIXIXIXIXIXIXIXIXIXIXIXIXIXIXIXIXIXIXIXIXIXIXIXIXIXIXIXIXIXIXIXIXIXIXIXIXIXIXIXIXIXIXIXIXIXIXIXIXIXIXIXIXIXIXIXIXIXIXIXIXIXIXIXIXIXIXIXIXIXIXIXIXIXIXIXIXIXIXIXIXIXIXIXIXIXIXIXIXIXIXIXIXIXIXIXIXIXIXIXIXIXIXIXIXIXIXIXIXIXIXIXIXIXIXIXIXIXIXIXIXIXIXIXIXIXIXIXIXIXIXIXIXIXIXIXIXIXIXIXIXIXIXIXIXIXIXIXIXIXIXIXIXIXIXIXIXIXIXIXIXIXIXIXIXIXIXIXIXIXIXIXIXIXIXIXIXIXIXIXIXIXIXIXIXIXIXIXIXIXIXIXIXIXIXIXIXIXIXIXIXIXIXIXIXIXIXIXIXIXIXIXIXIXIXIXIXIXIXIXIXIXIXIXIXIXIXIXIXIXIXIXIXIXIXIXIXIXIXIXIXIXIXIXIXIXIXIXIXIXIXIXIXIXIXIXIXIXIXIXIXIXIXIXIXIXIXIXIXIXIXIXIXIXIXIXIXIXIXIXIXIXIXIXIXIXIXIXIXIXIXIXIXIXIXIXIXIXIXIXIXIXIXIXIXIXIXIXIXIXIXIXIXIXIXIXIXIXIXIXIXIXIXIXIXIXIXIXIXIXIXIXIXIXIXIXIXIXIXIXIXIXIXIXIXIXIXIXIXIXIXIXIXIXIXIXIXIXIXIXIXIXIXIXIXIXIXIXIXIXIXIXIXIXIXIXIXIXIXIXIXIXIXIXIXIXIXIXIXIXIXIXIXIXIXIXIXIXIXIXIXIXIXIXIXIXIXIXIXIXIXIXIXIXIXIXIXIXIXIXIXIXIXIXIXIXIXIXIXIXIXIXIXIXIXIXIXIXIXIXIXIXIXIXIX",
"IXIXIXIXIXIXIXIXIXIXIXIXIXIXIXIXIXIXIXIXLXLXLXLXLXLXLXLXLXLXLXIXIXIXIXIXIXIXIXIXIXIXIXIXIXIXIXIXIXIXIXIXIXIXIXIXIXIXIXIXIXIXIXIXIXIXIXIXIXIXIXIXIXIXIXIXIXIXIXIXIXIXIXIXIXIXIXIXIXIXIXIXIXIXIXIXIXIXIXIXIXIXIXIXIXIXIXIXIXIXIXIXIXIXIXIXIXIXIXIXIXIXIXIXIXIXIXIXIXIXIXIXIXIXIXIXIXIXIXIXIXIXIXIXIXIXIXIXIXIXIXIXIXIXIXIXIXIXIXIXIXIXIXIXIXIXIXIXIXIXIXIXIXIXIXIXIXIXIXIXIXIXIXIXIXIXIXIXIXIXIXIXIXIXIXIXIXIXIXIXIXIXIXIXIXIXIXIXIXIXIXIXIXIXIXIXIXIXIXIXIXIXIXIXIXIXIXIXIXIXIXIXIXIXIXIXIXIXIXIXIXIXIXIXIXIXIXIXIXIXIXIXIXIXIXIXIXIXIXIXIXIXIXIXIXIXIXIXIXIXIXIXIXIXIXIXIXIXIXIXIXIXIXIXIXIXIXIXIXIXIXIXIXIXIXIXIXIXIXIXIXIXIXIXIXIXIXIXIXIXIXIXIXIXIXIXIXIXIXIXIXIXIXIXIXIXIXIXIXIXIXIXIXIXIXIXIXIXIXIXIXIXIXIXIXIXIXIXIXIXIXIXIXIXIXIXIXIXIXIXIXIXIXIXIXIXIXIXIXIXIXIXIXIXIXIXIXIXIXIXIXIXIXIXIXIXIXIXIXIXIXIXIXIXIXIXIXIXIXIXIXIXIXIXIXIXIXIXIXIXIXIXIXIXIXIXIXIXIXIXIXIXIXIXIXIXIXIXIXIXIXIXIXIXIXIXIXIXIXIXIXIXIXIXIXIXIXIXIXIXIXIXIXIXIXIXIXIXIXIXIXIXIXIXIXIXIXIXIXIXIXIXIXIXIXIXIX",
"IXIXIXIXIXIXIXIXIXIXIXIXIXIXIXIXIXIXIXLXLXPXQ W Q ~ ~ ~ ~ ~ ~ ~ ~ ~ ~ ~ ~ IXIXIXIXIXIXIXIXIXIXIXIXIXIXIXIXIXIXIXIXIXIXIXIXIXIXIXIXIXIXIXIXIXIXIXIXIXIXIXIXIXIXIXIXIXIXIXIXIXIXIXIXIXIXIXIXIXIXIXIXIXIXIXIXIXIXIXIXIXIXIXIXIXIXIXIXIXIXIXIXIXIXIXIXIXIXIXIXIXIXIXIXIXIXIXIXIXIXIXIXIXIXIXIXIXIXIXIXIXIXIXIXIXIXIXIXIXIXIXIXIXIXIXIXIXIXIXIXIXIXIXIXIXIXIXIXIXIXIXIXIXIXIXIXIXIXIXIXIXIXIXIXIXIXIXIXIXIXIXIXIXIXIXIXIXIXIXIXIXIXIXIXIXIXIXIXIXIXIXIXIXIXIXIXIXIXIXIXIXIXIXIXIXIXIXIXIXIXIXIXIXIXIXIXIXIXIXIXIXIXIXIXIXIXIXIXIXIXIXIXIXIXIXIXIXIXIXIXIXIXIXIXIXIXIXIXIXIXIXIXIXIXIXIXIXIXIXIXIXIXIXIXIXIXIXIXIXIXIXIXIXIXIXIXIXIXIXIXIXIXIXIXIXIXIXIXIXIXIXIXIXIXIXIXIXIXIXIXIXIXIXIXIXIXIXIXIXIXIXIXIXIXIXIXIXIXIXIXIXIXIXIXIXIXIXIXIXIXIXIXIXIXIXIXIXIXIXIXIXIXIXIXIXIXIXIXIXIXIXIXIXIXIXIXIXIXIXIXIXIXIXIXIXIXIXIXIXIXIXIXIXIXIXIXIXIXIXIXIXIXIXIXIXIXIXIXIXIXIXIXIXIXIXIXIXIXIXIXIXIXIXIXIXIXIXIXIXIXIXIXIXIXIXIXIXIXIXIXIXIXIXIXIXIXIXIXIXIXIXIXIXIXIXIXIXIXIXIXIXIXIXIXIXIXIXIXIXIXIXIX",
"IXIXIXIXIXIXIXIXIXIXIXIXIXIXIXIXIXIXIXLXLXPX! z g k z z k k k k z k g k k z z k g k z z k k k z z k g k z z k g k k z k k k k z z k g k z z k g g k z z k g k z z k g k z z k g k k z k k k k z k k g k z z k g k z z k k k z z k k g k z z k g k z k k k k k z g k k k k k k g z z k g g k z z k k k z z k k k z z k k k k z z g k k k k k k g z z k g k k z z g k k z k g k k z z k k k k z z g k z z z k k k z k g g k z z k g k z z k g k z z k g g k z k k g k z z k g k z z k g k z z k g g k z z k g k z z k g g z z k g g k z z k g k z z k g k z z k g k z z z g g k z k k k k z z k g k k k k k k k z k k k k z z k g z z k k k k z z k k k z z z k g z z k g g k z z g g k z c k g g z z k g g k z z g k k z z k k g z z k k k k z z g k z z k k k k z k g g k z z k g k z z k g g k z z k k k z z k g k z z k k k k z k g g z z k g g k z z k g k z z k g k z z k g g k z z g g k z z k g k z z k g k k z k k k k z k g g k z k k z IXIXIXIXIXIXIXIXIXIXIXIXIXIXIXIXIXIXIXIXIX",
"IXIXIXIXIXIXIXIXIXIXIXIXIXIXIXIXIXIXIXLXLX~ z 1 1 1 g 1 1 1 1 1 g 1 1 1 1 1 1 1 1 1 g g 1 1 1 1 1 1 1 1 1 1 1 1 1 1 1 1 1 1 1 1 1 1 1 1 1 g 1 1 1 1 g 1 1 1 1 1 1 1 1 1 g g 1 1 1 1 1 1 1 1 1 1 1 1 1 1 g g 1 1 1 1 1 1 1 1 1 g 1 1 1 1 g g 1 1 1 1 1 1 1 1 1 1 1 1 1 1 1 1 1 1 g 1 1 1 1 1 1 g 1 1 1 g g 1 1 1 g 1 1 1 1 1 1 g 1 1 1 1 1 1 1 1 g 1 1 1 1 1 1 1 1 1 g 1 1 1 1 1 g 1 1 1 1 1 1 1 1 1 g g 1 1 1 1 1 1 1 1 1 1 1 1 1 1 g g 1 1 1 g g 1 1 1 1 1 1 1 > 1 g 1 1 1 1 1 1 1 1 1 1 g 1 1 1 1 1 1 1 1 1 1 g 1 1 1 g g 1 1 1 1 1 1 1 1 1 1 1 1 1 1 g g 1 1 1 1 g 1 1 1 1 g 1 1 1 1 e g 1 1 1 1 1 1 1 1 1 1 1 1 1 1 g g 1 > 1 1 1 1 1 1 1 g 1 1 1 1 g g 1 1 g 1 1 1 1 1 1 g 1 1 1 g 0 1 1 1 1 1 1 1 1 1 1 g 1 1 1 g g 1 1 1 1 1 1 1 1 1 1 1 1 1 g g 1 1 1 1 1 1 1 1 1 1 1 1 1 1 1 1 1 1 1 1 g 1 1 1 1 1 1 1 1 1 g g 1 1 1 1 g 1 > 1 1 g 1 > 1 1 g 1 1 1 1 g 1 1 1 1 1 1 1 1 1 1 1 1 1 1 1 1 1 1 1 1 1 g 1 1 1 1 1 1 1 1 1 1 g > > g g 1 g k IXIXIXIXIXIXIXIXIXIXIXIXIXIXIXIXIXIXIXIXIX",
"IXIXIXIXIXIXIXIXIXIXIXIXIXIXIXIXIXIXIXLXLXPXz 1 g g 1 1 g g g g g g g g 1 1 g g g g g g g g g g 1 e g g g 1 g g g g 1 1 g g g 1 g g g g g g g g g g g g g g g g g g g g g g g g g 1 1 1 g g g 1 g g g g g g g g g g g g g g g g g g g g 1 g g g 1 1 g g 1 1 1 g g g g g g g g g g g g 1 1 g g g g g g g g g g g g g g 1 1 g g g g g g g g g g g g g 1 1 g g g g g g g g 1 1 g g g g 1 g g g g 1 g g g g g 1 g g 1 g g g g g g g g g g g g g g g g g g g 1 1 g g g g g g g g g 1 g g g g g g g g g g 1 g g g g 1 g g g g g g g g g g 1 1 g g g 1 g g g g g g g g g g 1 g e g g g g g g g 1 e g g 1 g g g g 1 g g g g g g g g g 1 g g g g 1 1 g g g g 1 g g g g g g g g 1 1 g g g g g g g g g g e g g g 1 1 g g g g g g g g g g g 1 g g g g g g 1 g g g g g g g g 1 g g g g 1 g g g g g g g g g g g g g g g g g g g g g g g g g 1 g g 1 1 g g g 1 g g g g g g g g 1 g g g g 1 g g g g 1 g g g g 1 g e g g g g e g g g 1 1 g g g g g 1 1 g g g g k IXIXIXIXIXIXIXIXIXIXIXIXIXIXIXIXIXIXIXIXIX",
"IXIXIXIXIXIXIXIXIXIXIXIXIXIXIXIXIXIXIXLXLXPXx 1 g 1 1 1 1 1 1 1 1 1 1 1 1 1 1 0 1 1 1 1 1 1 1 1 1 1 g 1 1 1 1 g g 1 1 1 1 g 1 1 1 1 g 1 1 1 1 g g 1 1 1 1 g 1 1 1 1 1 1 1 1 1 1 g 1 1 1 g g 1 1 1 1 g 1 1 1 1 g 1 1 1 1 g g 1 1 1 1 1 1 1 1 1 g 1 1 1 1 1 1 1 1 1 1 1 1 1 1 1 1 1 1 1 1 1 1 1 1 1 1 1 1 1 1 1 1 1 1 1 1 1 1 1 1 g 1 1 1 1 1 1 e 1 1 1 1 1 1 1 1 1 1 1 1 1 1 1 1 1 1 1 1 g 1 1 1 1 1 1 1 1 1 1 g 1 1 g g 1 1 1 1 g 1 1 1 1 g 1 1 1 1 g g 1 1 1 g g 1 1 1 1 g 1 1 1 1 g 1 1 1 1 g g 1 1 1 1 g 1 1 1 1 1 1 1 1 1 1 g 1 1 1 g g 1 1 1 1 1 1 1 1 1 g 1 1 1 1 1 0 1 1 1 1 1 1 1 1 1 1 1 1 1 1 1 1 1 1 g 1 1 1 1 1 1 1 1 1 1 1 1 1 1 1 g 1 1 1 1 1 1 1 1 1 1 1 1 1 1 1 1 1 1 1 1 1 1 1 1 1 1 1 1 1 1 1 1 1 1 1 1 1 1 1 1 1 1 1 1 1 1 1 1 1 1 1 1 1 1 g 1 1 g g 1 1 1 1 g 1 1 1 1 1 1 1 1 1 g g 1 1 1 1 1 1 1 1 1 1 1 1 1 1 1 1 1 1 1 1 1 1 1 1 1 g 1 1 1 1 g 1 1 1 1 g g 1 1 1 1 g 1 1 1 1 g 1 1 1 1 g 1 1 1 1 1 g 1 1 g 1 1 g g 1 g k IXIXIXIXIXIXIXIXIXIXIXIXIXIXIXIXIXIXIXIXIX",
"IXIXIXIXIXIXIXIXIXIXIXIXIXIXIXIXIXIXIXIXIXPXx 1 g g 1 1 g g g g y g g g g g g g g g 1 1 g g g g 1 g g g g 1 g g g g 1 1 g g g 1 1 g g g 1 1 g g g g 1 1 g g g 1 1 g g g 1 1 g g g g 1 g g g g 1 g g g g g g g g g g g g g g g g g g g g 1 1 g g 1 g g g g 4 e g g g g g g g g g g g g g g g g g g g g g g g g g g g g g g g g g g g g g g g g g g g g g g g g 1 g g 0 g g g g g g g g g g g g 1 g g g 1 1 1 g g 1 g g g g g e g g g 1 1 g g g 1 1 g g g g 1 g g g g 1 1 g g g g 1 g g g 1 1 g g g g 1 g g g g 1 g g g g g g g g g g 1 1 g g g 1 1 g g g 1 1 g g g g 1 g g g g 1 g g g g 1 1 g g 1 g g g g g g g g g g g g g g g 1 g g g g g g g g g 1 1 1 g g g g g g g g g g g g g 0 1 1 g g g g g g g g g g g g g g g g g g g g g g g g g g g g g g g 1 1 g g 1 g g g g g g g g g 1 1 g g g g g g g g g g g g g g 1 1 g g g 1 g g g g g g g g g g 1 1 g g g 1 1 g g g g 1 g g g g 1 g g g g 1 1 g g g 1 1 g g g 0 e g g g g 1 g 1 1 g g 1 g z IXIXIXIXIXIXIXIXIXIXIXIXIXIXIXIXIXIXIXIXIX",
"IXIXIXIXIXIXIXIXIXIXIXIXIXIXIXIXIXIXIXIXIX~ z 1 1 1 1 1 1 1 1 1 1 1 1 1 1 1 1 1 1 1 1 1 1 1 1 1 1 1 1 1 1 1 1 1 1 1 1 1 1 1 1 1 1 1 1 1 1 1 1 1 1 1 1 1 1 1 1 1 1 1 1 1 1 1 1 g 1 1 1 1 1 1 1 1 1 1 1 1 1 1 1 1 1 1 1 1 1 1 1 1 1 1 1 1 1 1 1 1 1 1 1 1 1 1 1 1 1 1 1 1 1 1 1 1 1 1 1 1 1 1 1 1 1 1 1 1 1 1 1 1 1 1 1 1 1 1 1 1 1 1 1 1 1 1 1 1 1 1 1 1 1 1 1 1 1 1 1 1 1 1 1 1 1 1 1 1 g g 1 1 1 1 1 1 1 1 1 0 1 1 1 1 1 1 1 1 g 1 1 1 1 1 1 1 1 1 g g 1 1 1 1 g 1 1 1 1 1 1 1 1 1 1 1 1 1 1 1 1 1 1 1 1 1 1 1 1 1 1 1 1 1 1 1 g 1 1 1 1 g 1 1 1 1 1 1 1 1 1 p 1 1 1 1 1 1 1 1 1 1 1 1 1 1 1 1 1 1 1 1 1 1 1 1 1 1 1 1 1 1 1 e 1 1 g 1 1 1 1 1 g 1 1 1 1 1 1 1 1 1 1 1 1 1 1 1 1 1 1 1 1 1 1 1 1 1 1 1 1 1 1 1 1 1 1 1 1 1 1 1 1 1 1 1 1 1 1 1 1 1 1 1 1 1 1 1 1 1 1 1 1 1 1 1 1 1 1 1 1 1 1 1 1 1 1 1 1 1 1 1 1 1 1 1 1 1 1 1 1 1 1 1 1 1 1 1 1 1 1 1 1 1 1 1 1 1 1 1 1 1 1 1 1 1 1 1 1 1 1 1 1 1 1 1 1 1 1 1 1 1 1 1 1 1 1 1 1 1 1 1 1 1 g z IXIXIXIXIXIXIXIXIXIXIXIXIXIXIXIXIXIXIXIXIX",
"IXIXIXIXIXIXIXIXIXIXIXIXIXIXIXIXIXIXIXIXIX~ z 1 1 g g g g g g g 1 1 1 1 e e 1 1 e e g g y 4 g g 4 p g p 1 1 4 g g g g g g g g g 1 1 4 1 1 1 1 1 4 1 1 1 4 4 4 1 g g g g 4 1 g g 1 g g g g 1 e g g g 1 g g g g 1 1 g g g 1 1 g g g g 4 g h g g 1 4 g g g 4 1 p g 4 p p g g e 4 1 1 1 1 1 1 1 1 1 1 4 p g g g 4 1 g g g g g g g g g g g g g g g g g 1 1 1 g g 4 1 p 1 4 g g g p 1 g g 4 g h g g 4 g g g g 4 1 g g g 1 1 1 1 g 1 1 g g 1 1 1 g g g 1 1 g g g g 4 1 g g 1 1 1 1 g g 1 1 4 4 1 1 1 4 g 1 1 1 g g g 1 g g g g g g g g g 4 1 1 g g p 1 g g g g 1 1 g g 1 1 1 g g d 1 1 g g 4 g h h g 1 1 1 p 1 1 1 4 g p g g g p g g g p g g g 4 e g g h g 1 1 g g g g 1 1 4 1 4 1 1 1 p g 4 g p g p g 1 1 4 1 4 1 1 1 g g g g g g g g g g g g p g g g 1 g g g p 1 4 g g 1 1 1 4 g 4 1 1 1 g e e 1 4 e g p 1 1 p g g 1 g g g g 1 1 g g g g 4 1 g g p 1 g g p g g g g g 4 0 g g 4 1 p g g g 4 1 p g p 1 y 1 1 0 1 1 1 0 2 1 e e 1 1 1 1 g 1 1 g g 1 g z IXIXIXIXIXIXIXIXIXIXIXIXIXIXIXIXIXIXIXIXIX",
"IXIXIXIXIXIXIXIXIXIXIXIXIXIXIXIXIXIXIXIXIXPXz 1 1 1 p 0 0 0 1 p 1 g l g 4 4 1 2 4 4 4 p p 4 4 4 4 4 4 4 4 1 4 1 1 1 1 1 1 1 1 1 1 1 1 1 1 1 4 1 4 1 4 1 4 1 4 1 1 1 1 1 1 1 1 1 1 1 4 4 1 1 1 1 1 1 1 1 1 1 1 1 1 1 1 1 1 1 1 1 1 1 4 1 4 1 4 1 4 1 1 1 1 1 1 1 1 1 1 1 1 1 1 1 1 1 1 1 1 1 1 1 1 1 1 1 1 1 1 1 1 1 1 1 1 1 1 1 1 1 1 1 1 1 1 1 1 1 1 1 1 1 1 1 4 1 4 1 4 1 4 1 1 1 1 1 1 1 1 1 4 4 4 4 4 1 4 1 1 1 1 1 1 1 1 1 1 1 4 1 4 1 4 1 4 1 4 1 4 1 4 1 1 1 1 1 1 1 1 1 1 1 1 1 1 1 1 1 1 1 1 1 1 1 1 1 1 1 1 1 1 1 1 1 4 4 4 4 4 1 4 1 1 1 1 1 1 1 1 1 1 1 1 1 1 1 1 1 1 1 1 1 1 1 1 1 1 1 1 1 1 1 1 1 1 1 1 1 1 1 1 1 1 1 1 1 1 1 1 1 4 1 1 1 1 1 4 1 1 1 1 1 1 1 1 1 1 1 1 1 1 1 1 1 4 1 4 1 4 1 4 1 4 4 4 4 4 4 4 4 1 1 1 1 1 1 4 1 4 1 4 1 4 1 4 1 4 1 4 1 4 1 4 1 4 1 4 1 4 1 4 4 1 1 1 4 1 1 4 1 1 1 1 1 1 1 1 1 1 1 1 1 1 1 1 1 1 1 1 1 1 1 4 1 1 1 1 1 1 1 1 1 p p p p p p p p u 1 2 & & 2 2 2 r & & 2 2 2 1 1 1 g 1 1 g 1 g z IXIXIXIXIXIXIXIXIXIXIXIXIXIXIXIXIXIXIXIXIX",
"IXIXIXIXIXIXIXIXIXIXIXIXIXIXIXIXIXIXIXIXIXPXz 1 1 1 g g 1 1 1 1 2 1 g e e g j k e e l j j j l l l l j l j l j l g g g g g g g g h g j g j g j g l g l g l g l g j g j g j g h g g g g g g g h g k k k k h h k k k k k k k k k l j l j j j j j j j j j l j l j l j l j l j l j l h g h g h g h h j j j j j j j j h h h h h h h h j j j j j j j j j j j j j j j j j h j h j h l h j h j h j h j j l l l l l g l g h g h g h g h g h g l l j l j g j l j l j l j l g g h g h g g g g g l l j l j l g g g g g g g g k k k k j j k j l l l l l g l g h g h g h g h g h g h g h g h l g g l l j l j l j g j g j g j g j j j j j j j l j g l g j l j g j g j g j g j l l g j l j g j g l g l g l g l g j l j l j l j l j g j g j g j g j g j g j g j g l g l g l g l h j j j j j j j j j l l g l g l l l l j l l g l g h g g g h g h g h g j l j g l g l g l g l g l g j j j j j j j j j h j h j h j h h h g r g g g g g e 0 e g e 1 1 1 g 1 1 g 1 g z IXIXIXIXIXIXIXIXIXIXIXIXIXIXIXIXIXIXIXIXIX",
"IXIXIXIXIXIXIXIXIXIXIXIXIXIXIXIXIXIXIXIXIXPXz 1 1 1 1 1 1 1 1 1 0 1 < < , i s s u u u u u y u < u u u u u y u y y y y y y y y y y y u y u y u < y < u < u < u < u y u y u y y y y < y < y < y < y y y y y u y y u u u u u u u u y y y y u y y y y y y y y y u u u u u u u u u u y y y 1 y y y u y u y y y y y y y y y y y y y y y y y y y y y y y y y y y y u y u u u u u u u u 1 < 1 y u y u u < < y < y < u < y y y y y y u < u u u y u u u u u y u y u y u < y y y < y < y < y y u 1 u u u u y < y < y < y 1 y y y y y u y y u < u < u < u < y y y y y y y y y y y < y y u u y y u 1 u u u u u y u y u < u y y y y y y y u y u y u y u < u y u u u u u 1 u < u y u y u y u y u y u y u y u y u < u y u y u y u y u y u y u y u y u y u y u < y < u < u < u y u u u u y u y y y y y u u u u u u u u u u < u < y < y < y < y < y y u u u < u < u y u y u y u < u y u y u y u y 1 < u y u y u y u u y y u u u u i u u y h h g 1 1 g 1 1 g 1 g z IXIXIXIXIXIXIXIXIXIXIXIXIXIXIXIXIXIXIXIXIX",
"IXIXIXIXIXIXIXIXIXIXIXIXIXIXIXIXIXIXIXIXIXPXz 1 1 1 1 1 1 1 1 1 h 1 > > o   ; ; X O X X O O O O                 X O X O X O X O X   X   X       O O O O O O O O X   X   X   X   X O X O X O X X X   X           X   X X         X O X O X O X O O O O O O O O X         X   X   X   X   X   X           O                                                       O O O O O   O O                 O O O O O O O O X   X   X       O O O O O O O O                 O O O O O O O O X           X   O O O O O O O O X   X           X   X O X O X O X   X   X   X   X       X   X   X           X                   X   X   X       X   X           X O X O         X   X   X   X   X O X O X O X O                 O O O O O O O O X   X           O O O O O O O O X X X X X X X X X O O O O O O O     X           O O O O O O O O X   X           X O X O X O X                   O   O O O O O O       X ; ; ; ; X = , , u h g 1 1 g 1 1 g 1 g z IXIXIXIXIXIXIXIXIXIXIXIXIXIXIXIXIXIXIXIXIX",
"IXIXIXIXIXIXIXIXIXIXIXIXIXIXIXIXIXIXIXIXIXIXz 1 g g 0 1 1 1 1 y g < 8 r t 7 * & 7 7 7 7 7 7 7 7 8 8 & 8 & 8 & 8 8 8 & 8 & 8 & 8 & 8 & 8 & 8 & 8 8 8 8 8 8 8 8 8 8 8 8 8 8 8 8 8 8 8 8 8 8 8 8 8 & & & & & & & & 8 8 8 8 8 8 8 8 8 8 8 8 8 8 8 8 8 8 8 8 8 8 8 8 & 8 & & & 8 & 8 8 8 & 8 & 8 & 8 7 7 7 7 7 7 7 7 7 7 7 7 7 7 7 7 7 7 7 7 7 7 7 7 $ 7 7 7 7 $ $ $ 7 7 7 7 7 7 7 7 7 7 7 7 7 7 7 7 8 8 8 8 8 8 8 8 8 8 & 8 & 8 & 8 8 8 8 8 8 8 8 8 & 8 & 8 & 8 & 8 8 8 8 8 8 8 8 8 8 8 8 8 8 8 8 8 8 8 8 8 8 8 r 8 & & & & & & & & 8 8 8 8 8 8 8 8 8 8 & 8 & 8 & 8 8 8 8 8 8 8 8 8 8 8 8 8 8 8 8 8 & 8 & 8 & 8 & 8 & & & & & & & & & 8 & 8 & 8 & 8 8 8 8 8 8 8 8 8 & 8 & 8 & 8 & 8 & 8 & 8 & 8 & 8 & 8 & 8 & 8 & 8 8 8 8 8 8 8 8 8 & 8 & 8 & 8 & 8 8 8 8 8 8 8 8 8 & & & 8 & 8 & & 8 8 8 8 8 8 8 8 8 8 8 8 8 8 8 8 8 8 8 8 8 8 8 8 & 8 & 8 & 8 & 8 & 8 & 8 & 8 & 8 $ 7 $ 7 $ 7 $ 7 7 7 7 7 7 7 8 7 7 7 7 8 8 8 8 7 7 r e , , u h g 1 g 1 1 g 1 g z IXIXIXIXIXIXIXIXIXIXIXIXIXIXIXIXIXIXIXIXIX",
"IXIXIXIXIXIXIXIXIXIXIXIXIXIXIXIXIXIXIXIXIXIXz 1 g g 1 1 1 1 1 y , > r K N.U I R I U U I I I I I K K K K K K K I I K K K I K I K Y Y Y Y Y Y Y Y Y Y Y Y Y Y Y Y I I Y I Y Y Y Y K I I I I I I I I I I I I I I I Y Y Y Y Y Y Y Y Y Y Y Y Y Y Y Y Y Y Y Y Y Y Y Y I I K K K K K I Y Y Y Y Y Y Y I I I I I I I I I I I I I I I I I I I I I I I I I I I I K I K K K I I I I I I I I I I I I I I I I I Y Y Y Y Y Y Y Y Y Y Y Y Y Y Y I I I I I I I I I I I I I I I I Y Y Y Y Y Y Y Y Y Y Y Y Y Y Y Y Y Y Y Y Y Y Y Y I I I I I I I I I K K K K K K I I Y Y Y Y Y Y Y Y Y Y Y Y Y Y Y Y Y Y Y Y Y Y Y I I I I I I I I I I I I I I I I Y Y Y Y I I Y Y Y Y Y Y Y Y Y Y I I Y I I I Y Y K K K K K K K K I I I I I I I I I I I I I I I I Y Y Y Y Y Y Y Y Y Y Y Y Y Y Y Y Y Y Y I I I I I I I I I K K I I Y Y Y Y Y Y Y Y Y Y Y Y Y Y Y Y Y Y Y Y Y Y Y Y K K K K K K K K I I I I I I I I I I I I I I I I I I I I I I I U U T P r , u h g y g 1 1 g 1 g z IXIXIXIXIXIXIXIXIXIXIXIXIXIXIXIXIXIXIXIXIX",
"IXIXIXIXIXIXIXIXIXIXIXIXIXIXIXIXIXIXIXIXIXIXz 1 1 y 1 1 1 1 1 y X % A U.xX#X}.{.{.{.{.{.{.{.nXnX}.}.}.}.}.}.}.}.}.}.}.}.}.}.}.}.{.{.{.{.{.{.{.{.{.{.{.{.{.{.{.{.{.}.{.{.{.{.{.{.{.{.{.{.{.{.{.{.}.}.}.}.}.}.}.}.{.{.{.{.{.{.{.{.{.{.{.{.{.{.{.{.{.{.{.{.{.{.{.{.{.{.{.{.{.{.{.{.{.{.{.{.{.{.{.{.{.nXnXnXnX{.nX{.nXnX{.{.{.{.{.{.nXnX{.nXnXnXnXnX}.}.}.}.}.}.}.}.{.{.{.{.{.{.{.{.{.{.{.{.{.{.{.{.{.{.{.{.{.{.{.{.{.{.{.{.{.{.{.{.}.}.{.{.{.{.{.{.}.}.}.}.}.}.}.}.{.{.{.{.{.{.{.{.{.{.{.{.{.{.{.{.{.{.{.{.{.{.{.{.}.}.}.}.}.}.}.}.{.{.{.{.{.{.{.{.{.{.{.{.{.{.{.{.{.{.{.{.{.{.{.{.{.{.{.{.{.{.{.{.{.{.{.{.{.{.{.{.}.}.}.}.}.}.}.}.{.{.{.{.{.{.{.{.{.{.{.{.{.{.{.{.{.{.{.{.{.{.{.{.}.}.}.}.}.}.}.}.}.}.}.}.}.}.}.}.{.{.{.{.{.{.{.{.{.{.{.{.{.{.{.{.{.{.{.{.{.{.{.{.{.nXnXnXnX}.{.{.{.{.{.{.{.{.{.}.{.{.{.{.{.{.{.{.{.{.{.{.{.{.{.{.{.{.{.{.{.{.{.{.}.}.}.}.}.}.}.}.}.}.}.}.}.}.}.}.{.{.{.{.{.{.{.{.{.{.{.{.{.{.}.}.#XnXkXm > i g g y g 1 1 g 1 g z IXIXIXIXIXIXIXIXIXIXIXIXIXIXIXIXIXIXIXIXIX",
"IXIXIXIXIXIXIXIXIXIXIXIXIXIXIXIXIXIXIXIXIXIXz 1 1 1 1 1 1 1 1 y X & G nXHXGXuXAXGXGXFXSXSXDXSXDXpXaXpXpXpXpXpXpXAXAXAXAXAXAXAXAXpXpXpXpXpXpXpXpXAXAXAXAXAXAXAXAXpXaXpXpXpXpXpXpXAXpXAXpXpXpXpXpXpXpXpXpXpXpXpXpXpXpXpXpXpXpXpXpXpXpXpXpXpXpXpXpXpXpXpXpXpXpXpXpXpXpXpXpXpXpXpXpXpXpXpXpXpXpXpXpXAXDXAXAXAXAXAXAXAXAXAXAXAXAXAXAXAXAXAXAXAXAXAXAXAXAXAXAXAXAXAXAXSXAXAXAXSXSXSXSXAXAXAXAXAXAXAXAXGXAXAXAXAXAXAXAXpXpXpXpXpXpXpXpXAXAXAXAXAXAXAXAXpXpXpXpXpXpXpXpXAXAXAXAXAXAXAXAXpXpXpXpXpXpXpXpXAXAXAXAXAXAXAXAXpXpXpXpXpXpXpXpXpXAXpXpXpXpXpXpXpXpXpXpXpXpXpXpXAXAXAXAXAXAXAXAXpXpXpXpXpXpXpXpXpXpXpXpXpXpXpXpXpXpXpXpXpXpXpXpXpXpXpXpXpXpXpXpXAXAXAXAXAXAXAXAXpXpXpXpXpXpXpXpXAXAXAXAXAXAXAXAXpXpXpXpXpXpXpXpXAXAXAXAXAXAXAXAXpXpXpXpXpXpXpXpXAXAXAXAXAXAXAXGXAXAXAXAXAXAXAXAXAXAXAXAXAXAXAXAXpXpXpXpXpXpXpXpXAXAXAXAXAXAXAXAXpXpXpXpXpXpXpXpXAXAXAXAXAXAXAXAXAXAXAXAXAXAXAXAXAXAXAXAXAXAXAXAXAXpXAXAXAXpXpXpXGXHXhXA + = y g 1 g 1 1 g 1 g z IXIXIXIXIXIXIXIXIXIXIXIXIXIXIXIXIXIXIXIXIX",
"IXIXIXIXIXIXIXIXIXIXIXIXIXIXIXIXIXIXIXIXIXIXz 1 g g g g g d 1 d - # A gXFXtX'.+X4X4X4X3X1X<X1X1X*X*X*X*X*X*X*X*X=X=X=X=X=X=X=X=X*X*X=X*X=X*X=X*X1X1X1X1X1X1X1X1X*X*X*X*X*X*X*X*X*X=X=X=X=X=X=X=X=X=X=X=X*X*X*X=X*X*X*X*X*X*X*X*X*X*X*X*X*X*X*X*X<X<X<X<X<X<X<X<X*X*X*X*X*X*X*X*X*X*X*X*X].].].].*X*X*X*X*X*X*X'.<X<X<X<X<X<X<X<X].].].].].'.'.'.<X<X<X<X<X<X<X<X<X<X<X<X<X<X<X<X<X<X<X<X<X<X=X<X*X*X*X<X*X*X*X=X=X=X=X=X=X=X=X=X=X*X=X*X=X*X=X*X=X*X=X*X=X*X=X=X1X1X1X2X1X1X1X1X*X*X*X*X*X*X*X*X*X=X=X*X=X<X=X=X'.'.*X*X*X*X*X*X1X<X1X1X1X1X1X1X<X<X=X=X<X<X<X<X=X=X=X=X=X=X=X=X*X*X*X*X*X*X*X*X*X*X=X*X=X*X=X*X=X*X=X*X=X*X=X*X=X*X=X*X=X*X=X*X1X1X1X1X1X1X1X1X=X*X=X*X=X*X=X*X*X*X*X*X*X*X*X*X1X1X1X1X1X1X1X1X1X1X1X1X1X1X1X1X=X*X=X*X=X*X=X*X*X*X*X*X*X*X*X*X=X*X=X*X=X<X<X<X1X1X1X1X1X1X1X1X*X*X*X*X*X*X*X=X*X*X*X*X].].].].=X*X=X*X=X*X=X*X1X1X1X1X1X1X1X1X<X<X<X*X=X<X<X<X<X<X<X<X<X<X=X*X'.XXOXOXOXXX*X=X=XZXdXA + > e e 1 1 1 1 g 1 g x IXIXIXIXIXIXIXIXIXIXIXIXIXIXIXIXIXIXIXIXIX",
"IXIXIXIXIXIXIXIXIXIXIXIXIXIXIXIXIXIXIXIXIXIXz 1 g g g g g g 1 d - # A gXSXuXXXOXOXXX3X<X*X*X*X*X*X*X*X*X*X*X*X*X<X<X=X=X<X<X<X<X<X<X<X*X<X<X<X<X<X<X<X<X<X<X<X<X*X*X*X*X*X*X*X*X'.'.'.'.'.'.'.'.<X<X<X<X<X<X<X<X*X*X*X*X*X*X*X*X*X*X*X*X*X*X*X*X<X<X<X<X<X<X<X<X*X*X*X*X*X*X*X*X'.'.'.'.].'.].].*X*X*X*X*X*X*X*X<XoXoX].<X<X<XoX].].].].'.'.'.'.<X<X<X<X<X<X<X<X*X*X*X*X*X*X*X*X<X<X<X<X*X*X*X*X*X*X*X*X'.'.'.'.<X<X<X<X=X<X<X<X<X<X<X<X<X<X<X<X<X<X<X<X<X<X<X<X<X<X<X<X<X<X<X<X*X*X*X*X*X*X*X*X*X'.'.'.'.'.'.'.'.'.*X*X*X*X*X*X<X<X<X<X<X<X<X<X<X<X=X=X<X<X<X<XoX<X<X<X<X<X<X<X*X*X*X*X*X*X*X*X<X<X<X<X<X<X<X<X<X<X<X<X<X<X<X<X<X<X<X<X<X<X<X<X<X<X<X<X<X<X<X<X<X<X<X<X<X*X<X<X*X*X*X*X*X*X*X*X<X<X<X<X<X<X<X<X<X<X<X*X<X<X<X<X<X<X<X<X<X<X<X<X*X*X*X*X*X*X*X*X<X<X<X<X<X<X<X<X<X*X<X*X<X*X*X*X<X<X<X<X*X<X<X<X'.'.'.'.'.'.'.'.<X<X<X<X<X<X<X<X<X<X<X<X<X<X<X<X<X<X<X<X*X<X<X<X<X<X<X<X*X<X*X*X*X<XOXOXOXXXXX*X2XZXdXA + > e e 1 g 1 1 g 1 g x IXIXIXIXIXIXIXIXIXIXIXIXIXIXIXIXIXIXIXIXIX",
"IXIXIXIXIXIXIXIXIXIXIXIXIXIXIXIXIXIXIXIXIXIXz 1 1 g g g g g g d = + Z gXSXuXXXOXXXXXXX'.'.'.'.XX<X<X<X<X<X<X<X<XXXXX<X<X<XXX<XXX<X<X<X<X<X<X<X<X'.'.'.'.'.'.'.'.<X<X<X<X<X<X<X<X'.'.'.'.'.'.'.'.<X<XXX<X<X<X<X<X<X<X<X<X<X<X<X<X<X<X<X<X<X<X<X<X<X<X<X<X<X<X<X<X<X<X<X<X<X<X<X<X<X<X<X<X<X<X<X<X<X<X<X<X<X<X<X<X<X<XXXXX<X<X<XXXoXoXoXoXXXXXXXXX<X<X<X<X<X<X<X<X'.'.'.'.'.'.'.'.<X<X<X<X<X<X<X<X'.'.'.'.'.'.'.'.<X<X<X<X<X<X<X<X<X<X<X<X<X<X<X<X<X<X<X<X<X<X<X<X'.'.'.'.'.'.'.'.<X<X<X<X<X<X<X<X'.'.'.'.'.'.'.'.XXXX<X<X<X<X<X<X'.'.'.'.'.'.'.'.<X<X<X<X<X<X<X<XoX<X<X<XXX<X<X<X<X<X<X<X<X<X<X<X<X<X<X<X<X<X<X<X<X<X<X<X<X<X<X<X<X<X<X<X<X<X<X<X'.'.'.'.'.'.'.'.<X<X<X<X<X<X<X<X<X<X<X<X<X<X<X<X'.'.'.'.'.'.'.'.XX'.'.'.'.'.'.'.<X<X<X<X<X<X<X<X<X<X<X<X<X<X<X<XXXXXXXXXXXXXXXXXXXXXXXXXXXXXXXXX<X<X<X<X<X<X<X<X<X<X<X<X<X<X<X<X<X<X<X<X<X<X<X<X'.'.'.'.'.'.'.'.<X<X<X<X<X<X<X<X<X<X<X<X<X<X<X*X*X*X<XXX<X<XXX*X2XZXdXA o , g e 1 g 1 1 g 1 e z IXIXIXIXIXIXIXIXIXIXIXIXIXIXIXIXIXIXIXIXIX",
"IXIXIXIXIXIXIXIXIXIXIXIXIXIXIXIXIXIXIXIXIXIXz 1 0 g g g g g g g o + Z gXSXuXXXOX'.'.XX'.'.'.XXXXXX<X<X<X<X<X<X<X<X<X<X<X<XXXXXXX<X<X<X<X<X<X<X<X'.'.'.'.'.'.'.'.<X<X<X<X<X<X<X<XXXXXXXXXXXXXXXXX<X<XXXXX<X<X<X<X<X<X<X<X<X<X<X<X<X<X<X<X<X<X<X<X'.'.'.'.'.'.'.'.<X<X<X<X<X<X<X<X<X<X<X<X<X<X<X<X<X<X<X<X<X<X<X<X'.'.'.'.'.'.'.'.oXoXoXoXXXXXXXXX'.'.'.'.'.'.'.XX'.'.'.'.'.'.'.'.<X<X<X<X<X<X<X<XXX<X<X<XXXXXXXXX<X<X<X<X<X<X<X<X<X<X<X<X<X<X<X<X<X<X<X<X<X<X<X<X'.'.'.'.'.'.'.'.<X<X<X<X<X<X<X<XXXXXXXXXXXXXXXXXXXXX<X<X<X<X<X<X'.'.'.'.'.'.'.'.'.'.'.'.'.'.'.'.<X<X<X<X<X<X<X<X<X<X<X<X<X<X<X<X<X<X<X<X<X<X<X<X<X<X<X<X<X<X<X<X<X<X<X<X<X<X<X<X'.'.'.'.'.'.'.'.<X<X<X<X<X<X<X<X<X<X<X<X<X<X<X<X'.'.'.'.'.'.'.'.'.'.'.'.'.'.'.'.<X<X<X<X<X<X<X<X<X<X<X<X<X<X<XXXXXXXXXXXXXXXXXXXXXXXXXXXXXXXXXXXXX<X<X<X<X<X<X<X<X<X<X<X<X<X<X<X<X<X<X<X<X<X<X<X'.'.'.'.'.'.'.'.XX<X<X<X<X<X<X<X<X<X<X<X<X<X<X*X*X*X*XXX<X<XXX<X2XZXdXA o i g 0 e g 1 g g 1 1 z IXIXIXIXIXIXIXIXIXIXIXIXIXIXIXIXIXIXIXIXIX",
"IXIXIXIXIXIXIXIXIXIXIXIXIXIXIXIXIXIXIXIXIXIXz 1 0 0 g g g g g g o + Z gXSXuX'.<X*X*XXXXXXXXXOXOXXXXXXXXXXXXX<X<XXXXXXXXXXXXXXXXXXXXXXXXXXXXXXXXXXXXXXXXXXXXXXXXX<X<X<X<XXXXXXXXX<X<X<X<X<X<X<X<XXXXXXXXXXXXXXXXX<X<X<X<X<X<X<X<XXXXXXXXXXXXXXXXXXXXXXXXXXXXXXXXX<X<XXXXXXXXXXXXXXXXXXXXXXXXXXX<X*X*X*X*X*X*X*X*X'.'.'.'.'.'.'.'.].].].].].].*X*X'.[.[.'.'.'.'.'.'.'.'.'.'.'.'.'.'.'.'.'.'.'.'.'.<X<X<X<X<X<X<X<XXXXXXXXXXXXXXXXXXXXXXXXXXXXXXXXXXXXXXXXXXXXXXXXXXXXXXXXXXXXXXXXXXXXX<XXXXXXXXXXX<X<X<X<X<X<X<X<X<X<X<X<X<X<X<X<XXXXXXXXXXXXXXXXXXXXXXXXXXXXXXXXXXXXXXXXXXXXXXXXXXXXXXXXXXXXXXXXXXXXXXXXXXXXXXXXXXXXXXXXXXXXXXXXXXXXXXXXXXXXXXXXXXXXXXXXXXXXXXXXXXXXXXXXXXXXXXXXXXXXXXXXXXXXXXXXXXXXXXXXXXXXXXXXXXXXXXXXXXXXXXXXXXXXXXXXXXXXXXXXXXXXXXXXXXXXXXXXXXXXX<X<XXXXXXXXXXXXXXXXXXXXXXXXXXXXXXXXXXXXXXXXXXXXXXXXXXXXXXXXXXXXXXXXXXXXXXXXXXXXXXXXXXXXXXXXX'.'.'.'.'.'.'.'.'.'.'.'.'.'.'.'.*XXXXXXX<X<X<X*X2XZXI.C o i g e g g 1 g g 1 1 z IXIXIXIXIXIXIXIXIXIXIXIXIXIXIXIXIXIXIXIXIX",
"IXIXIXIXIXIXIXIXIXIXIXIXIXIXIXIXIXIXIXIXIXIXz 1 0 0 g g g g g g = + A gXSXuX[.<X*X*X<X<X<X<XOXOXXXXXXX<XXX<X<X<XXXXXXXXXXXXXXX'.XXXXXXXXXX<XXXXXXX<XXX<XXX<XXX<X<X<X<X<XXX<XXX<X<X<X<X<X<X<X<X<XXXXXXXXXXXXXXXXXXX<XXX<XXX<XXX<XXX<XXX<XXX<XXX<XXX'.XX'.XX'.XX'.oX<X<X<XXX<XXX<XXX<XXX<XXX<XXX<X'.*X*X*X*X*X<X*X'.'.'.'.'.'.'.'.oX].oX].oX].'.*X'.[.'.'.'.'.'.'.*X*X*X*X*X*X*X*X'.'.'.'.'.'.'.'.<X<X<X<X<X<X<X<XXXXXXXXXXXXXXXXXXXXXXXXXXXXXXXXXXXXXXXXXXXXXXXXXXX<XXX<XXX<XXX<XXX<X<X<XXX<XXXXX<X<X<X<X<X<X<X<XXX<XXX<XXX<XXX<XXXXXXX<XXX<XXX<XXX'.XX'.XX'.XX'.XXXXXXXXXXXXXX'.XX<XXX<XXX<XXXoXXXXXXXXXXXXXXXXXXXXXXXXXXXXXXXXXXXXXXXXXXXXXXXXXXX<XXX<XXX<XXX<XXXXXXXXXXXXXXX'.XX<XXX<XXX<XXX<XXX<XXX<XXX<XXX<XXX<XXX<XXX<XXX<XXXXXXXXXXXXXXXXXXX<XXX<XXX<XXX<X'.'.'.'.'.'.'.'.*X*X*X*X*X*X*X*XXXXXXXXXXXXXXXXXXX<XXX<XXX<XXX<XXXXXXXXXXXXXXXXXXX<XXX<XXX<XXX<X'.'.'.'.'.'.'.'.'.'.'.'.'.'.'.'.XXXXXXXX<X*XXX<X=XCXI.Z o i g e 1 g 1 1 g 1 g z IXIXIXIXIXIXIXIXIXIXIXIXIXIXIXIXIXIXIXIXIX",
"IXIXIXIXIXIXIXIXIXIXIXIXIXIXIXIXIXIXIXIXIXIXz 1 0 g g g g 1 1 p = + A gXSXuX[.*X*X*XXXXXXX'.'.'.'.'.XX'.XX'.XX'.'.'.'.'.'.'.'.'.'.'.'.'.'.'.'.'.XX'.XX'.XX'.XX'.<X*X<X*X<X*X<X*X<X*X<X*X<X*X<X*X'.'.'.'.'.'.'.'.XX*XXX*XXX*XXX*X<X*X<X*X<X*X<X*XXX'.XX'.XX'.XX'.<X=XXX'.XX'.XX'.<X*X<X*X<X*X<X<XXXXXXXXXXXXXXXXXXXXXXXXXXXXXXXXXoXoXoXoXoXoXoXoXXXXXXXXXXXXXXXXXXXXXXXXXXXXXXXXXXXXXXXXXXXXXXXXXXX'.XX'.oX].oX].'.'.'.'.'.'.'.'.'.'.'.'.'.'.'.'.'.'.'.'.'.'.'.'.XX*XXX*XXX'.XX'.XX'.XX'.XX'.XX'.XX*XXX*XXX*XXX*XXX*XXX*XXX*XXX'.XX'.XX'.XX'.XX'.XX'.'.'.XX*XXX*X'.'.'.'.'.'.'.'.XX'.XX'.XX'.XXoX'.'.'.'.'.'.'.'.'.'.'.'.'.'.'.'.'.'.'.'.'.'.'.'.XX'.XX'.XX'.XX'.'.'.'.'.'.'.'.'.<X*X<X*X<X*X<X*XXX'.XX'.XX'.XX'.XX'.XX'.XX'.XX'.'.'.'.'.'.'.'.'.<X*X<X*X<X*X<X*X'.'.'.'.'.'.'.'.'.'.'.'.'.'.'.'.'.'.'.'.'.'.'.'.<X*X<X*X<X*X<X*X'.'.'.'.'.'.'.'.XX'.XX'.XX'.XXXXXXXXXXXXXXXXXXXXXXXXXXXXXXXXXXXXXXXXXXXX*X*XXXXX=XCXI.Z o i g e 1 g 1 1 g 1 g x IXIXIXIXIXIXIXIXIXIXIXIXIXIXIXIXIXIXIXIXIX",
"IXIXIXIXIXIXIXIXIXIXIXIXIXIXIXIXIXIXIXIXIXIXz 1 e e g g y 1 1 y = # A gXSXtX[.].[.[.'.XX'.[.[.[.].].].].'.'.'.].'.'.'.'.'.'.'.'.'.'.'.'.'.'.'.'.'.'.'.'.'.'.'.'.].*X].*X].*X].*X'.'.'.'.'.'.'.'.'.'.].].'.'.'.'.].].'.XXXX'.'.'.'.*X'.*X'.*X'.*X'.*X'.*X'.*X'.'.].].'.'.'.'.'.'.'.*X'.*X*X*X*X<XXXXXXXXXXXXXXXXXXXXXXXXXXXXXXXXXoXoXoXoXoXoXoXoXXXXXXXXXXXXXXXXXXXXXXXXXXXXXXXXX+XXXXXXXXXXXXXXX'.'.'.'.'.'.'.'.'.'.'.'.'.'.'.'.'.'.'.'.'.'.'.'.'.[.'.'.'.'.'.'.'.'.'.'.'.'.'.'.].].].].].].].].'.'.'.'.'.'.'.'.].].].].].].].].'.'.'.'.'.'.'.'.'.*X].*X'.*X'.*X'.'.'.'.'.'.'.'.].].].].].*X].*X'.'.'.'.'.'.'.'.'.'.'.'.'.'.'.'.'.[.'.'.'.'.'.'.'.'.'.'.'.'.'.'.'.'.'.'.'.'.'.'.].*X].*X].*X].*X'.'.'.'.'.'.'.'.'.'.'.'.'.'.'.'.'.'.'.'.'.'.'.'.].*X].*X].*X].*X'.'.'.'.'.'.'.'.'.'.'.'.'.'.'.'.'.[.'.'.'.'.'.'.=X=X*X*X*X*X*X*X'.[.'.'.'.'.'.'.'.'.'.'.'.'.'.'.XXXXXXXXXXXXXXXXXXXXXXXXXXXXXXXX'.*X'.].].].oXoX=XZXI.Z + , g 0 1 1 1 1 g 1 g x IXIXIXIXIXIXIXIXIXIXIXIXIXIXIXIXIXIXIXIXIX",
"IXIXIXIXIXIXIXIXIXIXIXIXIXIXIXIXIXIXIXIXIXIXz 1 0 0 1 0 g g e p   * S nXHXpX].0X0X0XrXrX1X=X=X=X=X=X].].].].].=X=X=X].].].].].].=X=X=X=X=X=X=X=X=X=X=X=X1X1X1X=X].].].].].].].].1X1X1X1X1X1XrX=X].].wXiXyX1X].].].].XXXXXXoX'.oX'.XXoXXXoXXXoXXXoXXXoXXXoXXXoXoXoXoXoXoXoXoXoXoXoXXXoXXXXXXXXXXXoXoXoXoXoXoXoXoXoXXXoXXXXXXXXXXXoXoXoXoXoXoXoXoXoXoXoXXXoXXXoXoXXXXXXXXX'.[.].].wX+X+XoXwXwXrXrX1X=X=X=X1X1X1X1X=X=X=X=X1X1X1X1X].].].].oX].oX].].].].].oX].<X].].].].].].].].].].].].].].].].].rX=X1X1X1X1X1X1X].].oXoXoXoXoXoXoX].oX].].].].].1X=X1X=X1X1X1X1X1X1X1X=X1X=X1X=X].].oX].oX=X].].1X=X1X1X1X1X1X1X1X1X1X1X1X1X1X1X].].].].].].oX].].].].].].].].].1X=X1X=X1X1XrX1X1X1XrX=XoX=X1X=XoX].oX].].].].].1X=X1X=X1X1X1X1XoX=XoX=XoX=XoX=XoX].].].].].].].].].].].].].].].].].].].oX].oX].].].].].].].].].=X=X0X0XrX1X1X1X].].].].].].].].1X=X1X=X1X1X1X1X1X<X1X1X1X1X1X1XoXoXoXoX].oXoX].=X=X=X].0X0X0X0XpXSXI.Z # = 1 f 0 g 1 1 g 1 g z IXIXIXIXIXIXIXIXIXIXIXIXIXIXIXIXIXIXIXIXIX",
"IXIXIXIXIXIXIXIXIXIXIXIXIXIXIXIXIXIXIXIXIXIXz 1 e 0 1 d g g g p = & P nXHXAX4XyXuXuXuXuXuX6X6X6X2X6X2X2X6X6X6X6X6XuX6X6XuXuXuXuX6X2X2X2X6X6X6X6XuXuXuXuXuXuXuXuXuXuXuXuXuXuXuXuXuXuXuXuXuXuXuXuX2X4XCXZXMX3X1X2X].].XXXXoXoX].].].oXoXoXoXoXoXoXoXoXoXoXoXoXoXoXoXoXoXoXoXoXoXoXoXoXoXoXoXoXoXoXoXoXoXoXoXoXoXoXoXoXoXoXoXoXoXoXoXoXoXoXoXoXoXoXoXoXoXoXoXoXoXoXoXXXXXXX'.[.[.].ZXMX3XMXuXyX6X6XuXuXuXuXuXuXuXuXuXuXuXuXuXuXuXuXuXuXuXuXuX6X6X6XuX6X6X6X6X6X6X6X6XuXuXuXuXuXuXuXyX4XuX6XuX6XuXuXuXuXuXuXuXuXCXuXyXyXyXyXyXyXyXyXuXuXuXuXuXuXuXuXuXuXuXuXuXuXuXuXuXuXuXuXuXuXuXuX6X6X6X2X2X6X2X2XuXuXuXuXuXuXCXuX6X6X6X6X6X6X6X6X6XuXuXuXuXuXuXuXuXuXuXuXyXyXyXyXuXuXuXuXuXuXuXuXuXuXuXuXuXuXyXyXuXuXuXuXuXuXuXuXuXuXuXuXuXuXuXuXuXuXuXuXuXuXuXuXuXuXuXuXuXuXuXuXuXuXuXuXuXuXuXuXuXuXuXuXuXuXuX6X6X2X2X2X6X6X6X6X6X6X6XuXuX6X6X6X6X6X6XuX6X6X6X6XuXuXuXuXuXuXuXCX6X6X6X6X6X6X6X6X6X6X6X6XuXuXuXuX2X2X2XuXyXrXrXyXAXJXdXA * 3 0 f 0 g 1 1 g 1 g z IXIXIXIXIXIXIXIXIXIXIXIXIXIXIXIXIXIXIXIXIX",
"IXIXIXIXIXIXIXIXIXIXIXIXIXIXIXIXIXIXIXIXIXIXz 1 e g g d g g 0 p 3 2 E fXBX>X/. X;X X X X X X/.$X$X$X$X$X$X$X/./. X X X X X X X X/./././././././.;X;X;X;X;X;X:X;X X X X X X X X X X X X X X X X;X%X%X/./.(.~.$X,X<XoXXXXX+XoX].].].oXoXoXoXoXoXoXoXoXoXoXoXoXoXoXoXoXoXoXoXoXoXoXoXoXoXoXoXoXoXoXoXoXoXoXoXoXoXoXoXoXoXoXoXoXoXoXoXoXoXoXoXoXoXoXoXoXoXoXoXoXoXoXoXoXXXXX'.'.].XXNX X(.%X$X$X%X$X$X;X;X;X;X;X;X;X;X;X;X;X;X;X;X;X X X X;X X;X;X$X;X$X$X$X$X$X$X$X X X X X X X X X X X X X X X X X;X;X;X;X;X;X;X;X X X X X X X X X X X X X X X X X.X.X/./././././. X X X X X X X;X X/.$X$X$X$X$X$X;X;X;X;X;X;X;X;X/./././././././. X X X X X X X X X X X X X X X X X X X X X X X X/. X X/././././. X X X X X X X X X X/./././././.:X:X:X:X:X:X:X:X X X X X X X X X X X X X X X X X X X X X X X X X X X X X X X X X X X X X X X X X;X;X;X;X;X;X;X;X;X;X;X;X;X;X;X;X$X/././././././. X X;X;X X X X X$X/./. X X X.X X:XmXfXA & 5 p g 1 g 1 1 g 1 g z IXIXIXIXIXIXIXIXIXIXIXIXIXIXIXIXIXIXIXIXIX",
"IXIXIXIXIXIXIXIXIXIXIXIXIXIXIXIXIXIXIXIXIXIXz 1 g g g g g g g p - # n B.L.F.c.n.c.c.n.V.n.n.n.c.c.c.c.c.c.n.n.c.c.c.n.c.n.n.n.n.n.n.n.n.n.n.n.n.n.n.n.n.n.n.n.n.n.n.n.n.n.n.n.n.n.n.n.n.n.n.n.c.C.C.c.n.v.v.S.W.3XXXXXXXoXoX].].].oXoXoXoXoXoXoXoXoXoXoXoXoXoXoXoXoXoXoXoXoXoXoXoXoXoXoXoXoXoXoXoXoXoXoXoXoXoXoXoXoXoXoXoXoXoXoXoXoXoXoXoXoXoXoXoXoXoXoXoXoXoXoX].oXXXXX*X*XXX3XT.A.v.C.C.C.C.C.c.n.n.n.n.n.n.n.n.n.n.n.n.n.n.n.n.n.n.c.c.c.c.c.c.c.c.c.c.c.c.c.c.n.n.n.n.n.n.n.n.n.n.n.n.n.n.n.n.n.n.n.n.n.n.n.n.n.n.n.n.n.n.n.n.n.n.n.n.n.n.n.n.n.n.n.n.n.n.n.n.n.m.n.n.n.n.n.n.c.n.n.c.c.n.n.n.n.n.n.n.n.n.n.c.c.n.c.n.c.c.c.n.n.n.n.n.n.n.n.n.n.n.n.n.n.n.n.n.n.n.n.n.n.n.n.n.n.n.n.n.n.n.n.n.n.n.n.n.n.n.n.n.n.n.n.n.n.n.n.n.n.n.n.n.n.n.n.n.n.n.n.n.n.n.n.n.n.n.n.n.n.n.n.n.n.n.n.n.n.n.n.n.n.n.n.n.n.n.n.n.n.n.n.n.n.n.n.c.n.c.c.c.c.c.c.n.n.n.n.n.n.n.n.c.c.c.c.c.c.c.c.c.c.c.c.c.n.n.n.n.n.n.n.n.n.n.m.F.L.B.n > i a d 1 g 1 1 g 1 g z IXIXIXIXIXIXIXIXIXIXIXIXIXIXIXIXIXIXIXIXIX",
"IXIXIXIXIXIXIXIXIXIXIXIXIXIXIXIXIXIXIXIXIXIXz 1 g g g g g g g d - @ v p.y.,.| | ..-.;.;.;.,.;.;.o.o.;.;.;.;.;.;.;.;.;.;.;.;.;.;.;.;.;.;.;.;.;.;.;.;.;.;.;.;.;.;.;.;.;.;.;.;.;.;.;.;.;.;.;.;.;.;.-.-.,.,.-.-.g.S.>X3X+X+XoXoX'.'.].oXoXoXoXoXoXoXoXoXoXoXoXoXoXoXoXoXoXoXoXoXoXoXoXoXoXoXoXoXoXoXoXoXoXoXoXoXoXoXoXoXoXoXoXoXoXoXoXoXoXoXoXoXoXoXoXoXoXoXoXoXoXoX].].oXoX<X<X<X>Xm.1.` -.,.,.-.;.;.;.;.;.;.;.;.;.;.;.;.;.;.;.;.;.;.;.;.;.;.;.;.;.;.;.;.;.o.o.o.o.;.;.;.;.;.;.;.;.;.;.;.;.;.;.;.;.;.;.;.;.;.;.;.;.;.;.;.;.;.;.;.;.;.;.;.;.;.;.;.;.;.;.;.;.;.;.;.;.;.;.;.;.;.;.;.;.;.;.;.;.;.o.;.;.;.;.;.;.;.;.;.;.;.;.;.;.;.;.;.;.;.;.;.;.;.;.;.;.;.;.;.;.;.;.;.;.;.;.;.;.;.;.;.;.;.;.;.;.;.;.;.;.;.;.;.;.;.;.;.;.;.;.;.;.;.;.;.;.;.;.;.;.;.;.;.;.;.;.;.;.;.;.;.;.;.;.;.;.;.;.;.;.;.;.;.;.;.;.;.;.;.;.;.;.;.;.;.;.;.;.;.;.;.;.;.;.;.;.;.;.;.;.;.;.;.;.;.;.;.;.;.;.;.o.o.o.;.;.;.;.;.;.;.;.;.;.;.;.;.;.;.;.;.-.,.-.>.a.p.v @ u h d 1 g 1 1 g 1 g z IXIXIXIXIXIXIXIXIXIXIXIXIXIXIXIXIXIXIXIXIX",
"IXIXIXIXIXIXIXIXIXIXIXIXIXIXIXIXIXIXIXIXIXIXz 1 g g g g g g g p u : v p.t. .^ [ {  .X.X.X.X.X.X.{ { { { { { { { X.X.X.X.X.X.O.O.X.X.X.X.X.X.X.X.O.O.X.O.X.X.X.X.X./ / / X.X.X.X.X.X.X.X.X.X.X.O.} } o.o./ ( g.K.mX3X+X+XoXoX'.'.].oXoXoXoXoXoXoXoXoXoXoXoXoXoXoXoXoXoXoXoXoXoXoXoXoXoXoXoXoXoXoXoXoXoXoXoXoXoXoXoXoXoXoXoXoXoXoXoXoXoXoXoXoXoXoXoXoXoXoXoXoXoXoX].].oXoX<X<X3XmXn.2.^ [ ..} } O.O.X.X.X.X.X.X.X.O.O.O.O.X.X.X.X.X.X.X.X.X.X.X.X.X.X.X.X.X.X.X.X.X.O.O.O.O.O.X.X.X./ X.X.X.X.X.{ X.X.X.X.X.X.%.X.X.X./ / X.X.X.X.X.X.X.X.X.X.X.X.X.X.X.X.X.X.X.X.X.X.X.X.X.X.X.X.{ { { { { { { { X.X.X.X.X.X.X.X.X.X.X.X.X.X.X.X.O.O.O.O.O.X.X.O.X.X.X.X.{ { X.X.X.X.X.X.X.X.X.X.X.X.X.X.X.X.X.X.X.X.X.X.X.X.X.X.X.X.X.X.X.X.X.X.X.X.X.X.X.X.X.X.X.X.X.X.O.O.X.X.X.X.X.X.X.X.X.X.O.O.X.X.X.X.X.X.{ { { { { { / / X.X.X.X.X.X.X.X.X.X.X.X.X.X.X.X.X.X.X.X.X.X.X.X.X.{ { { X.X.X.X.X.X.X.X.X.X.X.O./ } X.{ { [ } } } 9.p.v : u h g y g 1 1 g 1 g z IXIXIXIXIXIXIXIXIXIXIXIXIXIXIXIXIXIXIXIXIX",
"IXIXIXIXIXIXIXIXIXIXIXIXIXIXIXIXIXIXIXIXIXIXz 1 1 1 g g g g g p a > v ' r.@.O.&.+.+.$.9.6.6.+.$.%.%.$.$.%.%.%.%.$.$.$.$.$.$.6.6.$.$.$.$.$.$.$.$.6.6.6.6.6.6.6.6.$.$.$.$.$.$.$.$.6.6.6.6.6.6.6.$.%.%.9.9.X.| k.R.NX+X+X+XoX'.'.'.'.oXoXoXoXoXoXoXoXoXoXoXoXoXoXoXoXoXoXoXoXoXoXoXoXoXoXoXoXoXoXoXoXoXoXoXoXoXoXoXoXoXoXoXoXoXoXoXoXoXoXoXoXoXoXoXoXoXoXoXoXoXoXoX'.'.XXoXoX<X4XmXF.q./ O.w.+.%.9.$.$.$.$.6.6.6.6.6.6.6.6.6.6.6.6.6.$.6.$.$.$.$.$.$.$.$.$.$.$.$.$.$.$.$.$.$.$.$.$.$.$.$.$.$.$.$.$.6.6.6.6.6.6.6.6.+.+.+.+.+.+.+.+.6.6.6.6.6.6.6.$.$.$.$.$.$.$.$.$.6.6.6.6.6.6.6.6.$.$.$.%.%.%.%.%.6.6.6.6.6.6.6.6.+.+.+.+.+.+.+.+.6.6.6.6.6.6.6.6.$.$.$.$.$.$.$.$.6.6.6.6.6.6.6.6.$.$.$.$.$.$.$.$.6.6.6.6.6.6.6.$.$.$.$.$.$.$.$.$.6.6.6.6.6.6.6.6.6.6.6.6.6.6.6.6.$.$.$.$.$.$.$.$.6.6.6.6.6.6.6.$.%.%.$.%.$.$.$.$.$.$.6.6.$.$.6.$.$.$.$.$.$.$.$.$.6.6.6.6.6.6.6.$.+.+.+.+.+.+.+.+.+.+.$.+.$.$.:.6.$.$.$.%.%.%.%.+...9.p.v > a j 5 4 g 1 1 g 1 g z IXIXIXIXIXIXIXIXIXIXIXIXIXIXIXIXIXIXIXIXIX",
"IXIXIXIXIXIXIXIXIXIXIXIXIXIXIXIXIXIXIXIXIXIXz 1 0 1 y g g g g p 5 % v p.s.e.*.r.w.w.9.9.7.7.w.w.w.w.w.w.w.w.6.6.6.:.:.:.:.:.:.:.6.6.6.6.6.6.6.w.6.6.6.6.6.6.6.6.w.w.6.6.6.6.w.w.6.6.6.6.6.6.6.6.6.6.r.s.O.| k.^.NX+X+X+XoX'._._.'.oXoXoXoXoXoXoXoXoXoXoXoXoXoXoXoXoXoXoXoXoXoXoXoXoXoXoXoXoXoXoXoXoXoXoXoXoXoXoXoXoXoXoXoXoXoXoXoXoXoXoXoXoXoXoXoXoXoXoXoXoXoX'.'.'.oXoXoX1X4XmXH.y.} O.t.7.9.r.6.w.6.6.6.6.6.6.6.6.6.6.w.6.6.6.6.:.:.:.6.6.6.6.6.:.:.:.6.6.6.6.6.6.6.6.6.6.6.6.6.6.6.6.6.6.w.w.6.6.6.6.6.6.:.:.w.w.:.:.3.3.3.3.6.6.6.6.6.6.6.6.6.6.6.6.6.6.6.6.6.6.6.6.6.6.6.6.6.6.6.6.w.w.w.w.6.6.6.6.6.6.:.3.w.w.w.w.3.3.3.w.:.6.6.6.6.6.6.6.6.w.6.w.w.w.w.w.6.6.6.6.w.6.6.6.6.6.6.6.6.6.6.6.6.6.6.6.6.6.6.6.6.6.6.6.6.6.6.6.w.w.w.w.7.w.7.w.6.6.6.6.6.6.6.6.6.6.6.6.6.6.6.6.6.6.6.6.6.6.6.6.6.w.w.w.w.w.w.w.w.w.w.w.w.w.7.w.6.6.6.6.w.6.6.6.6.6.6.6.6.6.w.w.3.3.3.3.3.3.3.w.:.:.:.:.:.6.6.6.7.7.9.t.t.t.w.6.w.a.p.v 2 a 5 3 4 g 1 1 g 1 g z IXIXIXIXIXIXIXIXIXIXIXIXIXIXIXIXIXIXIXIXIX",
"IXIXIXIXIXIXIXIXIXIXIXIXIXIXIXIXIXIXIXIXIXIXz 1 1 y y y 1 4 1 p 5 * v ' r.&.%.$.:.:.6.6.:.:.+.@.+.$.$.+.w.w.6.6.:.:.:.:.:.:.:.:.:.:.:.:.:.:.:.+.+.+.+.+.+.+.+.+.:.:.:.:.:.:.:.+.+.+.+.+.:.:.:.:.:.6.0.$.+.| g.R.NXeXoXoXoXoX*X*X'.oXoXoXoXoXoXoXoXoXoXoXoXoXoXoXoXoXoXoXoXoXoXoXoXoXoXoXoXoXoXoXoXoXoXoXoXoXoXoXoXoXoXoXoXoXoXoXoXoXoXoXoXoXoXoXoXoXoXoXoXoXoX'.'.'.XXoX].oX1XNXH.1.} +.6.6.7.0.$.+.+.&.w.w.w.w.:.:.:.:.:.:.:.:.6.6.6.6.6.6.6.6.6.6.6.6.$.$.$.$.6.6.$.+.+.+.+.+.+.+.:.:.:.:.:.+.6.6.6.6.+.+.$.$.:.:.:.:.+.+.+.+.:.:.:.+.+.+.:.:.:.:.:.:.:.:.:.:.:.:.:.:.:.:.:.+.+.+.+.+.+.+.+.:.6.6.6.$.6.$.$.$.+.+.+.+.+.+.:.:.:.:.+.+.+.+.+.+.:.:.:.+.+.+.:.:.:.:.:.:.:.:.:.:.:.:.:.:.+.+.+.+.:.:.:.+.+.+.:.:.:.:.:.:.:.:.:.:.+.:.:.:.:.:.:.:.:.:.:.+.+.+.+.+.:.:.:.+.+.+.:.:.:.+.+.:.:.:.:.+.+.+.+.+.+.+.+.+.:.:.:.:.+.:.:.:.6.w.w.$.$.$.$.$.+.+.+.+.+.+.+.+.+.$.6.6.6.6.6.6.6.6.6.6.6.6.6.6.6.6.$.&.%.&.$.:.+.r.p.v > 5 5 4 1 1 1 1 g 1 g x IXIXIXIXIXIXIXIXIXIXIXIXIXIXIXIXIXIXIXIXIX",
"IXIXIXIXIXIXIXIXIXIXIXIXIXIXIXIXIXIXIXIXIXIXz 1 1 1 y y e e 1 p < % v ' s.&.%.$.:.:.6.6.:.+.+.@.&.6.6.6.6.w.6.:.6.:.:.:.:.:.:.:.:.+.6.+.6.+.6.+.$.+.$.+.$.+.$.+.:.:.:.:.:.:.:.:.+.+.:.:.:.:.:.:.:.6.6.$.O.| g.R.5XwXoX].oXXX*X'.XXoXoXoXoXoXoXoXoXoXoXoXoXoXoXoXoXoXoXoXoXoXoXoXoXoXoXoXoXoXoXoXoXoXoXoXoXoXoXoXoXoXoXoXoXoXoXoXoXoXoXoXoXoXoXoXoXoXoXoXoXoXoXXX'.'.XXoX].oX1X3XJ.1.} +.3.6.7.7.6.+.$.$.w.w.w.w.$.+.6.+.6.+.6.6.$.6.6.6.6.6.6.6.6.6.6.6.6.6.6.$.6.$.$.+.+.+.+.+.:.:.:.:.:.:.:.6.$.6.6.6.6.$.$.$.6.6.6.6.$.$.:.+.:.:.:.:.+.+.:.:.:.:.:.:.:.:.:.:.:.:.:.:.:.:.:.:.+.+.:.:.:.:.:.6.6.6.6.6.6.6.$.$.6.6.$.6.6.6.:.:.:.:.+.+.+.+.:.:.:.:.:.:.+.+.:.:.:.:.:.:.:.:.:.:.:.:.:.:.+.+.:.:.:.:.:.:.+.+.:.:.:.:.:.:.:.:.:.:.+.:.:.:.:.:.:.:.:.:.+.+.+.+.:.:.:.:.:.:.+.+.:.:.+.:.:.:.:.:.:.:.+.+.+.+.$.+.$.+.$.+.6.+.6.+.6.+.+.+.+.+.$.$.&.$.+.+.+.+.+.+.+.$.$.$.$.$.$.$.6.6.6.6.6.6.6.6.6.6.:.:.$.&.%.$.6.:.+.r.p.v : < 4 4 1 g 1 1 g 1 g x IXIXIXIXIXIXIXIXIXIXIXIXIXIXIXIXIXIXIXIXIX",
"IXIXIXIXIXIXIXIXIXIXIXIXIXIXIXIXIXIXIXIXIXIXz 1 1 1 1 0 e 0 1 p 5 % v p.s.t.$.9.7.7.6.6.6.:.+.$.6.6.9.6.6.6.6.6.9.6.6.6.6.6.9.9.6.6.6.6.6.6.6.$.6.6.6.6.6.6.6.6.6.6.9.6.6.6.6.6.6.6.6.6.6.6.6.6.:.3.+.%.O.| g.W.5XwXoX].XX<X*X'.XXoXoXoXoXoXoXoXoXoXoXoXoXoXoXoXoXoXoXoXoXoXoXoXoXoXoXoXoXoXoXoXoXoXoXoXoXoXoXoXoXoXoXoXoXoXoXoXoXoXoXoXoXoXoXoXoXoXoXoXoXoXoXXX'.'.XXXX].<X<X5XH.2.} #.@.3.w.6.6.6.6.6.6.6.9.6.6.6.6.6.6.6.6.6.6.:.:.:.6.$.6.6.6.6.6.6.6.6.6.6.6.6.6.6.6.$.6.6.6.6.6.6.6.6.6.6.6.6.6.6.6.6.6.6.6.6.6.6.6.6.6.6.6.6.6.6.6.6.6.6.9.9.9.6.6.6.6.6.6.6.9.9.6.6.6.6.6.6.6.6.6.6.6.6.7.7.7.7.6.6.6.6.6.6.6.6.6.6.6.6.6.9.6.6.6.6.9.6.6.6.6.6.6.6.6.6.9.9.9.6.6.6.6.6.9.6.6.6.6.6.6.6.6.6.6.6.6.6.6.6.9.9.9.6.6.6.6.6.9.6.9.6.6.6.6.6.9.9.9.9.6.6.6.6.6.6.6.6.6.6.6.6.6.6.9.6.6.6.6.6.6.6.6.6.6.6.6.6.6.6.9.6.6.6.6.6.6.6.6.6.6.6.6.6.6.6.6.6.6.6.6.6.6.$.$.$.$.$.6.6.9.9.9.9.9.9.9.6.:.:.6.$.$.$.6.:.:.r.p.v : u g e g g 1 1 g 1 g x IXIXIXIXIXIXIXIXIXIXIXIXIXIXIXIXIXIXIXIXIX",
"IXIXIXIXIXIXIXIXIXIXIXIXIXIXIXIXIXIXIXIXIXIXz 1 1 1 1 e e 0 1 p < % v p.s.t.$.9.7.7.6.6.6.6.6.6.6.6.9.9.9.9.7.7.6.6.6.6.6.6.6.6.6.6.6.6.6.6.6.6.9.6.6.6.6.6.6.6.7.7.7.7.7.7.7.7.7.6.6.7.7.7.7.6.:.3.+.+.O.| g.W.6X1X].'.XX<XoXXXoXoXoXoXoXoXoXoXoXoXoXoXoXoXoXoXoXoXoXoXoXoXoXoXoXoXoXoXoXoXoXoXoXoXoXoXoXoXoXoXoXoXoXoXoXoXoXoXoXoXoXoXoXoXoXoXoXoXoXoXoXoXoXXX'.'.XXXX'.<X<X5XH.2.} #.@.@.w.$.6.6.6.6.6.6.6.6.6.6.6.6.6.6.6.6.6.6.6.6.6.6.6.6.6.6.6.6.6.6.6.6.6.6.6.6.6.6.6.6.9.6.6.6.7.7.7.7.6.6.7.7.7.7.6.6.7.7.7.7.7.7.7.7.7.7.7.7.7.7.7.7.7.7.6.6.6.7.7.7.0.0.0.0.7.7.7.7.7.6.7.7.7.7.7.7.7.7.7.7.7.7.6.6.7.7.6.7.6.6.6.6.7.0.7.7.6.6.0.0.7.7.7.7.7.0.7.7.7.7.6.6.6.7.7.7.0.0.7.7.6.6.0.7.7.7.7.7.7.0.7.7.7.7.6.6.6.7.7.7.7.6.6.6.7.7.7.7.0.0.7.0.6.6.6.6.7.7.7.7.7.0.7.7.6.6.6.0.0.7.7.6.7.6.6.6.6.6.6.6.6.6.6.6.6.6.6.6.6.6.6.6.6.6.6.6.6.6.6.6.6.6.6.6.6.6.6.6.6.6.6.6.6.6.6.6.6.6.6.6.6.:.6.$.$.6.6.6.:.s.p.v : u g g g g 1 1 g 1 1 z IXIXIXIXIXIXIXIXIXIXIXIXIXIXIXIXIXIXIXIXIX",
"IXIXIXIXIXIXIXIXIXIXIXIXIXIXIXIXIXIXIXIXIXIXz 1 y 1 0 0 1 1 1 p < % v p.s.w.$.0.7.6.6.$.$.$.6.6.6.w.6.w.6.6.6.6.6.6.6.6.6.6.6.6.6.+.6.:.6.:.6.:.6.:.6.:.6.:.6.:.:.:.:.:.:.:.:.:.:.:.:.:.:.:.:.:.:.3.%.%.O.| g.R.5X1X*X'.XXXXoXoXoXoXoXoXoXoXoXoXoXoXoXoXoXoXoXoXoXoXoXoXoXoXoXoXoXoXoXoXoXoXoXoXoXoXoXoXoXoXoXoXoXoXoXoXoXoXoXoXoXoXoXoXoXoXoXoXoXoXoXoXoXoXoXoX'.'.XXXX].<X<X5XJ.2.} #.@.@.&.%.6.:.6.:.6.+.$.+.6.:.6.+.6.+.6.6.6.6.6.6.6.6.6.6.6.6.6.6.6.6.6.6.6.:.:.:.:.:.:.:.:.:.:.:.:.:.:.:.:.7.7.7.7.7.7.6.6.6.7.6.7.7.7.7.:.:.:.:.:.:.:.:.:.:.:.:.:.:.:.:.:.:.:.:.:.:.:.:.:.:.:.:.:.:.:.:.:.7.7.7.7.7.7.7.6.6.7.6.7.7.7.7.:.:.:.:.:.:.:.:.:.:.:.:.:.:.:.:.:.:.:.:.:.:.:.:.:.:.:.:.:.:.:.:.:.:.:.:.:.:.:.:.:.:.:.:.:.:.:.:.:.:.:.:.:.:.:.:.:.:.:.:.:.:.:.:.:.:.:.:.:.:.:.:.:.:.:.:.:.:.:.:.6.6.6.:.6.:.$.+.6.:.6.+.6.+.6.:.+.+.:.:.:.:.:.:.:.:.:.:.:.:.:.6.6.6.6.6.6.6.6.6.6.6.6.6.6.6.6.6.6.6.$.$.$.$.6.6.+.s.p.v : u h g g g 1 1 g 1 1 z IXIXIXIXIXIXIXIXIXIXIXIXIXIXIXIXIXIXIXIXIX",
"IXIXIXIXIXIXIXIXIXIXIXIXIXIXIXIXIXIXIXIXIXIXz 1 y y e e 1 1 1 p < % v p.s.$.o.$.6.+.%.%.%.%.$.$.$.$.$.$.+.+.+.+.%.%.%.%.+.+.+.+.+.+.+.+.+.+.+.+.+.+.+.+.:.:.:.:.:.:.:.:.:.:.:.:.:.:.:.:.:.:.:.:.+.3.$.%.O.| g.R.5X<X*X'.<XXXoXoXoXoXoXoXoXoXoXoXoXoXoXoXoXoXoXoXoXoXoXoXoXoXoXoXoXoXoXoXoXoXoXoXoXoXoXoXoXoXoXoXoXoXoXoXoXoXoXoXoXoXoXoXoXoXoXoXoXoXoXoXoXoXoXoX'.'.XXXX'.<X<X5XJ.1.| +.3.w.&.%.$.:.:.+.+.+.+.+.+.+.+.+.+.+.+.+.+.+.+.$.$.$.$.$.+.+.+.+.+.+.+.+.+.+.+.:.:.:.:.:.:.:.:.:.:.:.:.:.:.:.7.6.7.6.6.6.6.6.7.6.7.6.:.6.:.:.:.:.:.:.:.:.:.:.:.:.:.:.:.:.:.:.:.:.:.:.:.:.:.:.:.:.:.:.:.:.:.:.7.:.7.7.7.7.6.6.7.6.7.6.7.6.:.:.:.:.:.:.:.:.:.:.:.:.:.:.:.:.:.:.:.:.:.:.:.:.:.:.:.:.:.:.:.:.:.:.:.:.:.:.:.:.:.:.:.:.:.:.:.:.:.:.:.:.:.:.:.:.:.:.:.:.:.:.:.:.:.:.:.:.:.:.:.:.:.:.:.:.:.:.:.:.:.:.:.+.+.+.+.O.+.+.+.+.+.+.+.+.+.+.+.+.:.3.6.3.:.:.:.:.:.:.:.+.$.$.$.$.$.$.$.$.+.$.+.+.+.+.+.$.+.+.%.%.%.+.+.+.O.r.p.v : u a p p g 1 1 g 1 g x IXIXIXIXIXIXIXIXIXIXIXIXIXIXIXIXIXIXIXIXIX",
"IXIXIXIXIXIXIXIXIXIXIXIXIXIXIXIXIXIXIXIXIXIXz 1 1 y 1 1 1 1 1 4 3 % v p.r.+.X.o.o. .O.=.O.O.%.%.O.O.O.O.O.O.O.O.O.O.O.O.O.O.O.O.O.O.O.O.X.O.O.O.O.O.O.+.+.+.6.6.6.:.6.:.6.:.6.:.6.:.6.:.6.:.6.:.:.6.9.$.%.o.k.R.5X<X*X&X<XXXoXoXoXoXoXoXoXoXoXoXoXoXoXoXoXoXoXoXoXoXoXoXoXoXoXoXoXoXoXoXoXoXoXoXoXoXoXoXoXoXoXoXoXoXoXoXoXoXoXoXoXoXoXoXoXoXoXoXoXoXoXoXoXoXoXoX'.'.XXXXXX<X<XNXJ.f.( :.6.6.t.$.$.$.6.+.+.+.+.+.O.O.O.O.O.O.O.O.O.O.O.O.O.O.O.O.O.O.O.O.O.O.O.O.+.+.$.+.$.3.6.w.6.:.6.:.6.:.6.:.:.:.6.6.6.6.6.6.6.6.6.6.6.6.6.6.6.:.6.:.6.:.6.:.6.:.6.:.6.:.6.:.6.:.:.:.6.:.6.:.6.:.6.:.6.:.6.:.:.:.:.:.:.:.6.6.6.6.6.6.6.6.6.6.6.:.6.:.6.:.6.:.6.:.6.:.6.:.6.:.6.:.6.:.6.:.6.:.6.:.6.:.6.:.6.:.6.:.6.:.6.:.6.:.6.:.6.:.6.:.6.:.6.:.6.:.6.:.6.:.6.:.6.:.6.:.6.:.6.:.6.:.6.:.6.:.6.:.6.:.6.:.6.6.6.$.+.+.+.+.+.O.O.O.O.O.O.O.O.O.+.O.+.+.$.&.6.w.6.+.6.+.$.+.$.$.O.O.O.O.O.O.O.O.O.O.O.O.O. .O.O.X.X.O.O.O.O. . . .7.p.v % a a p 1 e 1 1 g 1 g x IXIXIXIXIXIXIXIXIXIXIXIXIXIXIXIXIXIXIXIXIX",
"IXIXIXIXIXIXIXIXIXIXIXIXIXIXIXIXIXIXIXIXIXIXz 1 1 1 1 1 1 1 1 p 3 @ v p.q.-.( -.| | } } } ( ` ` | | | | | | | | | | ( | | | | | | | | | | | | ( -.-.-.o.+.%.$.$.6.6.6.6.6.6.6.6.6.6.6.6.6.6.6.6.:.6.6.$.%.o.k.R.5X<X*X'.XXXXoXoXoXoXoXoXoXoXoXoXoXoXoXoXoXoXoXoXoXoXoXoXoXoXoXoXoXoXoXoXoXoXoXoXoXoXoXoXoXoXoXoXoXoXoXoXoXoXoXoXoXoXoXoXoXoXoXoXoXoXoXoXoXoXoXoX'.XXXXXX<X<X<X3XJ.1.` :.6.6.9.$.6.$.$.$.%.$.;.;.( | | | | } } } } } | | ( ( ( | | | | | | | | | ,.:.$.%.$.$.w.w.6.6.6.6.6.6.6.6.:.:.6.6.6.6.6.6.6.6.6.6.6.6.6.6.6.6.6.6.6.6.6.6.6.:.6.6.6.6.6.6.6.6.6.6.6.6.6.6.6.6.6.6.6.6.6.6.:.:.:.:.:.:.:.:.6.6.6.6.6.6.6.6.6.6.6.6.6.6.6.6.6.6.6.6.6.6.6.6.6.:.6.6.6.6.6.6.6.6.6.6.6.6.6.6.6.6.6.6.6.6.6.6.6.:.6.6.6.6.6.6.6.6.6.6.6.6.6.6.6.6.6.6.6.6.6.6.:.:.:.:.:.:.:.6.6.6.6.6.6.6.6.6.$.+.+.+.| -.-.-.| | | | | | | ( ;.;.:.+.6.6.6.w.+.+.:.:.+.+.+.+.| ( ( ( } } | | | | | | | | | | ( ( | | } } | | | >.p.v @ < a 4 1 1 1 1 g 1 g x IXIXIXIXIXIXIXIXIXIXIXIXIXIXIXIXIXIXIXIXIX",
"IXIXIXIXIXIXIXIXIXIXIXIXIXIXIXIXIXIXIXIXIXIXk g g g g g g e e d = O v B.L.m.f.z.z.g.g.g.k.z.z.z.z.z.z.z.z.k.z.z.z.k.z.z.z.z.z.z.z.b.z.b.b.g.z.z.b.n.c.j.%.=.%.t.6.6.6.6.6.6.6.6.6.6.6.6.6.6.6.6.:.6.:.+.%.o.k.R.5X<XoXXXXXXXXX'.oXoXoXoXoXoXoXoXoXoXoXoXoXoXoXoXoXoXoXoXoXoXoXoXoXoXoXoXoXoXoXoXoXoXoXoXoXoXoXoXoXoXoXoXoXoXoXoXoXoXoXoXoXoXoXoXoXoXoXoXoXoXoXXXXXXXXXXX'.<X<X3XJ.1.( +.:.6.9.9.$.$.$.+.%.7.k.A.v.z.b.g.g.g.g.g.g.z.z.z.z.z.z.z.z.k.k.k.k.z.c.c.F.1.} %.r.w.+.+.6.6.6.6.6.6.6.:.6.:.6.6.6.6.6.6.6.6.6.6.6.6.6.6.6.6.6.6.6.6.6.6.6.6.6.6.6.6.6.6.6.6.6.6.6.6.6.6.6.6.6.6.6.6.6.6.6.6.6.6.6.6.6.6.6.6.6.6.6.6.6.6.6.6.6.6.6.6.6.6.6.6.6.6.6.6.6.6.6.6.6.6.6.6.6.6.6.6.6.6.6.6.6.6.6.6.6.6.6.6.6.6.6.6.6.6.6.6.6.6.6.6.6.6.6.6.6.6.6.6.6.6.6.6.6.:.:.:.:.:.:.:.:.:.:.:.:.:.6.6.7.:.+.+.[ / 2.C.F.z.k.j.l.k.z.z.v.v.v.z.<.| 7.7.6.w.+.3.:.:.:.} ..l.j.c.z.f.z.z.k.k.k.k.z.z.z.z.z.z.z.b.b.b.g.g.g.b.A.L.B.v O , j l 1 g 1 1 g 1 g z IXIXIXIXIXIXIXIXIXIXIXIXIXIXIXIXIXIXIXIXIX",
"IXIXIXIXIXIXIXIXIXIXIXIXIXIXIXIXIXIXIXIXIXIXk g g g g g g g e d , % m U.mX!.T.^.~.~.~.~.~.~.Q.Q.~.~.~.~.~.~.~.~.~.~.~.~.~.~.~.~.~.~.!.~.W.~.~.(.!./.~.F.t.%.%.$.6.6.6.6.6.6.6.6.6.6.6.6.6.6.6.6.+.w.:.+.%.o.k.R.5X<XoXXXoXoX*X'.XXoXoXoXoXoXoXoXoXoXoXoXoXoXoXoXoXoXoXoXoXoXoXoXoXoXoXoXoXoXoXoXoXoXoXoXoXoXoXoXoXoXoXoXoXoXoXoXoXoXoXoXoXoXoXoXoXoXoXoXoXoXoXXXXXXXoX].'.<X1X3XH.<.| +.3.3.9.9.+.$.@.O.%.y.F.~.(.(.Q.~.Q.~.~.~.~.~.~.~.~.~.~.~.~.~.R.R.~.~.(.(.R.k.o.=.w.6.:.6.6.6.$.6.6.6.6.:.6.6.6.6.6.6.6.6.6.6.6.6.6.6.6.6.6.6.6.6.6.6.6.6.6.6.6.6.6.6.6.6.6.6.6.6.6.6.6.6.6.6.6.6.6.6.6.6.6.6.6.6.6.6.6.6.6.6.6.6.6.6.6.6.6.6.6.6.6.6.6.6.6.6.6.6.6.6.6.6.6.6.6.6.6.6.6.6.6.6.6.6.6.6.6.6.6.6.6.6.6.6.6.6.6.6.6.6.6.6.6.6.6.6.6.6.6.6.6.6.6.6.6.6.6.6.6.6.:.:.:.:.:.:.:.:.6.$.$.$.6.6.7.7.+.@.O.+.v.~./.).~.~.~.~.~.(.(.(.(.K.l.-.;.7.:.w...3.:.:.:.} +.l.^.$X(.E.~.~.R.~.~.~.~.Q.~.~.~.~.~.Q.!.W.~.~.~.W.!.;XU.m @ i h g 1 g 1 1 g 1 g z IXIXIXIXIXIXIXIXIXIXIXIXIXIXIXIXIXIXIXIXIX",
"IXIXIXIXIXIXIXIXIXIXIXIXIXIXIXIXIXIXIXIXIXIXk g g g g g g g g p 3 6 S hXHXaX3XBXMXMXMXMXMXMXMX6X6X2X2X2X2X2X2X2X6X6X6X6X6X6X6X6X6XMXMXMX6X6XMXMXCXDXMXR.j.;.;.0.7.6.6.6.6.6.6.6.6.6.6.6.6.6.6.6.+.w.:.+.%.o.k.R.5X1XoXXXXXXX*X'.XXoXoXoXoXoXoXoXoXoXoXoXoXoXoXoXoXoXoXoXoXoXoXoXoXoXoXoXoXoXoXoXoXoXoXoXoXoXoXoXoXoXoXoXoXoXoXoXoXoXoXoXoXoXoXoXoXoXoXoXoXoXoXXXXXXXoX].oX<X1X3XH.<.( +.3.3.9.9.$.&.@.O.%.l.^.BXJXZXCXCXZXZXZXMX6X2X2X2X2X2X2X2X6X6X2X7X2X6XCXBX$XC.+.X.+.+.:.w.6.6.6.6.7.7.6.:.6.6.6.6.6.6.6.6.6.6.6.6.6.6.6.6.6.6.6.6.6.6.6.6.6.6.6.6.6.6.6.6.6.6.6.6.6.6.6.6.6.6.6.6.6.6.6.6.6.6.6.6.6.6.6.6.6.6.6.6.6.6.6.6.6.6.6.6.6.6.6.6.6.6.6.6.6.6.6.6.6.6.6.6.6.6.6.6.6.6.6.6.6.6.6.6.6.6.6.6.6.6.6.6.6.6.6.6.6.6.6.6.6.6.6.6.6.6.6.6.6.6.6.6.6.6.6.6.6.6.6.7.7.7.7.6.$.$.$.$.$.6.6.6.$.$.%.7.F.3XSXiXyX6X2X2XuXuXuXMXBX$XZ.| | +.:.:...3.:.:.6.o.+.l.BXAXCX2XuX8X2X6X6X6X6X6X6X6X6X6XMXMXMX6XMXMXMXMX6XJXhXA * 5 a 5 4 g 1 1 g 1 g z IXIXIXIXIXIXIXIXIXIXIXIXIXIXIXIXIXIXIXIXIX",
"IXIXIXIXIXIXIXIXIXIXIXIXIXIXIXIXIXIXIXIXIXIXk g 0 g g g g g g p o * S hXHXaX1XZX4X1X1X1X+X+X+XoX1X=X=X=X=X=X=X=X1X1X1X1X1X1X1X1X1X+X+X1X<X<X4X+X+XiX6XT.j.| ;.7.7.6.6.6.6.6.6.6.6.6.6.6.6.6.6.6.+.w.:.+.%.o.k.R.5X1XoXoXXXXX*X'.XXoXoXoXoXoXoXoXoXoXoXoXoXoXoXoXoXoXoXoXoXoXoXoXoXoXoXoXoXoXoXoXoXoXoXoXoXoXoXoXoXoXoXoXoXoXoXoXoXoXoXoXoXoXoXoXoXoXoXoXoXoXoXXXXXXXoX].oX<X1X3XH.<.| +.3.3.9.9.$.&.@.} / y.).JXCXCXeXeXeXeXeXeX1X1X1X=X=X=X=X=X2X1X1X=X1X2XrX6XmXF.o.X.+.+.:.w.6.6.6.6.7.7.6.:.6.6.6.6.6.6.6.6.6.6.6.6.6.6.6.6.6.6.6.6.6.6.6.6.6.6.6.6.6.6.6.6.6.6.6.6.6.6.6.6.6.6.6.6.6.6.6.6.6.6.6.6.6.6.6.6.6.6.6.6.6.6.6.6.6.6.6.6.6.6.6.6.6.6.6.6.6.6.6.6.6.6.6.6.6.6.6.6.6.6.6.6.6.6.6.6.6.6.6.6.6.6.6.6.6.6.6.6.6.6.6.6.6.6.6.6.6.6.6.6.6.6.6.6.6.6.6.6.6.6.9.0.0.0.0.0.6.$.$.$.6.6.7.6.6.$.X.>.S.3XAXiXwX=X=X0X0XrXrX1XDX$Xz.| | 6.:.w.+.:.:.7.7.o.0.x.>XpXrX=XyXyX=X1X2X2X2X1X1XrXrXrX+X+X+X1X+X+X4X4XpXHXhXS # 3 5 5 4 g 1 1 g 1 g z IXIXIXIXIXIXIXIXIXIXIXIXIXIXIXIXIXIXIXIXIX",
"IXIXIXIXIXIXIXIXIXIXIXIXIXIXIXIXIXIXIXIXIXIXk g 0 0 g g g g g g X + C dXDX-X`.<X'.'.'.'.'.'.'.'.'.'.'.'.XXXX'.'.'.'.XXXX'.XX'.'.'.'.'.'.&X&XXXXX`.1X,XG.5.} ..t.:.6.6.6.6.6.6.6.6.6.6.6.6.6.6.6.+.w.:.:.%.o.k.R.5X<XoXXXXXXX*X'.XXoXoXoXoXoXoXoXoXoXoXoXoXoXoXoXoXoXoXoXoXoXoXoXoXoXoXoXoXoXoXoXoXoXoXoXoXoXoXoXoXoXoXoXoXoXoXoXoXoXoXoXoXoXoXoXoXoXoXoXoXoXoXXXXXXX].].oX<X1X3XH.<.| +.3.3.7.9.6.w.@.} / q.Y.MX4XXXXXoXoX+XXXXXXX'.'.'.'.'.'.'.<X<X'._.'.<X<X5X:XC.o.X.$.:.:.6.6.6.$.6.7.7.6.:.6.6.6.6.6.6.6.6.6.6.6.6.6.6.6.6.6.6.6.6.6.6.6.6.6.6.6.6.6.6.6.6.6.6.6.6.6.6.6.6.6.6.6.6.6.6.6.6.6.6.6.6.6.6.6.6.6.6.6.6.6.6.6.6.6.6.6.6.6.6.6.6.6.6.6.6.6.6.6.6.6.6.6.6.6.6.6.6.6.6.6.6.6.6.6.6.6.6.6.6.6.6.6.6.6.6.6.6.6.6.6.6.6.6.6.6.6.6.6.6.6.6.6.6.6.6.6.6.6.6.9.9.0.0.7.7.7.7.6.6.7.7.7.7.6.$.X.;.m.;XuX].'._.[.'.XX+X+X+XZX`.b.-.+.t.$.$.+.6.0.0.0.o.0.x.:X4X<X'.<X<X_._.'.'.'.'.XXXXXXXXXXXX'.'.XXXXXXXX2XZXI.m + = g 1 1 g 1 1 g 0 g z IXIXIXIXIXIXIXIXIXIXIXIXIXIXIXIXIXIXIXIXIX",
"IXIXIXIXIXIXIXIXIXIXIXIXIXIXIXIXIXIXIXIXIXIXk g e 0 g g y g g d = $ A nXSX-X`.XXXX'.'.'.].'.'.'.XXXXXXXXXXXXXXXXXXXXXXXXXXXXXXXXXX'.'.'.*X*XXXXX'.6X5XG.4.[  .w.6.6.6.6.6.6.6.6.6.6.6.6.6.6.6.6.+.3.:.+.%.o.k.R.5X<XoXXXXXXX*X'.XXoXoXoXoXoXoXoXoXoXoXoXoXoXoXoXoXoXoXoXoXoXoXoXoXoXoXoXoXoXoXoXoXoXoXoXoXoXoXoXoXoXoXoXoXoXoXoXoXoXoXoXoXoXoXoXoXoXoXoXoXoXoXXXXXXX].].oX<X1X3XH.<.| +.3.3.7.9.+.:.:.} / y.Y.MX<X<XXX'.XXXXXXXXXXXXXXXXXXXXXXXX3X<XXXXXXX<X4X3X$Xc.o.X.6.6.:.:.6.6.6.6.7.7.6.:.6.6.6.6.6.6.6.6.6.6.6.6.6.6.6.6.6.6.6.6.6.6.6.6.6.6.6.6.6.6.6.6.6.6.6.6.6.6.6.6.6.6.6.6.6.6.6.6.6.6.6.6.6.6.6.6.6.6.6.6.6.6.6.6.6.6.6.6.6.6.6.6.6.6.6.6.6.6.6.6.6.6.6.6.6.6.6.6.6.6.6.6.6.6.6.6.6.6.6.6.6.6.6.6.6.6.6.6.6.6.6.6.6.6.6.6.6.6.6.6.6.6.6.6.6.6.6.6.6.6.6.6.7.7.7.7.7.7.6.7.7.:.:.7.w.$.X.,.A.;X6X'._.|.'.'.XXXX+X+XeX#Xv.,.$.*.%.%.+.6.0.0.0.o.0.x.:X6X4XXXXX<X|.XXXX<XXXXXXXXXXXXXXXXX'.'.XXXXXXXX=XCXI.m + : h g 1 g 1 1 g 1 g z IXIXIXIXIXIXIXIXIXIXIXIXIXIXIXIXIXIXIXIXIX",
"IXIXIXIXIXIXIXIXIXIXIXIXIXIXIXIXIXIXIXIXIXIXk g e g g g y 1 0 g = % A hXFXtX'.+X+XoX].oXoXoXoXoXoX+X+X+X+X+X+X+X+X+X+X+X+X+X+X+XXXoXoXoX'.XX+X+XrXCX5XJ.u. .X.w.6.6.6.6.6.6.6.6.6.6.6.6.6.6.6.6.+.3.:.+.%.o.k.R.5X1XoXXXXXXX*X'.XXoXoXoXoXoXoXoXoXoXoXoXoXoXoXoXoXoXoXoXoXoXoXoXoXoXoXoXoXoXoXoXoXoXoXoXoXoXoXoXoXoXoXoXoXoXoXoXoXoXoXoXoXoXoXoXoXoXoXoXoXoXoXXXXXXX].].XX<X1X3XH.<.| %.3.3.7.9.:.:.:.| o.j.T.MX3X<XXX*X<X<X<X<XXX+X+X+X+X+X+X+X+XXX+X+X+XoX+X4X;Xn.-.X.7.6.:.:.7.6.6.6.6.7.:.:.6.6.6.6.6.6.6.6.6.6.6.6.6.6.6.6.6.6.6.6.6.6.6.6.6.6.6.6.6.6.6.6.6.6.6.6.6.6.6.6.6.6.6.6.6.6.6.6.6.6.6.6.6.6.6.6.6.6.6.6.6.6.6.6.6.6.6.6.6.6.6.6.6.6.6.6.6.6.6.6.6.6.6.6.6.6.6.6.6.6.6.6.6.6.6.6.6.6.6.6.6.6.6.6.6.6.6.6.6.6.6.6.6.6.6.6.6.6.6.6.6.6.6.6.6.6.6.6.6.:.6.:.:.:.:.:.:.:.+.+.+.+.+.+.w.+.X.,.A.,XCX+X+XXX'.'.oXoXoX+XZX.Xc.-.%.*.%.%.+.6.6.6.$.} :.x.>XyX+X@X+XoX@X+XXXXX+X+X+X+X+X+XoXoX].].oXoXoXoX1XZXI.C + : h g 1 g 1 1 g 1 g z IXIXIXIXIXIXIXIXIXIXIXIXIXIXIXIXIXIXIXIXIX",
"IXIXIXIXIXIXIXIXIXIXIXIXIXIXIXIXIXIXIXIXIXIXk g e e g g y 1 0 p X . A hXSXtX@X+XoX+XoXoX+XoXoXoXoXoXoXoX+X+X+XoX+X+X+X+X+X+X+XoXoXoXoXoXXXXX+X+XoX4X|.J.<.X.%.w.6.6.6.6.6.6.6.6.6.6.6.6.6.6.6.6.+.3.:.+.%.o.k.R.5X1XoXXXXXXX*X'.XXoXoXoXoXoXoXoXoXoXoXoXoXoXoXoXoXoXoXoXoXoXoXoXoXoXoXoXoXoXoXoXoXoXoXoXoXoXoXoXoXoXoXoXoXoXoXoXoXoXoXoXoXoXoXoXoXoXoXoXoXoXoXXXXXXX].].XX<X1X3XH.<.| %.3.3.7.6.6.6.+.} o.j.Y.3X4X<X<X<X<X<X<X<XoXoXoX+X+X+XoXoXoXoX+XXX+XoX+X4XmXA.;.O.7.7.:.6.7.6.6.6.6.6.6.:.6.6.6.6.6.6.6.6.6.6.6.6.6.6.6.6.6.6.6.6.6.6.6.6.6.6.6.6.6.6.6.6.6.6.6.6.6.6.6.6.6.6.6.6.6.6.6.6.6.6.6.6.6.6.6.6.6.6.6.6.6.6.6.6.6.6.6.6.6.6.6.6.6.6.6.6.6.6.6.6.6.6.6.6.6.6.6.6.6.6.6.6.6.6.6.6.6.6.6.6.6.6.6.6.6.6.6.6.6.6.6.6.6.6.6.6.6.6.6.6.6.6.6.6.6.6.6.:.:.:.:.:.:.:.:.:.:.:.+.+.+.@.@.@.@.O.} ,.A.,XCX@X+X+XoX].<X<X<X1XCX/.v.| X.%.%.w.+.:.:.:.@.} -.v.>XCX+XXX+X+X+X+X+X+X+X+X+X+X+XoXoX].].].].oXoXoXrXZXgXC + - y 1 1 g 1 1 g 1 g z IXIXIXIXIXIXIXIXIXIXIXIXIXIXIXIXIXIXIXIXIX",
"IXIXIXIXIXIXIXIXIXIXIXIXIXIXIXIXIXIXIXIXIXIXz 1 e e e g y y g d - @ A dXSXuXXXOXoXoXoXoXXXXXXXXXXXoXoXoXoXoXoXoXXXXXoXoXoXoXoXXX<XXXXXXX<X<XOX+X+X4XNXK.<.X.$.t.6.6.6.6.6.6.6.6.6.6.6.6.6.6.6.6.:.:.:.+.%.o.k.R.5X1XoXXXXXoX*X'.XXoXoXoXoXoXoXoXoXoXoXoXoXoXoXoXoXoXoXoXoXoXoXoXoXoXoXoXoXoXoXoXoXoXoXoXoXoXoXoXoXoXoXoXoXoXoXoXoXoXoXoXoXoXoXoXoXoXoXoXoXoXoXXXXX'.'.'.XX<X1X3XH.1.| $.3.3.7.6.6.7.w.o.o.h.T.MX<XoXoXoXoXoXoXXXXXXXoXoXoXoXoXXXXXXXXXXX'.oX1X6X:Xm.-.O.6.:.:.:.7.6.:.:.7.7.6.:.6.6.6.6.6.6.6.6.6.6.6.6.6.6.6.6.6.6.6.6.6.6.6.6.6.6.6.6.6.6.6.6.6.6.6.6.6.6.6.6.6.6.6.6.6.6.6.6.6.6.6.6.6.6.6.6.6.6.6.6.6.6.6.6.6.6.6.6.6.6.6.6.6.6.6.6.6.6.6.6.6.6.6.6.6.6.6.6.6.6.6.6.6.6.6.6.6.6.6.6.6.6.6.6.6.6.6.6.6.6.6.6.6.6.6.6.6.6.6.6.6.6.6.6.6.6.6.:...:.3.+.:.w.3.+.:.:.:.:.:.:.+.$.&.+.X.,.M.>XCX@X+X+X].].[.*X*X*XDX~.l.| X.$.7.7.,.3.:.@.@.} ,.v.;XyX1X'.oXoX'.<X<XXXoXoXoXoXoXoXXX<X*X*XXXXXoXoX1XZXdXA + , d y 1 g 1 1 g 1 g z IXIXIXIXIXIXIXIXIXIXIXIXIXIXIXIXIXIXIXIXIX",
"IXIXIXIXIXIXIXIXIXIXIXIXIXIXIXIXIXIXIXIXIXIXz 1 0 g e g p 1 p d = @ A dXSXtX'.OXXXXXXXXXXX<X<X<X<X'.XX'.oX].XX'.XX'.XX'.XX'.XX<X<X<X<X<X<X<XOX+XoX<X3XK.<.X.$.w.6.6.6.6.6.6.6.6.6.6.6.6.6.6.6.6.:.:.:.+.%.o.k.R.5X1XoXXXXXXX*X'.XXoXoXoXoXoXoXoXoXoXoXoXoXoXoXoXoXoXoXoXoXoXoXoXoXoXoXoXoXoXoXoXoXoXoXoXoXoXoXoXoXoXoXoXoXoXoXoXoXoXoXoXoXoXoXoXoXoXoXoXoXoXoXXXXX'.'.'.oX<X1XNXH.1.| $.3.3.6.6.$.7.w.o.o.h.T.MXXXoXoXoXoXoXoXXXXX].XX].oX].oX'.XX*XXX'.'.'.1X6X:Xm.-.O.6.:.:.:.7.6.:.+.7.7.6.:.6.6.6.6.6.6.6.6.6.6.6.6.6.6.6.6.6.6.6.6.6.6.6.6.6.6.6.6.6.6.6.6.6.6.6.6.6.6.6.6.6.6.6.6.6.6.6.6.6.6.6.6.6.6.6.6.6.6.6.6.6.6.6.6.6.6.6.6.6.6.6.6.6.6.6.6.6.6.6.6.6.6.6.6.6.6.6.6.6.6.6.6.6.6.6.6.6.6.6.6.6.6.6.6.6.6.6.6.6.6.6.6.6.6.6.6.6.6.6.6.6.6.6.6.6.6.6.6.+.:.:.O.:.w.w.:.7.7.7.6.6.6.6.$.+.%.X.,.m.,XCX+X+XoX].[.*X*X*X<XMXR.j.,.+.7.7.>.,.>.:.@.+.} ;.v.;X1X1X[.<X<X'.<XXX'.XX'.XX'.oXXXXX<X*X*X<XXXXXoX1XZXdXC + , h y 1 g 1 1 g 1 g z IXIXIXIXIXIXIXIXIXIXIXIXIXIXIXIXIXIXIXIXIX",
"IXIXIXIXIXIXIXIXIXIXIXIXIXIXIXIXIXIXIXIXIXIXz 1 1 1 g g g g g g = # A gXFXtX[.oXoX].].*X<X<X<X*XXXoXoXoXoXoXoXoXoXoXoXoXoXoXoXXX<X<XXX<X*X<XXXoX].1X3XR.<.} 6.7.6.6.6.6.6.6.6.6.6.6.6.6.6.6.6.6.:.3.:.+.%.o.k.R.5X1XoXXXXXXX'.'.XXoXoXoXoXoXoXoXoXoXoXoXoXoXoXoXoXoXoXoXoXoXoXoXoXoXoXoXoXoXoXoXoXoXoXoXoXoXoXoXoXoXoXoXoXoXoXoXoXoXoXoXoXoXoXoXoXoXoXoXoXoXoXXX'.'.'.'.oX<X1X3XH.<.| %.3.3.7.9.9.7.w.o.o.h.E.MX<X<X<XXXoXoXXXXXXXoXoXoXoXoXoXXXXXXXXXXXXXoX4X6X:Xm.-.X.6.:.:.:.6.6.:.:.7.7.6.:.6.6.6.6.6.6.6.6.6.6.6.6.6.6.6.6.6.6.6.6.6.6.6.6.6.6.6.6.6.6.6.6.6.6.6.6.6.6.6.6.6.6.6.6.6.6.6.6.6.6.6.6.6.6.6.6.6.6.6.6.6.6.6.6.6.6.6.6.6.6.6.6.6.6.6.6.6.6.6.6.6.6.6.6.6.6.6.6.6.6.6.6.6.6.6.6.6.6.6.6.6.6.6.6.6.6.6.6.6.6.6.6.6.6.6.6.6.6.6.6.6.6.6.6.6.6.6.6.6.6.+.o.$.w.7.:.7.7.7.6.6.6.$.$.&.%.O.;.A.$XMXoXXXoX].'.<X<XXXXXMX).z.>.6.t.7.:.:.6.6.6.$.X.:.x.;XyX1X'.oXoXXX<XoXoXoXoXoXoXoXoXoX<XXXXXXXXXoXoXrXZXgXA . , a p 1 g 1 1 g 1 g z IXIXIXIXIXIXIXIXIXIXIXIXIXIXIXIXIXIXIXIXIX",
"IXIXIXIXIXIXIXIXIXIXIXIXIXIXIXIXIXIXIXIXIXIXz 1 0 0 g g g g g g = # A gXFXtX[.XX'.*X].*X'.*X*X<XXXoXoXoXoXoXoXoXXXoXoXoXoXoXoXXX<X<X<X*X*X*XXXoX].1X3XY.<.} :.6.6.6.6.6.6.6.6.6.6.6.6.6.6.6.6.6.:.3.:.+.%.o.k.R.5X1XoXXXXXXX'.'.XXoXoXoXoXoXoXoXoXoXoXoXoXoXoXoXoXoXoXoXoXoXoXoXoXoXoXoXoXoXoXoXoXoXoXoXoXoXoXoXoXoXoXoXoXoXoXoXoXoXoXoXoXoXoXoXoXoXoXoXoXoXoXXX'.'.'.'.oX<X1X3XH.<.| %.3.3.7.9.$.7.w.| o.y.E.MX<X<X<XXXoXoXXXXXoXoXoXoXoXoXoXXX'.'.XXXXXXoX1X6X;Xm.-.X.6.:.:.:.6.6.:.:.7.7.6.:.6.6.6.6.6.6.6.6.6.6.6.6.6.6.6.6.6.6.6.6.6.6.6.6.6.6.6.6.6.6.6.6.6.6.6.6.6.6.6.6.6.6.6.6.6.6.6.6.6.6.6.6.6.6.6.6.6.6.6.6.6.6.6.6.6.6.6.6.6.6.6.6.6.6.6.6.6.6.6.6.6.6.6.6.6.6.6.6.6.6.6.6.6.6.6.6.6.6.6.6.6.6.6.6.6.6.6.6.6.6.6.6.6.6.6.6.6.6.6.6.6.6.6.6.6.6.6.6.6.6.$.$.6.6.$.o.6.6.6.6.$.%.%.%.&.O./ ,.A.$XMX<XoXoX].].<X<XoX+XZX!.v.,.o.%.$.+.+.:.+.$.$.X.%.l. XyX1X'.oXoX'.oXoXoXoXoXoXoXoXoXoXoXXXXXXXXXoXoXrXZXgXA . , a p 1 g 1 1 g 1 g z IXIXIXIXIXIXIXIXIXIXIXIXIXIXIXIXIXIXIXIXIX",
"IXIXIXIXIXIXIXIXIXIXIXIXIXIXIXIXIXIXIXIXIXIXz 1 d g g g g g g g = # A gXSX-X`.<X*X*X=X*X'.*X*X*X'.'.'.'.'.'.'.'.XXXX'.'.'.'.'.*X<X<XXX<X*X*X<XoX].1X7XK.<.} :.6.6.6.6.6.6.6.6.6.6.6.6.6.6.:.:.:.:.3.:.+.%.o.k.R.5X<XoXXXXXXX*X'.XXoXoXoXoXoXoXoXoXoXoXoXoXoXoXoXoXoXoXoXoXoXoXoXoXoXoXoXoXoXoXoXoXoXoXoXoXoXoXoXoXoXoXoXoXoXoXoXoXoXoXoXoXoXoXoXoXoXoXoXoXoXoXXX'.'.'.'.XX<X1X3XH.<.| %.:.:.7.9.$.w.@.| o.j.T.6XXXoXoX].oXoXoXXXXX'.'.].].].'.'.'.*X*X'.'.].1X6X;Xn.-.X.:.:.:.:.6.6.+.:.7.7.7.7.6.6.6.6.6.6.6.6.6.6.6.6.6.6.6.6.6.6.6.6.6.6.6.6.6.6.6.6.6.6.6.6.6.6.6.6.6.6.6.6.6.6.6.6.6.6.6.6.6.6.6.6.6.6.6.6.6.6.6.6.6.6.6.6.6.6.6.6.6.6.6.6.6.6.6.6.6.6.6.6.6.6.6.6.6.6.6.6.6.6.6.6.6.6.6.6.6.6.6.6.6.6.6.6.6.6.6.6.6.6.6.6.6.6.6.6.6.6.6.6.6.6.6.6.6.6.6.6.9.6.9.6.6.$.o.o.o.o.o... . .O.O.O./ ^ ` A.:XDXuXrXeXsX0X2X1XrXyXSX.Xc.,./ / }  .} ..| o.o./ X.h.;XyX1X[.<X<X'.<X'.'.'.'.].].].].oXoX*X*X<XXXXXXX1XZXdXC + , h p 1 g 1 1 g 1 g z IXIXIXIXIXIXIXIXIXIXIXIXIXIXIXIXIXIXIXIXIX",
"IXIXIXIXIXIXIXIXIXIXIXIXIXIXIXIXIXIXIXIXIXIXz 1 g g g g g g g g = # A gXSX-X`.<X<X*X=XoXoXoXXX].'.'.].'.].'.].'.].'.].'.].'.].XXXXXXXXXX<X*X<XXX].1X7XK.<.} :.6.6.6.6.6.6.6.6.6.6.6.6.6.6.:.:.:.:.3.:.+.%.o.k.R.5X<XoXXXXXXX*X'.XXoXoXoXoXoXoXoXoXoXoXoXoXoXoXoXoXoXoXoXoXoXoXoXoXoXoXoXoXoXoXoXoXoXoXoXoXoXoXoXoXoXoXoXoXoXoXoXoXoXoXoXoXoXoXoXoXoXoXoXoXoXoXXX'.'.'.'.XX<X1X3XH.<.o.%.3.3.7.6.+.w.@. .o.j.T.6X<XoX].].oXoXoXXXXX'.'.].].'.'.'.'.*X*X'.'.].1X6X;Xn.-.X.:.:.:.:.6.$.+.:.7.7.7.7.6.6.6.6.6.6.6.6.6.6.6.6.6.6.6.6.6.6.6.6.6.6.6.6.6.6.6.6.6.6.6.6.6.6.6.6.6.6.6.6.6.6.6.6.6.6.6.6.6.6.6.6.6.6.6.6.6.6.6.6.6.6.6.6.6.6.6.6.6.6.6.6.6.6.6.6.6.6.6.6.6.6.6.6.6.6.6.6.6.6.6.6.6.6.6.6.6.6.6.6.6.6.6.6.6.6.6.6.6.6.6.6.6.6.6.6.6.6.6.6.6.6.6.6.6.6.6.6.$.6.6.6.6.+.:.t.<.<.<.<.<.>.4.4.2.,.` f.S.$X>X>X|.|.|._.;X;X|.|.3X(.F.q.,.,.,.>.>.>.,.2.<.,.2.v.;XyX1X[.<X<X'.<X].'.].'.].].'.].oXoX].*XXXXX<X<X2XZXdXC + , g p 1 g 1 1 g 1 g z IXIXIXIXIXIXIXIXIXIXIXIXIXIXIXIXIXIXIXIXIX",
"IXIXIXIXIXIXIXIXIXIXIXIXIXIXIXIXIXIXIXIXIXIXz 1 g g g g e e e g = # A gXSX2X_.XXXX<XoXoXoXoX+XoXoXoXoXoXoXoXoXoXoXoXoXoXoXoXoXoXOXOX+XOX<X<XXXXXXX7X5XK.>.X.$.7.6.6.6.6.6.6.6.6.6.6.6.6.6.6.:.:.6.w.:.+.%.o.k.R.5X1XoXXXXXXX*X'.XXoXoXoXoXoXoXoXoXoXoXoXoXoXoXoXoXoXoXoXoXoXoXoXoXoXoXoXoXoXoXoXoXoXoXoXoXoXoXoXoXoXoXoXoXoXoXoXoXoXoXoXoXoXoXoXoXoXoXoXoXoXoXXX'.'.'.'.XX<X1X3XH.<.o.%.3.3.7.6.+.3.@. .| j.T.6X<X*X].].oXoXXXXXXXoXoXoXoXoXXXXXXXXXXX'.'.oX1X6X;Xn.-.X.:.:.:.:.6.$.+.+.7.7.7.7.6.6.6.6.6.6.6.6.6.6.6.6.6.6.6.6.6.6.6.6.6.6.6.6.6.6.6.6.6.6.6.6.6.6.6.6.6.6.6.6.6.6.6.6.6.6.6.6.6.6.6.6.6.6.6.6.6.6.6.6.6.6.6.6.6.6.6.6.6.6.6.6.6.6.6.6.6.6.6.6.6.6.6.6.6.6.6.6.6.6.6.6.6.6.6.6.6.6.6.6.6.6.6.6.6.6.6.6.6.6.6.6.6.6.6.6.6.6.6.6.6.6.6.6.6.6.6.6.$.$.$.6.o.;.y.D.F.F.H.J.J.J.J.S.S.S.F.F.S.S.A.A.F.F.F.D.C.D.F.A.M.S.F.F.H.F.G.S.S.S.A.A.S.A.S.E.|.yX1X'.oXoX'.<XoXoXoXoXoXoXoXoXoX].].].'.<XXX<X1XZXI.C + , g p 1 g 1 1 g 1 g z IXIXIXIXIXIXIXIXIXIXIXIXIXIXIXIXIXIXIXIXIX",
"IXIXIXIXIXIXIXIXIXIXIXIXIXIXIXIXIXIXIXIXIXIXz 1 p g g g e e e p = # A hXSX2X_.OXXXXXoXoXoXoX+X+XoXoXoXoXoXoXoXoXoXoXoXoXoXoXoXoXOXOX+X+X<X<XXXXXoX1X5XK.<.X.$.7.6.6.6.6.6.6.6.6.6.6.6.6.6.6.6.6.6.w.:.+.%.o.k.R.5X1XoXXXXXXX*X'.XXoXoXoXoXoXoXoXoXoXoXoXoXoXoXoXoXoXoXoXoXoXoXoXoXoXoXoXoXoXoXoXoXoXoXoXoXoXoXoXoXoXoXoXoXoXoXoXoXoXoXoXoXoXoXoXoXoXoXoXoXoXoXXX'.'.'.].XX<X1X3XH.<.| %.3.3.7.6.:.3.3.| | y.T.6X<X*X].].oXoXXXXXXXoXoXoXoXoXXXXXXXXXXXXXXXoXrX6X;Xn.-.X.:.:.:.:.$.$.+.:.7.7.7.6.6.6.6.6.6.6.6.6.6.6.6.6.6.6.6.6.6.6.6.6.6.6.6.6.6.6.6.6.6.6.6.6.6.6.6.6.6.6.6.6.6.6.6.6.6.6.6.6.6.6.6.6.6.6.6.6.6.6.6.6.6.6.6.6.6.6.6.6.6.6.6.6.6.6.6.6.6.6.6.6.6.6.6.6.6.6.6.6.6.6.6.6.6.6.6.6.6.6.6.6.6.6.6.6.6.6.6.6.6.6.6.6.6.6.6.6.6.6.6.6.6.6.6.6.6.6.6.6.&.%.$.+.| ,.x.L.mXmXmXmXNX3X3X3X,XmXmX~.A.f.,.` ;.;.......,.,.2.` g.K.VXBXNX>X>X;X;XQ.;X,X.X|.DXXX4X4X'.oXoXXX<XoXoXoXoXoXoXoXoXoXoX].].].XXXX*X1XZXI.C + , g p 1 g 1 1 g 1 g z IXIXIXIXIXIXIXIXIXIXIXIXIXIXIXIXIXIXIXIXIX",
"IXIXIXIXIXIXIXIXIXIXIXIXIXIXIXIXIXIXIXIXIXIXk 1 g g g g 0 0 0 y = # A gXSX2X'.OXXX'.oXoXoXoXoXoXoXoXoXoXoXoXoXoXoXoXoXoXoXoXoXoXXXXXoXXX*X*XXXoX].uX7XJ.u.X.o.7.6.6.6.6.6.6.6.6.6.6.6.6.6.6.6.6.+.3.:.+.%.o.k.R.5X1XoXXXXXXX*X'.XXoXoXoXoXoXoXoXoXoXoXoXoXoXoXoXoXoXoXoXoXoXoXoXoXoXoXoXoXoXoXoXoXoXoXoXoXoXoXoXoXoXoXoXoXoXoXoXoXoXoXoXoXoXoXoXoXoXoXoXoXoXoXXXXXXX].].XX<X1X3XH.<.| %.3.3.6.6.6.6.3.| | y.T.6X7X<X'.'.oXoXXXXXXXXXoXoXoXoXoXXXXX<X<X'.'.XXrX6X;Xn.|  .:.:.:.6.6.6.:.:.7.7.6.6.:.:.6.6.6.6.6.6.6.6.6.6.6.6.6.6.6.6.6.6.6.6.6.6.6.6.6.6.6.6.6.6.6.6.6.6.6.6.6.6.6.6.6.6.6.6.6.6.6.6.6.6.6.6.6.6.6.6.6.6.6.6.6.6.6.6.6.6.6.6.6.6.6.6.6.6.6.6.6.6.6.6.6.6.6.6.6.6.6.6.6.6.6.6.6.6.6.6.6.6.6.6.6.6.6.6.6.6.6.6.6.6.6.6.6.6.6.6.6.6.6.6.6.6.6.6.6.6.+.w.6.$.o.` z.(.BXCX6X6X6XCXCXyX*X7XMXmXF.2.( ;.| } [ [  .} } / } 5.K.mXMXNXMX+X6X2X2X2XuXuXuXuXXXXXOXXXXXXXXXXXXXoXoXoXoXoXoXoXoXoXoXoXXXXXXX'.2XZXI.C + , g p 1 g 1 1 g 1 g z IXIXIXIXIXIXIXIXIXIXIXIXIXIXIXIXIXIXIXIXIX",
"IXIXIXIXIXIXIXIXIXIXIXIXIXIXIXIXIXIXIXIXIXIXk 1 g g g g 0 0 e g = # A gXSXtX'.OXXX'.].oXoXoXXXXXoXoXoXoXoXoXoXoXoXoXoXoXoXoXoXXX<X<XXX'.*X*XXXoX].yX3XJ.u.X.o.7.6.6.6.6.6.6.6.6.6.6.6.6.6.6.6.6.+.w.:.:.%.o.k.R.5X1XoXXXXX<X*X'.XXoXoXoXoXoXoXoXoXoXoXoXoXoXoXoXoXoXoXoXoXoXoXoXoXoXoXoXoXoXoXoXoXoXoXoXoXoXoXoXoXoXoXoXoXoXoXoXoXoXoXoXoXoXoXoXoXoXoXoXoXoXoXXXXXXX].].XX<X1X3XH.<.| +.3.3.6.6.6.6.3.| o.y.Y.6X7X<X'.'.oXoXoXXXXXXXoXoXoXoXoXXXXX<X<X'.'.oXrX6X;Xn.-. .:.:.:.6.7.6.:.:.7.7.6.$.:.:.6.6.6.6.6.6.6.6.6.6.6.6.6.6.6.6.6.6.6.6.6.6.6.6.6.6.6.6.6.6.6.6.6.6.6.6.6.6.6.6.6.6.6.6.6.6.6.6.6.6.6.6.6.6.6.6.6.6.6.6.6.6.6.6.6.6.6.6.6.6.6.6.6.6.6.6.6.6.6.6.6.6.6.6.6.6.6.6.6.6.6.6.6.6.6.6.6.6.6.6.6.6.6.6.6.6.6.6.6.6.6.6.6.6.6.6.6.6.6.6.6.6.6.6.6.:.+.w.6.$.%.` z.(.MXrX<X*X<X<XwXwX*X1XuXmXF.,.) $.:.+.=.=.%.$.+. .[ 5.Y.MXyX+X+X+X<X=X-X=XoXwXoX+XXXOXOXOXXXXXXXXXXXXXoXoXoXoXoXoX+X+XoXoXXXXXXXXX2XZXI.C + , g p 1 g y 1 g 1 g z IXIXIXIXIXIXIXIXIXIXIXIXIXIXIXIXIXIXIXIXIX",
"IXIXIXIXIXIXIXIXIXIXIXIXIXIXIXIXIXIXIXIXIXIXk 1 g g g g g g g g = # A gXSXtX'.OXXX'.].oXoXoXXXXXoXoXoXoXoXoXoXoXoXoXoXoXoXoXoXXX<X<XXX'.*X*XXXoX].yX3XJ.u.X.o.7.6.6.6.6.6.6.6.6.6.6.6.6.6.6.6.6.+.w.:.+.%.o.k.R.5X<XoXXXXXXX*X'.XXoXoXoXoXoXoXoXoXoXoXoXoXoXoXoXoXoXoXoXoXoXoXoXoXoXoXoXoXoXoXoXoXoXoXoXoXoXoXoXoXoXoXoXoXoXoXoXoXoXoXoXoXoXoXoXoXoXoXoXoXoXoXXXXXXX].].XX<X1X3XH.<.| +.3.3.6.6.6.w.3.| o.y.Y.6X7X<X'.'.oXoXoXXXXXXXoXoXoXoXoXXXXX<X<X'.'.oXrX6X;Xn.-.X.:.:.:.6.7.6.:.:.7.7.6.$.6.6.6.6.6.6.6.6.6.6.6.6.6.6.6.6.6.6.6.6.6.6.6.6.6.6.6.6.6.6.6.6.6.6.6.6.6.6.6.6.6.6.6.6.6.6.6.6.6.6.6.6.6.6.6.6.6.6.6.6.6.6.6.6.6.6.6.6.6.6.6.6.6.6.6.6.6.6.6.6.6.6.6.6.6.6.6.6.6.6.6.6.6.6.6.6.6.6.6.6.6.6.6.6.6.6.6.6.6.6.6.6.6.6.6.6.6.6.6.6.6.6.6.6.6.6.6.:.:.6.6.$.%.-.z.(.4X].'._.'.XXoX'.'.<XuXNXF.,./ $.w.3.#.&.t.t.6.:.} <.T.5XrX+X+XXX'.[.[.[.[.].XXXXOXOX<X<XXXXXXXXXXXXXoXoXoXoXoXoX+X+XoXoXXXXXXXXX2XZXI.C + , p p 1 g y 1 g 1 g z IXIXIXIXIXIXIXIXIXIXIXIXIXIXIXIXIXIXIXIXIX",
"IXIXIXIXIXIXIXIXIXIXIXIXIXIXIXIXIXIXIXIXIXIXk 1 g g g g g g g g = # A gXSXtX'.OXXX'.].oXoXoXXXXXoXoXoXoXoXoXoXoXoXoXoXoXoXoXoXXX<X<XXX'.*X*XXXoX].yX3XJ.u.X.o.7.6.6.6.6.6.6.6.6.6.6.6.6.6.6.6.6.+.w.:.+.%.o.k.R.5X<XoXXXXXXX*X'.XXoXoXoXoXoXoXoXoXoXoXoXoXoXoXoXoXoXoXoXoXoXoXoXoXoXoXoXoXoXoXoXoXoXoXoXoXoXoXoXoXoXoXoXoXoXoXoXoXoXoXoXoXoXoXoXoXoXoXoXoXoXoXXXXXXX].].XX<X1X3XH.<.| %.3.3.6.6.6.w.3.| o.y.Y.6X7X<X'.'.oXoXoXXXXXXXoXoXoXoXoXXXXX<X<X'.'.oX1X6X;Xn.-.X.:.:.:.6.7.6.:.:.7.7.6.6.6.6.6.6.6.6.6.6.6.6.6.6.6.6.6.6.6.6.6.6.6.6.6.6.6.6.6.6.6.6.6.6.6.6.6.6.6.6.6.6.6.6.6.6.6.6.6.6.6.6.6.6.6.6.6.6.6.6.6.6.6.6.6.6.6.6.6.6.6.6.6.6.6.6.6.6.6.6.6.6.6.6.6.6.6.6.6.6.6.6.6.6.6.6.6.6.6.6.6.6.6.6.6.6.6.6.6.6.6.6.6.6.6.6.6.6.6.6.6.6.6.6.6.6.6.6.6.:.:.:.6.$.+.-.z.(.4XoX'.'.XXXXXX'.'.<XyXNXF.,./ +.3.3.@.&.w.7.6.:.} 1.T.4XrXoXOXXXXX'.'.'.'.XXXXXXOXOX<X<XXXXXXXXXXXXXoXoXoXoXoXoX+X+XoXoXXXXXXXXX2XZXI.C + , p p 1 g 1 1 g 1 g z IXIXIXIXIXIXIXIXIXIXIXIXIXIXIXIXIXIXIXIXIX",
"IXIXIXIXIXIXIXIXIXIXIXIXIXIXIXIXIXIXIXIXIXIXk 1 g g g g g g g g = # A gXSXtX'.OXXX'.].oXoXoXXXXXoXoXoXoXoXoXoXoXoXoXoXoXoXoXoXXXXXXXXXXX*X*XXXoX].yX3XJ.u.X.o.7.6.6.6.6.6.6.6.6.6.6.6.6.6.6.6.6.:.3.:.+.%.o.k.R.5X<XoXoXoXoX*X'.XXoXoXoXoXoXoXoXoXoXoXoXoXoXoXoXoXoXoXoXoXoXoXoXoXoXoXoXoXoXoXoXoXoXoXoXoXoXoXoXoXoXoXoXoXoXoXoXoXoXoXoXoXoXoXoXoXoXoXoXoXoXoXXXXXXX].].XX<X1X3XH.<.| +.3.3.6.6.6.w.3.| o.y.Y.6X<X<X'.'.oXoXoXXXXXXXoXoXoXoXoXXXXX<X<X'.'.XX1X6X;Xn.-.X.6.:.:.6.6.6.:.:.7.7.:.+.6.6.6.6.6.6.6.6.6.6.6.6.6.6.6.6.6.6.6.6.6.6.6.6.6.6.6.6.6.6.6.6.6.6.6.6.6.6.6.6.6.6.6.6.6.6.6.6.6.6.6.6.6.6.6.6.6.6.6.6.6.6.6.6.6.6.6.6.6.6.6.6.6.6.6.6.6.6.6.6.6.6.6.6.6.6.6.6.6.6.6.6.6.6.6.6.6.6.6.6.6.6.6.6.6.6.6.6.6.6.6.6.6.6.6.6.6.6.6.6.6.6.6.6.6.6.6.:.:.:.9.$.+.-.z.(.6XwXoXoXoXoXoXoX'.<XyX3XF.,./ +.:.:.@.@.$.6.+.O./ 1.T.1X1X'.,X|.3X<X<X*X<X<X3X3XOXXXXXXXXXXXXXXXXXXXoXoXoXoXoXoX+X+XoXoXXXXXXXXX2XZXI.C + , g p 1 g 1 1 g 1 g z IXIXIXIXIXIXIXIXIXIXIXIXIXIXIXIXIXIXIXIXIX",
"IXIXIXIXIXIXIXIXIXIXIXIXIXIXIXIXIXIXIXIXIXIXk 1 g g g g g g y y = # A gXSXtX'.OXXX'.].oXoXoXXXXXoXoXoXoXoXoXoXoXoXoXoXoXoXoXoXXXXXXXXXXX*X*XXXoX].yX3XJ.u.X.o.7.6.6.6.6.6.6.6.6.6.6.6.6.6.6.6.6.:.3.:.+.%.o.k.R.5X<XoXoXXXoX*X'.XXoXoXoXoXoXoXoXoXoXoXoXoXoXoXoXoXoXoXoXoXoXoXoXoXoXoXoXoXoXoXoXoXoXoXoXoXoXoXoXoXoXoXoXoXoXoXoXoXoXoXoXoXoXoXoXoXoXoXoXoXoXoXXXXXXX'.'.XXoX1X3XH.<.( +.3.3.6.6.6.w.3.| o.y.Y.6X<X<X'.'.oXoXoXXXXXXXoXoXoXoXoXXXXX<X<X'.'.XX1X6X;Xn.-.X.6.:.:.6.6.6.:.:.7.7.6.+.6.6.6.6.6.6.6.6.6.6.6.6.6.6.6.6.6.6.6.6.6.6.6.6.6.6.6.6.6.6.6.6.6.6.6.6.6.6.6.6.6.6.6.6.6.6.6.6.6.6.6.6.6.6.6.6.6.6.6.6.6.6.6.6.6.6.6.6.6.6.6.6.6.6.6.6.6.6.6.6.6.6.6.6.6.6.6.6.6.6.6.6.6.6.6.6.6.6.6.6.6.6.6.6.6.6.6.6.6.6.6.6.6.6.6.6.6.6.6.6.6.6.6.6.6.6.6.:.:.:.6.$.+.-.z.(.4XwXoX].oXXX<X*X_.<XyX3XF.,.} %.6.:.:.6.6.6.$.+.} 1.T.1X=X'.<X|.<XXX'.*X*X<XXXOX<XXXXXXXXXXXXXXXXXXXoXoXoXoXoXoX+X+XoXoXXXXXXXXX2XZXI.C + , g p 1 g 1 1 g 1 g z IXIXIXIXIXIXIXIXIXIXIXIXIXIXIXIXIXIXIXIXIX",
"IXIXIXIXIXIXIXIXIXIXIXIXIXIXIXIXIXIXIXIXIXIXk 1 g 1 g g g e 1 y = # A dXSXtX'.OXXX'.].oXoXoXXXXXoXoXoXoXoXoXoXoXoXoXoXoXoXoXoXXXXXXXXXXX*X*XXXoX].yX3XJ.u.X.o.7.6.6.6.6.6.6.6.6.6.6.6.6.6.6.6.6.+.3.:.+.%.o.k.R.5X1XoXoXXXXX'.'.XXoXoXoXoXoXoXoXoXoXoXoXoXoXoXoXoXoXoXoXoXoXoXoXoXoXoXoXoXoXoXoXoXoXoXoXoXoXoXoXoXoXoXoXoXoXoXoXoXoXoXoXoXoXoXoXoXoXoXoXoXoXoXXXXXXX'.'.XX<X+X3XH.<.| +.3.3.6.6.6.w.3.| o.y.Y.6X<X<X'.'.oXoXXXXXXXXXoXoXoXoXoXXXXX<X<X'.'.XX1X6X:Xn.-.X.6.:.:.6.6.6.:.:.7.7.:.+.6.6.6.6.6.6.6.6.6.6.6.6.6.6.6.6.6.6.6.6.6.6.6.6.6.6.6.6.6.6.6.6.6.6.6.6.6.6.6.6.6.6.6.6.6.6.6.6.6.6.6.6.6.6.6.6.6.6.6.6.6.6.6.6.6.6.6.6.6.6.6.6.6.6.6.6.6.6.6.6.6.6.6.6.6.6.6.6.6.6.6.6.6.6.6.6.6.6.6.6.6.6.6.6.6.6.6.6.6.6.6.6.6.6.6.6.6.6.6.6.6.6.6.6.6.6.6.:.:.:.7.6.+.| k.(.5X+XoX'.'.&X&X&X_.=XyX3XF.,.} %.7.7.0.0.0.0.7.:.X.1.T.2X=X[.*X|.XX+X].[.*X'.XXXXXXXXXXXXXXXXXXXXXXXXoXoXoXoXoXoX+X+XoXoXoXoXXXXX2XZXdXC + , g p 1 g 1 1 g 1 g z IXIXIXIXIXIXIXIXIXIXIXIXIXIXIXIXIXIXIXIXIX",
"IXIXIXIXIXIXIXIXIXIXIXIXIXIXIXIXIXIXIXIXIXIXk 1 0 1 g g g 0 0 y = # A gXSXtX'.OXXX'.].oXoXoXXXXXoXoXoXoXoXoXoXoXoXoXoXoXoXoXoXXXXXXXXXXX*X*XXXoX].uX3XJ.u.X.o.7.6.6.6.6.6.6.6.6.6.6.6.6.6.6.6.6.+.w.:.+.%.o.k.R.5X1XoXoXXXXX'.'.XXoXoXoXoXoXoXoXoXoXoXoXoXoXoXoXoXoXoXoXoXoXoXoXoXoXoXoXoXoXoXoXoXoXoXoXoXoXoXoXoXoXoXoXoXoXoXoXoXoXoXoXoXoXoXoXoXoXoXoXoXoXoXXXXXXX'.'.XX<X+X3XH.<.| +.3.3.6.6.6.w.3.| o.h.Y.6X<XoX'.'.oXoXoXXXXXXXoXoXoXoXoXXXXX<X<X'.'.XX1X6X:Xn.-.X.6.:.:.6.6.6.:.:.7.7.6.+.6.6.6.6.6.6.6.6.6.6.6.6.6.6.6.6.6.6.6.6.6.6.6.6.6.6.6.6.6.6.6.6.6.6.6.6.6.6.6.6.6.6.6.6.6.6.6.6.6.6.6.6.6.6.6.6.6.6.6.6.6.6.6.6.6.6.6.6.6.6.6.6.6.6.6.6.6.6.6.6.6.6.6.6.6.6.6.6.6.6.6.6.6.6.6.6.6.6.6.6.6.6.6.6.6.6.6.6.6.6.6.6.6.6.6.6.6.6.6.6.6.6.6.6.6.6.6.:.:.6.7.6.o.| k.(.5X+XoX].'.*X&X&X[.=XyX3XF.2.} &.9.0.0.0.0.0.6.+.| y.W.2X=X[.*X|.+XoX].].*X*XoXoXXXXXXXXXXXXXXXXXXXXXoXoXoXoXoXoXoX+XoXoXXXoXoXoX2XZXI.C + , g p 1 g 1 1 g 1 g z IXIXIXIXIXIXIXIXIXIXIXIXIXIXIXIXIXIXIXIXIX",
"IXIXIXIXIXIXIXIXIXIXIXIXIXIXIXIXIXIXIXIXIXIXz 1 0 0 g g g y 1 y = # A gXSXtX_.XXXX'.oXoXoXoXXXXXoXoXoXoXoXoXoXoXoXoXoXoXoXoXoXXXXXXXXXXX<X<XXXoXoX1X3XY.<.X.6.6.6.6.6.6.6.6.6.6.6.6.6.6.6.6.6.6.+.3.:.+.%.o.k.R.3X1XoXoXXXXX*X*XXXoXoXoXoXoXoXoXoXoXoXoXoXoXoXoXoXoXoXoXoXoXoXoXoXoXoXoXoXoXoXoXoXoXoXoXoXoXoXoXoXoXoXoXoXoXoXoXoXoXoXoXoXoXoXoXoXoXoXoXoXoXoXXXXXXX'.'.XX<X1X3XH.<.( %.3.3.6.6.$.w.3.| o.h.Y.6X<X<X].].oXoXXXXXXXXXoXoXoXoXoXXXXXXXXX'.'.oXrX6X:Xn.-.X.6.6.:.6.7.6.6.6.7.7.6.:.6.6.6.6.6.6.6.6.6.6.6.6.6.6.6.6.6.6.6.6.6.6.6.6.6.6.6.6.6.6.6.6.6.6.6.6.6.6.6.6.6.6.6.6.6.6.6.6.6.6.6.6.6.6.6.6.6.6.6.6.6.6.6.6.6.6.6.6.6.6.6.6.6.6.6.6.6.6.6.6.6.6.6.6.6.6.6.6.6.6.6.6.6.6.6.6.6.6.6.6.6.6.6.6.6.6.6.6.6.6.6.6.6.6.6.6.6.6.6.6.6.6.6.6.6.6.6.6.:.+.9.9.} ( k.~.3XwXwX].[.].[.[.[.[.rXNXH.,.} &.9.9.9.*.&.&.&.&.+.<.R.5X[.[.<XXX+X@X[.[.&X*X'.'.XXXXXXXXXXXX'.XXoXoXoXoXoXoXoXoXoXoXoXoXoXoX+XXX1XZXgXA + - g g 1 g 1 1 g 1 g x IXIXIXIXIXIXIXIXIXIXIXIXIXIXIXIXIXIXIXIXIX",
"IXIXIXIXIXIXIXIXIXIXIXIXIXIXIXIXIXIXIXIXIXIXz 1 e 0 g g g g 0 y = # A gXSXtX_.XXXXXXoXoXoXoXXXXXoXoXoXoXoXoXoXoXoXoXoXoXoXoXoXXXXXXXXXXX<X<XXXoXoX1X3XY.<.X.6.6.6.6.6.6.6.6.6.6.6.6.6.6.6.6.6.6.+.3.:.:.%.o.k.R.7X1XoXoXXXXX*X*XXXoXoXoXoXoXoXoXoXoXoXoXoXoXoXoXoXoXoXoXoXoXoXoXoXoXoXoXoXoXoXoXoXoXoXoXoXoXoXoXoXoXoXoXoXoXoXoXoXoXoXoXoXoXoXoXoXoXoXoXoXoXoXXXXXXX'.'.XX<X1X3XH.<.| %.:.3.6.6.$.w.3.| o.h.T.6X<X<X].].oXoXXXXXXXXXoXoXoXoXoXXX'.XXXX'.XXoXrX6X:Xn.-.X.6.6.:.6.7.6.6.6.7.7.6.:.6.6.6.6.6.6.6.6.6.6.6.6.6.6.6.6.6.6.6.6.6.6.6.6.6.6.6.6.6.6.6.6.6.6.6.6.6.6.6.6.6.6.6.6.6.6.6.6.6.6.6.6.6.6.6.6.6.6.6.6.6.6.6.6.6.6.6.6.6.6.6.6.6.6.6.6.6.6.6.6.6.6.6.6.6.6.6.6.6.6.6.6.6.6.6.6.6.6.6.6.6.6.6.6.6.6.6.6.6.6.6.6.6.6.6.6.6.6.6.6.6.6.6.6.6.6.6.6.$.+.6.7.} ( x.(.CXZXZXiXiXiXiXsXtXuXSXNXF.,.^  .X.X.X.{ { [ [ } ^ 2.R.BXaXyXuX6XCXCXyX1X2X2XyXyXoXXXXXXXXXXX'.XXoXoXoXoXoXoXoXoXoXoXXXoXoXoXoXXX1XZXgXA + - g g 1 g g 1 g 1 g z IXIXIXIXIXIXIXIXIXIXIXIXIXIXIXIXIXIXIXIXIX",
"IXIXIXIXIXIXIXIXIXIXIXIXIXIXIXIXIXIXIXIXIXIXz 1 e g g g g g 0 d = # A gXSXtX_.XXXX'.].oXoXoXXXXXoXoXoXoXoXoXoXoXoXoXoXoXoXoXoXXXXXXXXXXX<X<XXXoXoX1X3XY.<.X.6.7.6.6.6.6.6.6.6.6.6.6.6.6.6.6.6.6.+.3.:.+.%.o.k.R.7X1XoXoXXXXX*X*XXXoXoXoXoXoXoXoXoXoXoXoXoXoXoXoXoXoXoXoXoXoXoXoXoXoXoXoXoXoXoXoXoXoXoXoXoXoXoXoXoXoXoXoXoXoXoXoXoXoXoXoXoXoXoXoXoXoXoXoXoXoXoXXXXXXX].'.oX<X1X3XH.<.( +.3.3.6.6.$.w.3.| o.h.T.6X<X<X].oXoXoXXXXXXXXXoXoXoXoXoXXXXXXXXXXXXXoXrX6X:Xn.;.X.6.6.:.6.7.6.6.6.7.7.6.+.6.6.6.6.6.6.6.6.6.6.6.6.6.6.6.6.6.6.6.6.6.6.6.6.6.6.6.6.6.6.6.6.6.6.6.6.6.6.6.6.6.6.6.6.6.6.6.6.6.6.6.6.6.6.6.6.6.6.6.6.6.6.6.6.6.6.6.6.6.6.6.6.6.6.6.6.6.6.6.6.6.6.6.6.6.6.6.6.6.6.6.6.6.6.6.6.6.6.6.6.6.6.6.6.6.6.6.6.6.6.6.6.6.6.6.6.6.6.6.6.6.6.6.6.6.6.6.6.%.O.$.0.o.-.x.^.BXZXZXZXZXZXZXZXyXZXJXmXF.,./ } } [ [ [ } } | ( ) 2.R.BXDXZXCX3XNXNXMXMX5X6XCXZXoXoXXX'.'.XXXX'.oXoXoXoXoXoXoXoXoXoXXXXXoXoXOXXX1XZXgXA + - g g 1 g g 1 g 1 g z IXIXIXIXIXIXIXIXIXIXIXIXIXIXIXIXIXIXIXIXIX",
"IXIXIXIXIXIXIXIXIXIXIXIXIXIXIXIXIXIXIXIXIXIXz 1 g g g g g g e g = # A gXSXtX_.XXXX'.].oXoXoXXXXXoXoXoXoXoXoXoXoXoXoXoXoXoXoXoXXXXXXXXXXX<X*XXXoXoX1X3XY.<.X.6.7.6.6.6.6.6.6.6.6.6.6.6.6.6.6.6.6.+.w.:.+.%.o.k.R.7X1XoXoXXXXX*X*XXXoXoXoXoXoXoXoXoXoXoXoXoXoXoXoXoXoXoXoXoXoXoXoXoXoXoXoXoXoXoXoXoXoXoXoXoXoXoXoXoXoXoXoXoXoXoXoXoXoXoXoXoXoXoXoXoXoXoXoXoXoXoXXXXXXX].].oX<X1X3XH.<.| +.3.3.6.6.6.w.3.| o.h.T.6X<X<XoXoXoXoXXXXXXXXXoXoXoXoXoXXX'.XXXXXXXXoXrX6X:Xn.;.X.6.6.:.6.7.6.6.6.7.7.6.+.6.6.6.6.6.6.6.6.6.6.6.6.6.6.6.6.6.6.6.6.6.6.6.6.6.6.6.6.6.6.6.6.6.6.6.6.6.6.6.6.6.6.6.6.6.6.6.6.6.6.6.6.6.6.6.6.6.6.6.6.6.6.6.6.6.6.6.6.6.6.6.6.6.6.6.6.6.6.6.6.6.6.6.6.6.6.6.6.6.6.6.6.6.6.6.6.6.6.6.6.6.6.6.6.6.6.6.6.6.6.6.6.6.6.6.6.6.6.6.6.6.6.6.6.6.6.6.6.&.+.6.0.+.o.j.F.~.(.(.(.(.!.!.!.!.(.(.R.F.g.g.j.j.j.y.y.5.g.g.g.f.z.H.~.(./.).T.(.(.~.Q.W.W.!..XXX<XoX'.'.oXoX'.oXoXoXoXoXoXoXoXoXoXoXXXoXXXOXXX1XZXgXA + - g g 1 g g 1 g 1 g z IXIXIXIXIXIXIXIXIXIXIXIXIXIXIXIXIXIXIXIXIX",
"IXIXIXIXIXIXIXIXIXIXIXIXIXIXIXIXIXIXIXIXIXIXz 1 g g g g g g g g = # A gXSXtX_.XXXX'.].oXoXoXXXXXoXoXoXoXoXoXoXoXoXoXoXoXoXoXoXXXXXOXXXXX<X<XXXoXoX1X3XY.<.o.6.7.6.6.6.6.6.6.6.6.6.6.6.6.6.6.6.6.:.3.:.+.%.o.k.R.7X1XoXoXXXXX*X*XXXoXoXoXoXoXoXoXoXoXoXoXoXoXoXoXoXoXoXoXoXoXoXoXoXoXoXoXoXoXoXoXoXoXoXoXoXoXoXoXoXoXoXoXoXoXoXoXoXoXoXoXoXoXoXoXoXoXoXoXXXXXXXXXXXXX].].XX<X1X3XH.<.| +.3.3.6.6.6.w.3.| o.h.T.6XXXoX].'.oXoXXXXXXXXXoXoXoXoXoX<X'.XXXX'.XXoXrX6X:Xn.;.X.6.6.:.6.6.6.6.6.7.7.6.+.6.6.6.6.6.6.6.6.6.6.6.6.6.6.6.6.6.6.6.6.6.6.6.6.6.6.6.6.6.6.6.6.6.6.6.6.6.6.6.6.6.6.6.6.6.6.6.6.6.6.6.6.6.6.6.6.6.6.6.6.6.6.6.6.6.6.6.6.6.6.6.6.6.6.6.6.6.6.6.6.6.6.6.6.6.6.6.6.6.6.6.6.6.6.6.6.6.6.6.6.6.6.6.6.6.6.6.6.6.6.6.6.6.6.6.6.6.6.6.6.6.6.6.6.6.6.6.6.&.+.7.7.$.O.3.u.l.g.j.j.j.l.g.l.g.g.g.v.F.R.!.).).).).E.W.W.E.E.^.L.D.l.j.g.g.g.z.k.l.g.g.g.z.M.,X1X<X'.'.oXoX'.oXoXoXoXoXoXoXoXoXoXoXoXXXXXOXXX1XZXgXC + - g e 1 g 1 1 g 1 g x IXIXIXIXIXIXIXIXIXIXIXIXIXIXIXIXIXIXIXIXIX",
"IXIXIXIXIXIXIXIXIXIXIXIXIXIXIXIXIXIXIXIXIXIXz 1 g g g g g g g g = # A gXSXtX_.XXXX'.].oXoXoXXXXXoXoXoXoXoXoXoXoXoXoXoXoXoXoXoXXXXXOXXXXX<X<XXXoXoX1X3XY.<.o.6.6.6.6.6.6.6.6.6.6.6.6.6.6.6.6.6.6.:.w.:.+.%.o.k.R.7X1XoXoXXXXX*X*XXXoXoXoXoXoXoXoXoXoXoXoXoXoXoXoXoXoXoXoXoXoXoXoXoXoXoXoXoXoXoXoXoXoXoXoXoXoXoXoXoXoXoXoXoXoXoXoXoXoXoXoXoXoXoXoXoXoXoXoXoXXXXXXXXXXX].].XX<X1X3XH.<.| +.3.3.6.6.6.w.3.| o.h.T.6XXXoX].'.oXoXXXXXXXXXoXoXoXoXoX<XXXXX'.'.XXoXrX6X:Xn.;.X.6.6.:.6.7.6.6.6.7.7.6.+.6.6.6.6.6.6.6.6.6.6.6.6.6.6.6.6.6.6.6.6.6.6.6.6.6.6.6.6.6.6.6.6.6.6.6.6.6.6.6.6.6.6.6.6.6.6.6.6.6.6.6.6.6.6.6.6.6.6.6.6.6.6.6.6.6.6.6.6.6.6.6.6.6.6.6.6.6.6.6.6.6.6.6.6.6.6.6.6.6.6.6.6.6.6.6.6.6.6.6.6.6.6.6.6.6.6.6.6.6.6.6.6.6.6.6.6.6.6.6.6.6.6.6.6.6.6.6.6.w.+.7.7.6.O. ...| | } } } | | ..| / / ,.F.mXZXZXZXZXMXMX5X5XNXNXBX$XZ.( / / ( | | | | | | ) ,.f.>X1X1X'.'.<X<X'.oXoXoXoXoXoXoXoXoXoXoXoXXXXXOXXX1XZXgXA + - g e 1 g 1 1 g 1 g x IXIXIXIXIXIXIXIXIXIXIXIXIXIXIXIXIXIXIXIXIX",
"IXIXIXIXIXIXIXIXIXIXIXIXIXIXIXIXIXIXIXIXIXIXz 1 g g g g 0 0 g p = # A gXSXtX_.XXoX].].oXoXoXXXXXoXoXoXoXoXoXoXoXoXoXoXoXoXoXoXXXXXOXOXXX<X<XXX+XoX1X3XY.<.X.6.6.6.6.6.6.6.6.6.6.6.6.6.6.6.6.6.6.+.w.:.+.%.o.k.R.7X1XoXoXXXXX*X*XXXoXoXoXoXoXoXoXoXoXoXoXoXoXoXoXoXoXoXoXoXoXoXoXoXoXoXoXoXoXoXoXoXoXoXoXoXoXoXoXoXoXoXoXoXoXoXoXoXoXoXoXoXoXoXoXoXoXoXoXoXoXoXXXXXXX].].XX<X1X3XH.<.| +.3.3.w.6.$.w.3.| o.h.T.6XXX<X].].].].XXXXXXXXoXoXoXoXXXXXXXXX'.'.'.oXrX6X:Xn.;.X.6.6.:.6.7.6.6.6.7.7.6.+.6.6.6.6.6.6.6.6.6.6.6.6.6.6.6.6.6.6.6.6.6.6.6.6.6.6.6.6.6.6.6.6.6.6.6.6.6.6.6.6.6.6.6.6.6.6.6.6.6.6.6.6.6.6.6.6.6.6.6.6.6.6.6.6.6.6.6.6.6.6.6.6.6.6.6.6.6.6.6.6.6.6.6.6.6.6.6.6.6.6.6.6.6.6.6.6.6.6.6.6.6.6.6.6.6.6.6.6.6.6.6.6.6.6.6.6.6.6.6.6.6.6.6.6.6.6.6.:.@.+.;.7.t.%.O. .| } } X.X.X.o.o.o./ ^ -.A.mXAXiXyXyX2X6X2X2XyXCXSX>Xx.) / X.} ..} } o.o.} ^ ;.k.>XyX4X'.'.<X<X[.oXoXoXoXoXoXoXoXoXoXoXoXXXXXOXXX<XZXgXC + = g e 1 g 1 1 g 1 g z IXIXIXIXIXIXIXIXIXIXIXIXIXIXIXIXIXIXIXIXIX",
"IXIXIXIXIXIXIXIXIXIXIXIXIXIXIXIXIXIXIXIXIXIXz 1 g g g e 0 0 0 y = * A gXSXtX'.XXoX].].oXoXoXXXXXoXoXoXoXoXoXoXoXoXoXoXoXoXoXoXXXXXXXXXXX<X<XXXoXoX1X3XK.<.X.6.6.6.6.6.6.6.6.6.6.6.6.6.6.6.6.6.6.+.w.:.+.%.o.k.R.7X1XoXoXXXXX*X*XXXoXoXoXoXoXoXoXoXoXoXoXoXoXoXoXoXoXoXoXoXoXoXoXoXoXoXoXoXoXoXoXoXoXoXoXoXoXoXoXoXoXoXoXoXoXoXoXoXoXoXoXoXoXoXoXoXoXoXoXoXoXoXXXXXXX].].oX<X1X3XH.<.} +.3.3.7.6.$.w.3.| o.h.T.6X<X<X].].].].XXXXXXXXoXoXoXoXXXXXXXXXXX'.'.oXrX6X:Xn.;.X.6.6.:.6.7.6.6.:.7.7.6.+.6.6.6.6.6.6.6.6.6.6.6.6.6.6.6.6.6.6.6.6.6.6.6.6.6.6.6.6.6.6.6.6.6.6.6.6.6.6.6.6.6.6.6.6.6.6.6.6.6.6.6.6.6.6.6.6.6.6.6.6.6.6.6.6.6.6.6.6.6.6.6.6.6.6.6.6.6.6.6.6.6.6.6.6.6.6.6.6.6.6.6.6.6.6.6.6.6.6.6.6.6.6.6.6.6.6.6.6.6.6.6.6.6.6.6.6.6.6.6.6.6.6.6.6.6.6.6.6.&.O.o.7.t.w.+.+.w.&.$.$.9.9.7.t.9.$.X.,.A.:XuX].].[.*X&X&X'.oXwXiX|.x.( *.d.&.&.&.%.6.t.+.} 9.B.>XyX4X'.'.1X<X[.oXoXoXoXoXoXoXoXoXoXoXoXXXXXXXXX<XZXgXC + - g g 1 g g 1 g 1 g z IXIXIXIXIXIXIXIXIXIXIXIXIXIXIXIXIXIXIXIXIX",
"IXIXIXIXIXIXIXIXIXIXIXIXIXIXIXIXIXIXIXIXIXIXz 1 g g g e 0 0 0 d = # A gXSXtX_.XXXX'.].oXoXoXXXXXoXoXoXoXoXoXoXoXoXoXoXoXoXoXoXXX<XXXXXXX*X*XXXoX].<X7XK.<.X.$.6.6.6.6.6.6.6.6.6.6.6.6.6.6.6.6.6.+.3.:.+.%.o.k.R.5X1XoXXXXXXX*X'.XXoXoXoXoXoXoXoXoXoXoXoXoXoXoXoXoXoXoXoXoXoXoXoXoXoXoXoXoXoXoXoXoXoXoXoXoXoXoXoXoXoXoXoXoXoXoXoXoXoXoXoXoXoXoXoXoXoXoXoXoXoXoXXXXXXXXX'.'.<X1X3XH.<.} +.:.:.7.6.6.w.3. .o.y.Y.6X<X<X'.'.oXoXXXXXoXoXoXoXoXoXoXXXXXXXXX'.'.oXrX6X:Xn.;.X.6.6.6.6.6.6.:.:.7.7.:.+.6.6.6.6.6.6.6.6.6.6.6.6.6.6.6.6.6.6.6.6.6.6.6.6.6.6.6.6.6.6.6.6.6.6.6.6.6.6.6.6.6.6.6.6.6.6.6.6.6.6.6.6.6.6.6.6.6.6.6.6.6.6.6.6.6.6.6.6.6.6.6.6.6.6.6.6.6.6.6.6.6.6.6.6.6.6.6.6.6.6.6.6.6.6.6.6.6.6.6.6.6.6.6.6.6.6.6.6.6.6.6.6.6.6.6.6.6.6.6.6.6.6.6.6.6.6.6.6.$.$.6.6.6.6.6.$.$.$.$.6.6.6.7.6.w.%.X.:.A.&XtX[.[.[.*X*X<XXXoXwXiX.Xx.o.%.*.$.$.$.6.:.6.w.} +.x.:XyX1X'.oXXX'.<XXXXXXXoXoXoXoXoXXXXX'.'.'.XXXX'.2XZXdXC + - g p 1 g 1 1 g 1 g z IXIXIXIXIXIXIXIXIXIXIXIXIXIXIXIXIXIXIXIXIX",
"IXIXIXIXIXIXIXIXIXIXIXIXIXIXIXIXIXIXIXIXIXIXz 1 g g g g 0 0 e d = # A gXSXtX_.XXXX'.oXoXoXoXXXXXoXoXoXoXoXoXoXoXoXoXoXoXoXoXoXXXXXXXXX'.*X*XXXXX].1X7XK.<.X.$.6.6.6.6.6.6.6.6.6.6.6.6.6.6.6.6.6.+.w.:.:.%.o.k.R.5X1XoXXXXX<X*X'.XXoXoXoXoXoXoXoXoXoXoXoXoXoXoXoXoXoXoXoXoXoXoXoXoXoXoXoXoXoXoXoXoXoXoXoXoXoXoXoXoXoXoXoXoXoXoXoXoXoXoXoXoXoXoXoXoXoXoXoXoXoXoXXXXXXXXX*X'.<X1X3XH.<.} +.:.:.9.9.6.6.3. .o.y.Y.6X<X<X'.'.oXoXXXXXoXoXoXoXoXoXoXXXXXXXXX'.'.oXrX6X:Xn.;.X.6.6.:.6.6.6.:.:.7.:.:.+.6.6.6.6.6.6.6.6.6.6.6.6.6.6.6.6.6.6.6.6.6.6.6.6.6.6.6.6.6.6.6.6.6.6.6.6.6.6.6.6.6.6.6.6.6.6.6.6.6.6.6.6.6.6.6.6.6.6.6.6.6.6.6.6.6.6.6.6.6.6.6.6.6.6.6.6.6.6.6.6.6.6.6.6.6.6.6.6.6.6.6.6.6.6.6.6.6.6.6.6.6.6.6.6.6.6.6.6.6.6.6.6.6.6.6.6.6.6.6.6.6.6.6.6.6.6.6.6.$.$.6.6.7.:.6.$.&.&.6.6.6.6.6.6.&.O.X.>.A.,XiX].[.[.[.'.XXXXoX].uX/.x.o.%.*.+.6.6.6.:.7.3.} +.x.:XyX1X'.oXXX'.<X<X<XXXXXoXoXoXoXXXXX'.'.'.'.'.'.2XZXI.C + : h p 1 g 1 1 g 1 g z IXIXIXIXIXIXIXIXIXIXIXIXIXIXIXIXIXIXIXIXIX",
"IXIXIXIXIXIXIXIXIXIXIXIXIXIXIXIXIXIXIXIXIXIXz 1 g g g g g g g g = # A gXSXtX_.XXXX'.oXoXoXoXXXXXoXoXoXoXoXoXoXoXoXoXoXoXoXoXoXXXXXXXoX'.*X*XXXXX].1X7XK.<.X.$.6.6.6.6.6.6.6.6.6.6.6.6.6.6.6.6.6.+.w.:.+.%.o.k.R.5X<XoXXXXXXX*X'.XXoXoXoXoXoXoXoXoXoXoXoXoXoXoXoXoXoXoXoXoXoXoXoXoXoXoXoXoXoXoXoXoXoXoXoXoXoXoXoXoXoXoXoXoXoXoXoXoXoXoXoXoXoXoXoXoXoXoXoXoXoXoXXXXXXXXX*XXXoX1X3XH.<.} +.:.:.9.9.6.6.3. .o.y.Y.6X<X<X].].oXoXXXXXoXXXoXoXoXoXoXXXXXXX'.'.'.oXrX6X:Xn.;.X.6.6.:.6.6.6.:.:.7.7.6.+.6.6.6.6.6.6.6.6.6.6.6.6.6.6.6.6.6.6.6.6.6.6.6.6.6.6.6.6.6.6.6.6.6.6.6.6.6.6.6.6.6.6.6.6.6.6.6.6.6.6.6.6.6.6.6.6.6.6.6.6.6.6.6.6.6.6.6.6.6.6.6.6.6.6.6.6.6.6.6.6.6.6.6.6.6.6.6.6.6.6.6.6.6.6.6.6.6.6.6.6.6.6.6.6.6.6.6.6.6.6.6.6.6.6.6.6.6.6.6.6.6.6.6.6.6.6.6.6.$.$.:.:.:.:.:.+.&.&.$.$.6.:.:.:.3.+.X.>.A.>XuX].XXXXXXXXXXXXoX].2XQ.x.-.o.6.:.:.7.7.:.:.3.| ;.x.>XyX1X'.oXoX'.<X<X<XXXXXoXoXoXoXXXXX'.'.'.'.XX'.2XZXdXC + - h p 1 g 1 1 g 1 g z IXIXIXIXIXIXIXIXIXIXIXIXIXIXIXIXIXIXIXIXIX",
"IXIXIXIXIXIXIXIXIXIXIXIXIXIXIXIXIXIXIXIXIXIXz 1 g g g g g g g g = # A gXSXtX_.XXXXXXoXoXoXoXXXXXoXoXoXoXoXoXoXoXoXoXoXoXoXoXoXXXXXXXoX'.*X*XXXoXoX1X7XK.<.X.$.6.6.6.6.6.6.6.6.6.6.6.6.6.6.6.6.6.+.w.:.+.%.o.k.R.5X<XoXXXXXXX*X'.XXoXoXoXoXoXoXoXoXoXoXoXoXoXoXoXoXoXoXoXoXoXoXoXoXoXoXoXoXoXoXoXoXoXoXoXoXoXoXoXoXoXoXoXoXoXoXoXoXoXoXoXoXoXoXoXoXoXoXoXoXoXoXXXXXXXXX*XoXoX1X3XH.<.} +.:.>.9.9.6.6.3. .o.y.Y.6X<X<X].].oXoXXXXXoXXXoXoXoXoXoXXXXX'.'.'.'.oXrX6X:Xn.;.X.6.6.:.6.7.6.:.:.7.7.6.:.6.6.6.6.6.6.6.6.6.6.6.6.6.6.6.6.6.6.6.6.6.6.6.6.6.6.6.6.6.6.6.6.6.6.6.6.6.6.6.6.6.6.6.6.6.6.6.6.6.6.6.6.6.6.6.6.6.6.6.6.6.6.6.6.6.6.6.6.6.6.6.6.6.6.6.6.6.6.6.6.6.6.6.6.6.6.6.6.6.6.6.6.6.6.6.6.6.6.6.6.6.6.6.6.6.6.6.6.6.6.6.6.6.6.6.6.6.6.6.6.6.6.6.6.6.6.6.6.+.+.+.:.:.:.:.:.+.+.+.+.+.+.:.:.:.+.X.,.M.>XZX+X+XOXOXOXOX3X<X<X2XQ.x.-.o.7.:.:.7.7.:.:.3.} ;.x.>XyX1X'.<XXX'.<X<X<XXXXXoXoXoXoXXXXX'.'.'.'.XX'.tXZXdXC . - h p 1 g 1 1 g 1 g z IXIXIXIXIXIXIXIXIXIXIXIXIXIXIXIXIXIXIXIXIX",
"IXIXIXIXIXIXIXIXIXIXIXIXIXIXIXIXIXIXIXIXIXIXz 1 g g g g g g p p = # A gXSXtX_.OXXX'.].oXoXoXXXXXoXoXoXoXoXoXoXoXoXoXoXoXoXoXoXXXXXXXoX'.*X*XXXoXoX1X7XK.<.X.$.6.6.6.6.6.6.6.6.6.6.6.6.6.6.6.6.6.:.3.:.+.%.o.k.R.5X<XoXoXoXoX*X'.XXoXoXoXoXoXoXoXoXoXoXoXoXoXoXoXoXoXoXoXoXoXoXoXoXoXoXoXoXoXoXoXoXoXoXoXoXoXoXoXoXoXoXoXoXoXoXoXoXoXoXoXoXoXoXoXoXoXoXoXoXoXoXXXXXXX*X*XoXoX1X3XH.<.} +.:.:.7.9.6.6.3. .o.y.Y.6X<XoX].].oXoXXXXXXXXXoXoXoXoXoXXXXX'.'.'.'.oXrX6X:Xn.;.X.6.6.:.6.7.6.:.:.7.7.6.:.6.6.6.6.6.6.6.6.6.6.6.6.6.6.6.6.6.6.6.6.6.6.6.6.6.6.6.6.6.6.6.6.6.6.6.6.6.6.6.6.6.6.6.6.6.6.6.6.6.6.6.6.6.6.6.6.6.6.6.6.6.6.6.6.6.6.6.6.6.6.6.6.6.6.6.6.6.6.6.6.6.6.6.6.6.6.6.6.6.6.6.6.6.6.6.6.6.6.6.6.6.6.6.6.6.6.6.6.6.6.6.6.6.6.6.6.6.6.6.6.6.6.6.6.6.6.6.6.:.+.+.+.:.+.:.:.6.6.$.&.$.6.6.:.+.+.} ,.A.>XZXwX+XXXoXoX+XoX<X=X2X/.v.-...:.:.:.6.6.$.&.w.| ;.B.>XyX1X'.<XXX'.<X<X<XXXXXoXoXoXoXXXXX'.'.'.'.XX'.2XZXgXC . - a p 1 g 1 1 g 1 g z IXIXIXIXIXIXIXIXIXIXIXIXIXIXIXIXIXIXIXIXIX",
"IXIXIXIXIXIXIXIXIXIXIXIXIXIXIXIXIXIXIXIXIXIXz 1 g g g g g g y p = # A gXSXtX_.XXXX].].oXoXoXXXXXoXoXoXoXoXoXoXoXoXoXoXoXoXoXoXXXXXXXoX'.*X*XXXoXoX1X7XK.<.X.$.6.6.6.6.6.6.6.6.6.6.6.6.6.6.6.6.6.:.3.:.+.%.o.k.R.5X<XoXoXXXoX*X'.XXoXoXoXoXoXoXoXoXoXoXoXoXoXoXoXoXoXoXoXoXoXoXoXoXoXoXoXoXoXoXoXoXoXoXoXoXoXoXoXoXoXoXoXoXoXoXoXoXoXoXoXoXoXoXoXoXoXoXoXoXoXoXXXXXXX*X*XoX+X1X3XH.<.} +.:.:.7.9.6.6.3. .o.y.Y.6X<XoX].].oXoXXXXXXXXXoXoXoXoXoXXXXXXXXX'.XXoXrX6X:Xn.;.X.6.6.:.6.7.6.:.:.7.7.6.:.6.6.6.6.6.6.6.6.6.6.6.6.6.6.6.6.6.6.6.6.6.6.6.6.6.6.6.6.6.6.6.6.6.6.6.6.6.6.6.6.6.6.6.6.6.6.6.6.6.6.6.6.6.6.6.6.6.6.6.6.6.6.6.6.6.6.6.6.6.6.6.6.6.6.6.6.6.6.6.6.6.6.6.6.6.6.6.6.6.6.6.6.6.6.6.6.6.6.6.6.6.6.6.6.6.6.6.6.6.6.6.6.6.6.6.6.6.6.6.6.6.6.6.6.6.6.6.6.6.$.$.$.$.$.6.6.7.w.w.w.w.w.w.w.+.O. .,.A.mXZXwXXXXXXX].oXoX'.*XuX.Xv.-...+.+.6.7.w.$.t.t.o.0.x.>XuX1X'.<XXX'.<X<X<XXXXXoXoXoXoXXXXX'.'.'.'.XX'.tXZXgXC + - p p 1 g 1 1 g 1 g z IXIXIXIXIXIXIXIXIXIXIXIXIXIXIXIXIXIXIXIXIX",
"IXIXIXIXIXIXIXIXIXIXIXIXIXIXIXIXIXIXIXIXIXIXz 1 g 0 g g g e 1 y = # A gXSXtX_.XXXX'.].oXoXoXXXXXoXoXoXoXoXoXoXoXoXoXoXoXoXoXoXXXXXXXoX'.*X*XXXoX].1X7XR.<.X.$.6.6.6.6.6.6.6.6.6.6.6.6.6.6.6.6.6.+.3.:.+.%.o.k.R.5X1XoXoXXXXX'.'.XXoXoXoXoXoXoXoXoXoXoXoXoXoXoXoXoXoXoXoXoXoXoXoXoXoXoXoXoXoXoXoXoXoXoXoXoXoXoXoXoXoXoXoXoXoXoXoXoXoXoXoXoXoXoXoXoXoXoXoXoXoXoXXXXXXX*X*XoXoX1X3XH.<.} %.:.:.7.9.6.6.3. .X.y.Y.6X<XoX'.'.oXoXXXXXXXXXoXoXoXoXoXXXXXXXXXXXXXoXrX6X:Xn.;.X.6.6.:.6.6.9.:.:.7.7.:.+.6.6.6.6.6.6.6.6.6.6.6.6.6.6.6.6.6.6.6.6.6.6.6.6.6.6.6.6.6.6.6.6.6.6.6.6.6.6.6.6.6.6.6.6.6.6.6.6.6.6.6.6.6.6.6.6.6.6.6.6.6.6.6.6.6.6.6.6.6.6.6.6.6.6.6.6.6.6.6.6.6.6.6.6.6.6.6.6.6.6.6.6.6.6.6.6.6.6.6.6.6.6.6.6.6.6.6.6.6.6.6.6.6.6.6.6.6.6.6.6.6.6.6.6.6.6.6.6.6.6.6.$.%.$.6.7.7.6.6.$.6.6.$.$.%.O. .,.A.mXZXwX].].].0X0XoX<X<XCX.Xv.-...#.%.%.$.$.%.&.&.} ;.x.:XuX1X'.<XXX'.<XXXXXXXXXoXoXoXoXXXXX'.'.'.'.XX'.2XZXgXC + - p p 1 g 1 1 g 1 g z IXIXIXIXIXIXIXIXIXIXIXIXIXIXIXIXIXIXIXIXIX",
"IXIXIXIXIXIXIXIXIXIXIXIXIXIXIXIXIXIXIXIXIXIXz 1 0 0 g g g 0 0 d = # A gXSXtX'.XXXX'.].oXoXoXXXXXoXoXoXoXoXoXoXoXoXoXoXoXoXoXoXXXXXXXoX'.*X*XXXoX].1X7XK.<.X.$.6.6.6.6.6.6.6.6.6.6.6.6.6.6.6.6.6.+.w.:.+.%.o.k.R.5X1XoXoXXXXX'.'.XXoXoXoXoXoXoXoXoXoXoXoXoXoXoXoXoXoXoXoXoXoXoXoXoXoXoXoXoXoXoXoXoXoXoXoXoXoXoXoXoXoXoXoXoXoXoXoXoXoXoXoXoXoXoXoXoXoXoXoXoXoXoXXXXXXX*X*XoXoX1X3XH.<.} %.:.:.7.6.6.6.3. .o.y.Y.6X<XoX'.'.oXoXXXXXXXXXoXoXoXoXoXXXXXXXXXXXXXoXrX6X:Xn.;.X.6.6.:.6.6.9.:.:.7.:.:.+.6.6.6.6.6.6.6.6.6.6.6.6.6.6.6.6.6.6.6.6.6.6.6.6.6.6.6.6.6.6.6.6.6.6.6.6.6.6.6.6.6.6.6.6.6.6.6.6.6.6.6.6.6.6.6.6.6.6.6.6.6.6.6.6.6.6.6.6.6.6.6.6.6.6.6.6.6.6.6.6.6.6.6.6.6.6.6.6.6.6.6.6.6.6.6.6.6.6.6.6.6.6.6.6.6.6.6.6.6.6.6.6.6.6.6.6.6.6.6.6.6.6.6.6.6.6.6.6.6.6.6.$.%.%.7.7.;.;.o.O.o.o.O.O.$.+.} ,.A.mXBX<X1X2XtXtXrXyX6XMXNX.Xv.,...#.+.$.o.o.o.+.+./ | k.:XuX1X'.<XXX'.<XXXXXXXXXoXoXoXoXXXXX'.'.'.'.XX'.2XZXI.C + - p p 1 g 1 1 g 1 g z IXIXIXIXIXIXIXIXIXIXIXIXIXIXIXIXIXIXIXIXIX",
"IXIXIXIXIXIXIXIXIXIXIXIXIXIXIXIXIXIXIXIXIXIXx 1 0 0 g g g p 1 y = * A gXSX-X_.OXXX'.].oXoXoXXXXXoXoXoXoXoXoXoXoXoXoXoXoXoXoXoXXXXXXXoX'.*X*XXXoXoX1X7XK.<.X.$.6.6.6.6.6.6.6.6.6.6.6.6.6.6.6.6.6.+.3.:.:.$.o.k.^.5X1XoXXXXXXX*X'.XXoXoXoXoXoXoXoXoXoXoXoXoXoXoXoXoXoXoXoXoXoXoXoXoXoXoXoXoXoXoXoXoXoXoXoXoXoXoXoXoXoXoXoXoXoXoXoXoXoXoXoXoXoXoXoXoXoXoXoXoXoXoXXXXX'.'.*XXXoX1X3XH.<.} %.:.>.7.9.6.6.3. .o.y.E.6X<X<X'.'.oXoXXXXXXXXXoXoXoXoXoXXXXXXXXX'.XXoXrX6X:Xn.;.X.6.6.:.6.7.6.:.:.7.7.:.+.6.6.6.6.6.6.6.6.6.6.6.6.6.6.6.6.6.6.6.6.6.6.6.6.6.6.6.6.6.6.6.6.6.6.6.6.6.6.6.6.6.6.6.6.6.6.6.6.6.6.6.6.6.6.6.6.6.6.6.6.6.6.6.6.6.6.6.6.6.6.6.6.6.6.6.6.6.6.6.6.6.6.6.6.6.6.6.6.6.6.6.6.6.6.6.6.6.6.6.6.6.6.6.6.6.6.6.6.6.6.6.6.6.6.6.6.6.6.6.6.6.6.6.6.6.6.6.6.7.o.+.t.&. .| <.,.,.-...| | | | 7.-.( 2.F.VXBX>X3X3X7X<X+X+X3XmXBX(.c.,./ ..:.;.` ,.;.-.| -.,.f.,XXXXXXXXXXXXXXXXXXXoXoXoXoXoXoXXX'.'.'.'.'.XX'.=XZXgXC . , h p 1 g 1 1 g 1 g x IXIXIXIXIXIXIXIXIXIXIXIXIXIXIXIXIXIXIXIXIX",
"IXIXIXIXIXIXIXIXIXIXIXIXIXIXIXIXIXIXIXIXIXIXx 1 0 0 g g g g 1 y = * A gXSX2X_.OXXXXXoXoXoXoXXXXXoXoXoXoXoXoXoXoXoXoXoXoXoXoXoXXXXXXXoX'.*X*XXXoXoX1X7XK.<.X.$.6.6.6.6.6.6.6.6.6.6.6.6.6.6.6.6.6.+.w.:.:.$.o.k.^.5X<XoXXXXXXX*X'.XXoXoXoXoXoXoXoXoXoXoXoXoXoXoXoXoXoXoXoXoXoXoXoXoXoXoXoXoXoXoXoXoXoXoXoXoXoXoXoXoXoXoXoXoXoXoXoXoXoXoXoXoXoXoXoXoXoXoXoXoXoXoXXXXX'.'.*XXX<X1X3XH.<.} %.:.>.7.6.6.6.3. .o.y.E.6X<X<X'.'.oXoXXXXXXXXXoXoXoXoXoXXXXXXXXX'.XXoXrX6X:Xn.;.X.6.6.:.6.7.6.:.:.7.7.6.+.6.6.6.6.6.6.6.6.6.6.6.6.6.6.6.6.6.6.6.6.6.6.6.6.6.6.6.6.6.6.6.6.6.6.6.6.6.6.6.6.6.6.6.6.6.6.6.6.6.6.6.6.6.6.6.6.6.6.6.6.6.6.6.6.6.6.6.6.6.6.6.6.6.6.6.6.6.6.6.6.6.6.6.6.6.6.6.6.6.6.6.6.6.6.6.6.6.6.6.6.6.6.6.6.6.6.6.6.6.6.6.6.6.6.6.6.6.6.6.6.6.6.6.6.6.6.6.6.6.o.+.w.@.} <.x.F.A.C.C.C.C.C.x.D.c.v.c.A.H.K.J.J.S.S.J.T.T.J.J.L.H.A.v.Z.D.D.c.n.n.C.C.v.c.A.S.,XXXXXXXXXXXXXXXXXXXoXoXoXoXoXoXXX'.'.'.'.XXXX'.=XZXgXC . , h p 1 g 1 1 g 1 g x IXIXIXIXIXIXIXIXIXIXIXIXIXIXIXIXIXIXIXIXIX",
"IXIXIXIXIXIXIXIXIXIXIXIXIXIXIXIXIXIXIXIXIXIXx 1 e g g g g g 1 d = * A hXSX-X_.OXXX'.].oXoXoXXXXXoXoXoXoXoXoXoXoXoXoXoXoXoXoXoXXXXXXXoX'.*X*XXXoXoX1X7XK.<.X.$.6.6.6.6.6.6.6.6.6.6.6.6.6.6.6.6.6.+.w.:.:.$.o.k.^.5X1XoXXXXXXX*X'.XXoXoXoXoXoXoXoXoXoXoXoXoXoXoXoXoXoXoXoXoXoXoXoXoXoXoXoXoXoXoXoXoXoXoXoXoXoXoXoXoXoXoXoXoXoXoXoXoXoXoXoXoXoXoXoXoXoXoXoXoXoXoXXX'.'.'.*XXXoX1X3XH.<.} %.:.:.w.6.6.7.3. .o.y.E.6X<X<X'.'.oXoXXXXXXXXXoXoXoXoXoXXX'.'.XX'.'.oXrX6X:Xn.;.X.6.6.:.6.0.6.:.:.7.7.6.:.6.6.6.6.6.6.6.6.6.6.6.6.6.6.6.6.6.6.6.6.6.6.6.6.6.6.6.6.6.6.6.6.6.6.6.6.6.6.6.6.6.6.6.6.6.6.6.6.6.6.6.6.6.6.6.6.6.6.6.6.6.6.6.6.6.6.6.6.6.6.6.6.6.6.6.6.6.6.6.6.6.6.6.6.6.6.6.6.6.6.6.6.6.6.6.6.6.6.6.6.6.6.6.6.6.6.6.6.6.6.6.6.6.6.6.6.6.6.6.6.6.6.6.6.6.6.6.:.3.....+. .| k.R.lX X$X X.X.X.X.X/..X.X(.A.f.2.u.4.4.4.4.4.5.4.<.2.z.J.~.$X:X.X}..X.X X/.Q./..X|.<X<X<X<X<X<XXXXXXXXXoXoXoXoXoXoXXX'.'.'.'.XXXX'.=XZXgXC . , h p 1 g 1 1 g 1 g x IXIXIXIXIXIXIXIXIXIXIXIXIXIXIXIXIXIXIXIXIX",
"IXIXIXIXIXIXIXIXIXIXIXIXIXIXIXIXIXIXIXIXIXIXx 1 g g g g g g e g = * A hXSX-X_.OXXX'.].oXoXoXXXXXoXoXoXoXoXoXoXoXoXoXoXoXoXoXoXXXXXXXoX'.*X*XXXoXoX1X7XK.<.X.$.6.6.6.6.6.6.6.6.6.6.6.6.6.6.6.6.6.+.w.:.:.$.o.k.^.5X1XoXXXXXXX*X'.XXoXoXoXoXoXoXoXoXoXoXoXoXoXoXoXoXoXoXoXoXoXoXoXoXoXoXoXoXoXoXoXoXoXoXoXoXoXoXoXoXoXoXoXoXoXoXoXoXoXoXoXoXoXoXoXoXoXoXoXoXoXoXXX'.'.'.*XoXoX1X3XH.<.} %.:.:.w.6.6.7.3. .o.y.E.6X<X<X'.'.oXoXXXXXXXXXoXoXoXoXoXXX'.'.XX'.'.oXrX6X:Xn.;.X.6.6.:.6.0.9.:.:.7.7.6.+.6.6.6.6.6.6.6.6.6.6.6.6.6.6.6.6.6.6.6.6.6.6.6.6.6.6.6.6.6.6.6.6.6.6.6.6.6.6.6.6.6.6.6.6.6.6.6.6.6.6.6.6.6.6.6.6.6.6.6.6.6.6.6.6.6.6.6.6.6.6.6.6.6.6.6.6.6.6.6.6.6.6.6.6.6.6.6.6.6.6.6.6.6.6.6.6.6.6.6.6.6.6.6.6.6.6.6.6.6.6.6.6.6.6.6.6.6.6.6.6.6.6.6.6.6.6.6.:.3....... .| c.(.BXCXMX6XyXZXZXCX4XyXAXMXF.` ^ O.X.X.{ {  . . .} ) f.Y.mXDXZXZXZXZXCXuX4X4X4XrXyXXX<X<X<X<X<XXXXXXXXXoXoXoXoXoXoXXX'.'.'.'.XXXXXX1XZXgXC . , h p 1 g 1 1 g 1 g x IXIXIXIXIXIXIXIXIXIXIXIXIXIXIXIXIXIXIXIXIX",
"IXIXIXIXIXIXIXIXIXIXIXIXIXIXIXIXIXIXIXIXIXIXx 1 g g g g g g g g = * A gXSX-X_.OXXX'.].oXoXoXXXXXoXoXoXoXoXoXoXoXoXoXoXoXoXoXoXXXXXXXoXXX*X*XXXoXoX1X7XK.<.X.$.6.6.6.6.6.6.6.6.6.6.6.6.6.6.6.6.6.+.w.:.:.$.o.k.^.5X1XoXoXXXXX*X'.XXoXoXoXoXoXoXoXoXoXoXoXoXoXoXoXoXoXoXoXoXoXoXoXoXoXoXoXoXoXoXoXoXoXoXoXoXoXoXoXoXoXoXoXoXoXoXoXoXoXoXoXoXoXoXoXoXoXoXoXoXoXoXXX'.'.'.*XoXoXrX3XH.<.} %.:.:.7.6.6.7.@. .o.y.E.6X<X<X].].oXoXXXXXXXXXoXoXoXoXoXXX'.XXXX'.'.oXrX6X:Xn.;.X.6.6.:.6.6.6.:.:.7.7.6.:.6.6.6.6.6.6.6.6.6.6.6.6.6.6.6.6.6.6.6.6.6.6.6.6.6.6.6.6.6.6.6.6.6.6.6.6.6.6.6.6.6.6.6.6.6.6.6.6.6.6.6.6.6.6.6.6.6.6.6.6.6.6.6.6.6.6.6.6.6.6.6.6.6.6.6.6.6.6.6.6.6.6.6.6.6.6.6.6.6.6.6.6.6.6.6.6.6.6.6.6.6.6.6.6.6.6.6.6.6.6.6.6.6.6.6.6.6.6.6.6.6.6.6.6.6.6.6.:.:.:.3.@. .| v.(.NX6X7X7X1X1X7X7XoX1XiX6XJ.` ^ *.%.%.%.+.+.o.0.;.^ 5.Y.7XuXrXeXyXrX1X1X<XoXoX].oXXX<X<X<X<X<XXXXXXXXXoXoXoXoXoXoXXX'.[.[.'.XXXXXX<XZXgXC . , h p 1 g 1 1 g 1 g x IXIXIXIXIXIXIXIXIXIXIXIXIXIXIXIXIXIXIXIXIX",
"IXIXIXIXIXIXIXIXIXIXIXIXIXIXIXIXIXIXIXIXIXIXx 1 g g g g g g g g = * A hXSX-X_.OXXX'.].oXoXoXXXXXoXoXoXoXoXoXoXoXoXoXoXoXoXoXoXXXXXXXoX'.*X*XXXoXoX1X7XK.<.X.$.6.6.6.6.6.6.6.6.6.6.6.6.6.6.6.6.6.+.w.:.:.$.o.k.^.5X1XoXoXXXXX*X'.XXoXoXoXoXoXoXoXoXoXoXoXoXoXoXoXoXoXoXoXoXoXoXoXoXoXoXoXoXoXoXoXoXoXoXoXoXoXoXoXoXoXoXoXoXoXoXoXoXoXoXoXoXoXoXoXoXoXoXoXoXoXoXXX'.'.'.*XoXoXrX3XH.<.X.%.:.:.w.6.6.7.@. .o.y.E.6X<X<X].].oXoXXXXXXXXXoXoXoXoXoXXXXXXX<X'.'.oXrX6X:Xn.;.X.6.6.:.6.6.6.:.:.7.7.6.:.6.6.6.6.6.6.6.6.6.6.6.6.6.6.6.6.6.6.6.6.6.6.6.6.6.6.6.6.6.6.6.6.6.6.6.6.6.6.6.6.6.6.6.6.6.6.6.6.6.6.6.6.6.6.6.6.6.6.6.6.6.6.6.6.6.6.6.6.6.6.6.6.6.6.6.6.6.6.6.6.6.6.6.6.6.6.6.6.6.6.6.6.6.6.6.6.6.6.6.6.6.6.6.6.6.6.6.6.6.6.6.6.6.6.6.6.6.6.6.6.6.6.6.6.6.6.6.:.:.:.w.w. .} z.~.3X<X&X&X*X'.'._.`.[.0X<XJ.>.X.*.9.0.6.6.6.6.0.0.} u.R.,X<X[.'.oX'.'.'._.'.'.'.[.<X<X<X<X<X<XXXXXXXXXoXoXoXoXoXoXXX'.[.'.'.XX+XXX<XZXgXC . , h p 1 g 1 1 g 1 g x IXIXIXIXIXIXIXIXIXIXIXIXIXIXIXIXIXIXIXIXIX",
"IXIXIXIXIXIXIXIXIXIXIXIXIXIXIXIXIXIXIXIXIXIXx 1 g g g g 0 0 g p = * A gXSX-X_.OXoX].].oXoXoXXXXXoXoXoXoXoXoXoXoXoXoXoXoXoXoXoXXXXX<XoX'.*X*XXXoXoX1X7XK.<.X.$.6.6.6.6.6.6.6.6.6.6.6.6.6.6.6.6.6.+.w.:.:.$.o.k.^.5X<XoXXXXXXX*X'.XXoXoXoXoXoXoXoXoXoXoXoXoXoXoXoXoXoXoXoXoXoXoXoXoXoXoXoXoXoXoXoXoXoXoXoXoXoXoXoXoXoXoXoXoXoXoXoXoXoXoXoXoXoXoXoXoXoXoXoXoXoXoXXX'.'.'.*XoXoXrX3XH.<.X.%.:.:.7.6.6.6.3. .o.y.E.6X<X<X].].oXoXXXXXXXXXoXoXoXoXoXXXXXXXXX'.'.XXrX6X:Xn.;.X.6.6.:.6.6.6.:.:.7.7.6.:.6.6.6.6.6.6.6.6.6.6.6.6.6.6.6.6.6.6.6.6.6.6.6.6.6.6.6.6.6.6.6.6.6.6.6.6.6.6.6.6.6.6.6.6.6.6.6.6.6.6.6.6.6.6.6.6.6.6.6.6.6.6.6.6.6.6.6.6.6.6.6.6.6.6.6.6.6.6.6.6.6.6.6.6.6.6.6.6.6.6.6.6.6.6.6.6.6.6.6.6.6.6.6.6.6.6.6.6.6.6.6.6.6.6.6.6.6.6.6.6.6.6.6.6.6.6.6.6.6.:.7.w.O.| z.).vXoX*X'.].].'.'._.'.0X'.H.<.X.%.:.>.:.:.@.@.:.6.X.j.Y.<X<X[._.<X'._._._.XX+XXX'.<X<X<X<X<X<XXXXXXXXXoXoXoXoXoXoXXX'.'.'.'.XX+XXX<XZXgXC . , h p 1 g 1 1 g 1 g x IXIXIXIXIXIXIXIXIXIXIXIXIXIXIXIXIXIXIXIXIX",
"IXIXIXIXIXIXIXIXIXIXIXIXIXIXIXIXIXIXIXIXIXIXx 1 g g g e 0 0 0 y = * A gXSX-X_.OXoX].].oXoXoXXXXXoXoXoXoXoXoXoXoXoXoXoXoXoXoXoXXXXXXXoXXX*X*XXXoXoX1X7XK.<.X.$.6.6.6.6.6.6.6.6.6.6.6.6.6.6.6.6.6.+.w.:.:.$.o.k.^.5X<XoXXXXXXX*X'.XXoXoXoXoXoXoXoXoXoXoXoXoXoXoXoXoXoXoXoXoXoXoXoXoXoXoXoXoXoXoXoXoXoXoXoXoXoXoXoXoXoXoXoXoXoXoXoXoXoXoXoXoXoXoXoXoXoXoXoXoXoXoXXXXXXX'.'.oXoXrX3XH.<.} %.:.:.7.6.:.w.3.| o.y.E.6X<XoX].].oXoXXXXXXXXXoXoXoXoXoXXXXXXXXX'.'.XXrX6X:Xn.-.X.6.6.:.6.6.6.:.:.7.7.6.:.6.6.6.6.6.6.6.6.6.6.6.6.6.6.6.6.6.6.6.6.6.6.6.6.6.6.6.6.6.6.6.6.6.6.6.6.6.6.6.6.6.6.6.6.6.6.6.6.6.6.6.6.6.6.6.6.6.6.6.6.6.6.6.6.6.6.6.6.6.6.6.6.6.6.6.6.6.6.6.6.6.6.6.6.6.6.6.6.6.6.6.6.6.6.6.6.6.6.6.6.6.6.6.6.6.6.6.6.6.6.6.6.6.6.6.6.6.6.6.6.6.6.6.6.6.6.6.6.7.6.6.*.O.| z.).vX+X<X*X].].oXXX|.2XiX<XF.>.[ [ :.,.:.+.#.#.+.:./ j.T.5XuX*XXX3X<X&X_.XX+X+XXXXX<X<X<X<X<X<XXXXXXXXXoXoXoXoXoXoXXX'.'.'.'.XXXXXX=XZXgXC . , h p 1 g 1 1 g 1 g x IXIXIXIXIXIXIXIXIXIXIXIXIXIXIXIXIXIXIXIXIX",
"IXIXIXIXIXIXIXIXIXIXIXIXIXIXIXIXIXIXIXIXIXIXz 1 g g g g d d g g = # A gXSXtX_.OXXX'.].oXoXoXXXXXoXoXoXoXoXoXoXoXoXoXoXoXoXoXoXXXXXXXoXXX<X<XXXoXoX1X3XK.>.} +.6.6.6.6.6.6.6.6.6.6.6.6.6.6.6.6.6.+.w.:.:.$.o.k.^.5X<XoXoXoXoX*X'.XXoXoXoXoXoXoXoXoXoXoXoXoXoXoXoXoXoXoXoXoXoXoXoXoXoXoXoXoXoXoXoXoXoXoXoXoXoXoXoXoXoXoXoXoXoXoXoXoXoXoXoXoXoXoXoXoXoXoXoXoXoXoXXXXX'.'.'.XX<X1X3XH.<.} %.3.3.6.6.+.w.:.| o.y.E.6X<XoX].'.'.oXXXXXXXXXoXoXoXoXoXXXXXXXXX'.'.oXrX6X;Xn.-.X.6.:.:.6.7.6.6.:.7.7.6.+.:.6.6.6.6.6.6.6.6.6.6.6.6.6.6.6.6.6.6.6.6.6.6.6.6.6.6.6.6.6.6.6.6.6.6.6.6.6.6.6.6.6.6.6.6.6.6.6.6.6.6.6.6.6.6.6.6.6.6.6.6.6.6.6.6.6.6.6.6.6.6.6.6.6.6.6.6.6.6.6.6.6.6.6.6.6.6.6.6.6.6.6.6.6.6.6.6.6.6.6.6.6.6.6.6.6.6.6.6.6.6.6.6.6.6.6.6.6.6.6.6.6.6.6.6.6.6.6.6.7.$.+.=.} z.(.NXeX*X'.].oXoXXX<X<XiX3XH.>.[ =.@.@.&.&.@.@.@.:.o.1.T.,X<X'.XX@X+X+XXXXX'.'.XXXX<X<X<X<X<X<XoXXXXXXXoXoXoXoXoXoXXXXX'.'.'.XXXX'.2XZXI.C . , a g 1 g 1 1 g 1 g z IXIXIXIXIXIXIXIXIXIXIXIXIXIXIXIXIXIXIXIXIX",
"IXIXIXIXIXIXIXIXIXIXIXIXIXIXIXIXIXIXIXIXIXIXz 1 g g 0 g d y g g = # A gXSXtX_.OXXX'.].oXoXoXXXXXoXoXoXoXoXoXoXoXoXoXoXoXoXoXoXXXXXXXoXXX<X<XOX+XoX1X3XK.>.} +.6.6.6.6.6.6.6.6.6.6.6.6.6.6.6.6.6.+.w.:.:.$.o.k.^.5X<XoXXXoXoX*X'.XXoXoXoXoXoXoXoXoXoXoXoXoXoXoXoXoXoXoXoXoXoXoXoXoXoXoXoXoXoXoXoXoXoXoXoXoXoXoXoXoXoXoXoXoXoXoXoXoXoXoXoXoXoXoXoXoXoXoXoXoXoXoXXXXX'.'.].XX<X1X3XH.<.| +.3.3.6.6.+.w.:.| o.y.E.6X<XoX].'.XXXXXXXXXXXXoXoXoXoXoXXXXXXXXX'.XXoXrX6X;Xn.-.X.6.:.:.:.7.6.6.:.7.7.6.+.:.6.6.6.6.6.6.6.6.6.6.6.6.6.6.6.6.6.6.6.6.6.6.6.6.6.6.6.6.6.6.6.6.6.6.6.6.6.6.6.6.6.6.6.6.6.6.6.6.6.6.6.6.6.6.6.6.6.6.6.6.6.6.6.6.6.6.6.6.6.6.6.6.6.6.6.6.6.6.6.6.6.6.6.6.6.6.6.6.6.6.6.6.6.6.6.6.6.6.6.6.6.6.6.6.6.6.6.6.6.6.6.6.6.6.6.6.6.6.6.6.6.6.6.6.6.6.6.+.w.6.+.=.} k.(.NX4X*X*X].].XX|.<X1XiX3XF.>.[ =.+.+.%.%.%.$.6.:./ 2.Y.5X2X<X<XoX+X+XXXXX'.'.'.'.<X<X<X<X<X<XXXXXXXXXoXoXoXoXoXoXXXXX'.'.'.'.XX'.2XZXI.C . , a g 1 g 1 1 g 1 g z IXIXIXIXIXIXIXIXIXIXIXIXIXIXIXIXIXIXIXIXIX",
"IXIXIXIXIXIXIXIXIXIXIXIXIXIXIXIXIXIXIXIXIXIXz 1 0 1 1 1 1 1 g g = # A gXSXtX_.XXXX'.].oXoXoXXXXXoXoXoXoXoXoXoXoXoXoXoXoXoXoXoXXXXXOXoXXX<X<XXXXXoX1X3XK.>.} +.6.6.6.6.6.6.6.6.6.6.6.6.6.6.6.6.6.+.w.:.:.$.o.k.^.5X<XoXXXXXXX*X'.XXoXoXoXoXoXoXoXoXoXoXoXoXoXoXoXoXoXoXoXoXoXoXoXoXoXoXoXoXoXoXoXoXoXoXoXoXoXoXoXoXoXoXoXoXoXoXoXoXoXoXoXoXoXoXoXoXoXoXoXoXoXoXXXXX'.'.].oX<X1X3XH.<.( +.:.3.6.6.+.w.:.| o.y.R.5X<XoX].'.XXXXXXXXXXXXoXoXoXoXoXXXXXXXXX'.XXoXrX6X;Xn.-.X.6.:.:.6.7.6.6.:.7.7.6.+.6.6.6.6.6.6.6.6.6.6.6.6.6.6.6.6.6.6.6.6.6.6.6.6.6.6.6.6.6.6.6.6.6.6.6.6.6.6.6.6.6.6.6.6.6.6.6.6.6.6.6.6.6.6.6.6.6.6.6.6.6.6.6.6.6.6.6.6.6.6.6.6.6.6.6.6.6.6.6.6.6.6.6.6.6.6.6.6.6.6.6.6.6.6.6.6.6.6.6.6.6.6.6.6.6.6.6.6.6.6.6.6.6.6.6.6.6.6.6.6.6.6.6.6.6.6.6.6.:.6.6.+.O.} k.~.NX3X&X&X'.'.&X&X`.].sX<XH.<.} w.:.0.0.0.0.7.:.:./ 1.W.5X=X[.[.[.'.'.*X*X*X*X*X&X<X<X<X<X<X<XXXXXXXXXoXoXoXoXoXoXXXXX'.'.'.'.XX'.2XZXI.C . , h g 1 g 1 1 g 1 g z IXIXIXIXIXIXIXIXIXIXIXIXIXIXIXIXIXIXIXIXIX",
"IXIXIXIXIXIXIXIXIXIXIXIXIXIXIXIXIXIXIXIXIXIXz 1 g 1 0 g y g g g = # A gXSXtX_.XXXX'.].oXoXoXXXXXoXoXoXoXoXoXoXoXoXoXoXoXoXoXoXXXXXOXoXXX<X<XXXXXoX1X3XK.>.} +.6.6.6.6.6.6.6.6.6.6.6.6.6.6.6.6.6.+.w.:.:.$.o.k.^.5X<XoXXXXXXX*X'.XXoXoXoXoXoXoXoXoXoXoXoXoXoXoXoXoXoXoXoXoXoXoXoXoXoXoXoXoXoXoXoXoXoXoXoXoXoXoXoXoXoXoXoXoXoXoXoXoXoXoXoXoXoXoXoXoXoXoXoXoXoXoXXXXX'.'.].oX<X1X3XH.<.( %.3.3.6.6.+.w.:.| o.y.R.5X<XoX].'.'.XXXXXXXXXXoXoXoXoXoXXXXXXXXX'.'.oXrX6X;Xn.-.X.6.:.:.6.7.6.6.6.7.7.6.+.6.6.6.6.6.6.6.6.6.6.6.6.6.6.6.6.6.6.6.6.6.6.6.6.6.6.6.6.6.6.6.6.6.6.6.6.6.6.6.6.6.6.6.6.6.6.6.6.6.6.6.6.6.6.6.6.6.6.6.6.6.6.6.6.6.6.6.6.6.6.6.6.6.6.6.6.6.6.6.6.6.6.6.6.6.6.6.6.6.6.6.6.6.6.6.6.6.6.6.6.6.6.6.6.6.6.6.6.6.6.6.6.6.6.6.6.6.6.6.6.6.6.6.6.6.6.6.6.:.6.+.+.O.| z.(.NXXX_.&X[.[.'.'.9X[.iX3XH.q.o.w.7.7.9.9.0.7.7.:.| y.E.4X].[.[.`.[.&X&X&X[.[.'._.<X<X<X<X<X<XoXXXXXXXoXoXoXoXoXoXXXXX'.'.'.'.XX'.tXZXI.C . , h g 1 g 1 1 g 1 g z IXIXIXIXIXIXIXIXIXIXIXIXIXIXIXIXIXIXIXIXIX",
"IXIXIXIXIXIXIXIXIXIXIXIXIXIXIXIXIXIXIXIXIXIXz 1 e g g 1 1 1 g g = # A gXSXtX_.XXXX'.].oXoXoXXXXXoXoXoXoXoXoXoXoXoXoXoXoXoXoXoXXXXXOXoXXX<X<XXXoXoX1X3XK.>.} +.6.6.6.6.6.6.6.6.6.6.6.6.6.6.6.6.6.+.3.:.:.$.o.k.^.5X<XoXXXXXXX*X'.XXoXoXoXoXoXoXoXoXoXoXoXoXoXoXoXoXoXoXoXoXoXoXoXoXoXoXoXoXoXoXoXoXoXoXoXoXoXoXoXoXoXoXoXoXoXoXoXoXoXoXoXoXoXoXoXoXoXoXoXoXoXoXXXXX'.'.].oX<X4XNXH.<.| +.3.3.6.6.+.w.:.| o.y.E.6X<XoX].].XXXXXXXXXXXXoXoXoXoXoXXXXXXXXX'.XXoXrX6X;Xn.-.X.6.:.:.6.6.6.6.6.7.7.:.+.6.6.6.6.6.6.6.6.6.6.6.6.6.6.6.6.6.6.6.6.6.6.6.6.6.6.6.6.6.6.6.6.6.6.6.6.6.6.6.6.6.6.6.6.6.6.6.6.6.6.6.6.6.6.6.6.6.6.6.6.6.6.6.6.6.6.6.6.6.6.6.6.6.6.6.6.6.6.6.6.6.6.6.6.6.6.6.6.6.6.6.6.6.6.6.6.6.6.6.6.6.6.6.6.6.6.6.6.6.6.6.6.6.6.6.6.6.6.6.6.6.6.6.6.6.6.6.6.+.6.+.O. .-.v. XZXyX1XrXwXwXwXwXwXiXAX5XG.>.^ [ O.+.%.%.O.O.O. ./ 1.E.CXiX0X0X=X=X=X=X=X0XwXwX+XXX<X<X<X<X<XXXXXXXXXoXoXoXoXoXoXXXXX'.'.'.'.XX'.tXZXI.C . , h g 1 g 1 1 g 1 g z IXIXIXIXIXIXIXIXIXIXIXIXIXIXIXIXIXIXIXIXIX",
"IXIXIXIXIXIXIXIXIXIXIXIXIXIXIXIXIXIXIXIXIXIXz 1 g g g g 0 0 g g = # A gXSXtX_.XXXX'.].oXoXoXXXXXoXoXoXoXoXoXoXoXoXoXoXoXoXoXoXXXXXXXoXXX<X<XXXoX].1X3XK.>.[ +.6.6.6.6.6.6.6.6.6.6.6.6.6.6.6.6.6.+.3.:.:.$.o.k.^.5X<XoXXXXXXX*X'.XXoXoXoXoXoXoXoXoXoXoXoXoXoXoXoXoXoXoXoXoXoXoXoXoXoXoXoXoXoXoXoXoXoXoXoXoXoXoXoXoXoXoXoXoXoXoXoXoXoXoXoXoXoXoXoXoXoXoXoXoXoXoXXXXX'.'.].oX<X4XNXH.<.| +.3.3.6.6.+.w.:.| o.y.E.6X<XoX].].XXXXXXXXXXXXoXoXoXoXoXXXXXXX'.'.XXoXrX6X;Xn.-.X.6.:.:.6.6.6.6.6.7.7.:.+.6.6.6.6.6.6.6.6.6.6.6.6.6.6.6.6.6.6.6.6.6.6.6.6.6.6.6.6.6.6.6.6.6.6.6.6.6.6.6.6.6.6.6.6.6.6.6.6.6.6.6.6.6.6.6.6.6.6.6.6.6.6.6.6.6.6.6.6.6.6.6.6.6.6.6.6.6.6.6.6.6.6.6.6.6.6.6.6.6.6.6.6.6.6.6.6.6.6.6.6.6.6.6.6.6.6.6.6.6.6.6.6.6.6.6.6.6.6.6.6.6.6.6.6.6.6.6.6.:.6.O.O.O.-.v.(.JXZXCXuXiXiXyXCXCXAXAX,XF.2.^ ^ } } } } } } } } ) 2.Y.BXAXAXaX6X6X6X6XuXyXCXZXCXXX<X<X<X<X<XXXXXXXXXoXoXoXoXoXoXXXXX'.'.'.'.XX'.2XZXI.C . , h g 1 g 1 1 g 1 g z IXIXIXIXIXIXIXIXIXIXIXIXIXIXIXIXIXIXIXIXIX",
"IXIXIXIXIXIXIXIXIXIXIXIXIXIXIXIXIXIXIXIXIXIXz 1 g g g g 0 g g g = # A gXSXtX_.XXXX'.].oXoXoXXXXXoXoXoXoXoXoXoXoXoXoXoXoXoXoXoXXXXXXXoXXX<X<XXXoX].1X3XK.>.} +.6.6.6.6.6.6.6.6.6.6.6.6.6.6.6.6.6.+.3.:.:.$.o.k.^.5X1XoXXXXXXX*X'.XXoXoXoXoXoXoXoXoXoXoXoXoXoXoXoXoXoXoXoXoXoXoXoXoXoXoXoXoXoXoXoXoXoXoXoXoXoXoXoXoXoXoXoXoXoXoXoXoXoXoXoXoXoXoXoXoXoXoXoXoXoXoXXXXX'.'.].XX<X4XNXH.<.| +.3.3.6.6.6.w.:.| o.y.E.6X<XoX].].XXXXXXXXXXXXoXoXoXoXXXXX'.'.'.'.'.oXrX6X;Xn.-.X.6.:.:.:.6.6.6.6.7.7.6.+.6.6.6.6.6.6.6.6.6.6.6.6.6.6.6.6.6.6.6.6.6.6.6.6.6.6.6.6.6.6.6.6.6.6.6.6.6.6.6.6.6.6.6.6.6.6.6.6.6.6.6.6.6.6.6.6.6.6.6.6.6.6.6.6.6.6.6.6.6.6.6.6.6.6.6.6.6.6.6.6.6.6.6.6.6.6.6.6.6.6.6.6.6.6.6.6.6.6.6.6.6.6.6.6.6.6.6.6.6.6.6.6.6.6.6.6.6.6.6.6.6.6.6.6.6.6.6.6.:.6.+.+.+.| h.L.VX/.(.Q.Q./.(.(./././.~.F.j.<.5.1.f.1.1.1.1.1.5.5.j.H.(././.$XQ.~.(.(././..X/..X<XXXXXXXXXXXXXXXXXXXoXoXoXoXoXoXXXXX'.'.'.'.XX'.2XZXI.C . , a g 1 g 1 1 g 1 g z IXIXIXIXIXIXIXIXIXIXIXIXIXIXIXIXIXIXIXIXIX",
"IXIXIXIXIXIXIXIXIXIXIXIXIXIXIXIXIXIXIXIXIXIXz 1 g g g g e g g g = # A gXSXtX_.XXXX'.].oXoXoXXXXXoXoXoXoXoXoXoXoXoXoXoXoXoXoXoXXXXXXXoXXX<X<XXXoX].1X3XK.>.} +.6.6.6.6.6.6.6.6.6.6.6.6.6.6.6.6.6.+.3.:.:.$.o.k.^.5X1XoXXXXXXX*X'.XXoXoXoXoXoXoXoXoXoXoXoXoXoXoXoXoXoXoXoXoXoXoXoXoXoXoXoXoXoXoXoXoXoXoXoXoXoXoXoXoXoXoXoXoXoXoXoXoXoXoXoXoXoXoXoXoXoXoXoXoXoXoXXXXX'.'.].XX<X4XNXH.<.| +.3.3.6.6.6.w.:.| o.y.E.6X<XoX].].XXXXXXXXXXXXoXoXoXoXXXXXXX'.'.'.'.oXrX6X;Xn.-.X.6.:.:.:.6.6.6.6.7.7.6.+.6.6.6.6.6.6.6.6.6.6.6.6.6.6.6.6.6.6.6.6.6.6.6.6.6.6.6.6.6.6.6.6.6.6.6.6.6.6.6.6.6.6.6.6.6.6.6.6.6.6.6.6.6.6.6.6.6.6.6.6.6.6.6.6.6.6.6.6.6.6.6.6.6.6.6.6.6.6.6.6.6.6.6.6.6.6.6.6.6.6.6.6.6.6.6.6.6.6.6.6.6.6.6.6.6.6.6.6.6.6.6.6.6.6.6.6.6.6.6.6.6.6.6.6.6.6.6.6.:.6.+.+.+.} <.F.F.n.v.v.v.c.x.v.c.c.A.F.F.F.L.K.J.J.J.J.J.H.H.H.L.F.F.F.c.b.C.c.c.c.c.c.n.n.n.M.,XXXXXXXXXXXXXXXXXXXoXoXoXoXoXoXXXXX'.'.'.'.XX'.2XZXI.C . , h g 1 g 1 1 g 1 g z IXIXIXIXIXIXIXIXIXIXIXIXIXIXIXIXIXIXIXIXIX",
"IXIXIXIXIXIXIXIXIXIXIXIXIXIXIXIXIXIXIXIXIXIXx 1 4 4 g g d d 0 y = # A gXSXtX_.XXXX'.].oXoXoXXXXXoXoXoXoXoXoXoXoXoXoXoXoXoXoXoXXXXXXXoXXX*X*XXXXXoX1X7XK.<.X.$.6.6.6.6.6.6.6.6.6.6.6.6.6.6.6.6.6.:.3.:.+.%.o.k.R.5X1XoXXXXXoX*X'.XXoXoXoXoXoXoXoXoXoXoXoXoXoXoXoXoXoXoXoXoXoXoXoXoXoXoXoXoXoXoXoXoXoXoXoXoXoXoXoXoXoXoXoXoXoXoXoXoXoXoXoXoXoXoXoXoXoXoXoXoXoXoXXXXXXX].].<X<X1X3XH.1.| $.3.3.7.6.6.w.:.| o.y.R.6X<XoX].].oXoXXXXXXXXXoXoXoXoXoXXXXXXXXX'.'.oXrX6X;Xn.-.X.6.:.:.6.7.6.:.:.7.7.6.6.6.6.6.6.6.6.6.6.6.6.6.6.6.6.6.6.6.6.6.6.6.6.6.6.6.6.6.6.6.6.6.6.6.6.6.6.6.6.6.6.6.6.6.6.6.6.6.6.6.6.6.6.6.6.6.6.6.6.6.6.6.6.6.6.6.6.6.6.6.6.6.6.6.6.6.6.6.6.6.6.6.6.6.6.6.6.6.6.6.6.6.6.6.6.6.6.6.6.6.6.6.6.6.6.6.6.6.6.6.6.6.6.6.6.6.6.6.6.6.6.6.6.6.6.6.6.6.6.7.7.6.$.&.@.:.>.,.,.-...........:.-.` 2.A.mXBX3X5X4X3X3XNXNXNXmXBX%Xv.` ,.2.,.;.-.-.-.-.;.) ` z.>XuX1X'.<XXX'.<XXXXXXXXXoXoXoXoXXXXX'.'.'.'.XX'.2XZXdXC + , h p < g 1 1 g 1 g x IXIXIXIXIXIXIXIXIXIXIXIXIXIXIXIXIXIXIXIXIX",
"IXIXIXIXIXIXIXIXIXIXIXIXIXIXIXIXIXIXIXIXIXIXx 1 4 4 g g d 0 0 g = # A gXSXtX_.XXoX'.].oXoXoXXXXXoXoXoXoXoXoXoXoXoXoXoXoXoXoXoXXXXXXXXXXX<X*XXXXXoX1X7XK.<.X.$.6.6.6.6.6.6.6.6.6.6.6.6.6.6.6.6.6.:.3.:.+.%.o.k.R.5X1XoXXXXXXX*X'.XXoXoXoXoXoXoXoXoXoXoXoXoXoXoXoXoXoXoXoXoXoXoXoXoXoXoXoXoXoXoXoXoXoXoXoXoXoXoXoXoXoXoXoXoXoXoXoXoXoXoXoXoXoXoXoXoXoXoXoXoXoXoXXXXXXX'.].<X<X+X3XH.1.| $.3.3.6.6.6.w.:.| o.y.R.6X<XoX].'.oXoXXXXXXXXXoXoXoXoXoXXXXXXXXX'.'.oXrX6X;Xn.-.X.6.:.:.6.7.6.:.:.7.7.6.$.6.6.6.6.6.6.6.6.6.6.6.6.6.6.6.6.6.6.6.6.6.6.6.6.6.6.6.6.6.6.6.6.6.6.6.6.6.6.6.6.6.6.6.6.6.6.6.6.6.6.6.6.6.6.6.6.6.6.6.6.6.6.6.6.6.6.6.6.6.6.6.6.6.6.6.6.6.6.6.6.6.6.6.6.6.6.6.6.6.6.6.6.6.6.6.6.6.6.6.6.6.6.6.6.6.6.6.6.6.6.6.6.6.6.6.6.6.6.6.6.6.6.6.6.6.6.6.6.6.6.6.$.&.&.6.:.:.+.O. .O.O.#.#.#.%.} ,.A.>XZXwXwXwX1X1X+X4X4XNXMX(.v.` | 3.+.$.o.+...@.%.^ } l.,XuX1X'.<XXX'.<XXXXXXXXXoXoXoXoXXXXX'.'.'.'.XX'.2XZXdXC + , h p 1 g g 1 g 1 g z IXIXIXIXIXIXIXIXIXIXIXIXIXIXIXIXIXIXIXIXIX",
"IXIXIXIXIXIXIXIXIXIXIXIXIXIXIXIXIXIXIXIXIXIXx 1 1 1 g g g g g g = # A gXSXtX_.XXoX=X].oXoXoXXXXXoXoXoXoXoXoXoXoXoXoXoXoXoXoXoXXXXXXXoXXX*X*XXXoXoX1X7XK.<.X.$.6.6.6.6.6.6.6.6.6.6.6.6.6.6.6.6.6.:.3.:.+.%.o.k.R.5X1XoXXXXXXX'.'.XXoXoXoXoXoXoXoXoXoXoXoXoXoXoXoXoXoXoXoXoXoXoXoXoXoXoXoXoXoXoXoXoXoXoXoXoXoXoXoXoXoXoXoXoXoXoXoXoXoXoXoXoXoXoXoXoXoXoXoXoXoXoXXXXXXX'.].<X<X1X3XH.<.| +.3.3.6.6.6.w.:.| o.y.R.6X<XoX].].oXoXXXXXXXXXoXoXoXoXoXXXXXXX'.'.'.oXrX6X:Xn.-.X.:.:.:.3.7.6.:.:.7.7.6.$.6.6.6.6.6.6.6.6.6.6.6.6.6.6.6.6.6.6.6.6.6.6.6.6.6.6.6.6.6.6.6.6.6.6.6.6.6.6.6.6.6.6.6.6.6.6.6.6.6.6.6.6.6.6.6.6.6.6.6.6.6.6.6.6.6.6.6.6.6.6.6.6.6.6.6.6.6.6.6.6.6.6.6.6.6.6.6.6.6.6.6.6.6.6.6.6.6.6.6.6.6.6.6.6.6.6.6.6.6.6.6.6.6.6.6.6.6.6.6.6.6.6.6.6.6.6.6.6.6.$.$.$.%.$.6.6.:.6.6.$.$.$.$.%.*.%.) ,.M.>XpX0X].=X=X*X=X<X<X4XuX.Xv.` ..@.+.$.%.$.+.@.%.[ | l.:XuX1X'.<XXX'.<X<X<XXXXXoXoXoXoXXXXX'.'.'.'.XX'.2XZXdXC + , a p y g g 1 g 1 g z IXIXIXIXIXIXIXIXIXIXIXIXIXIXIXIXIXIXIXIXIX",
"IXIXIXIXIXIXIXIXIXIXIXIXIXIXIXIXIXIXIXIXIXIXx 1 0 0 g g g g g g = # A gXSXtX_.OXoX].].oXoXoXXXXXoXoXoXoXoXoXoXoXoXoXoXoXoXoXoXXXXXXXoXXX*X*XXXoXoX1X7XK.<.X.$.6.6.6.6.6.6.6.6.6.6.6.6.6.6.6.6.6.+.3.:.+.%.o.k.R.5X1XoXXXXXXX'.'.XXoXoXoXoXoXoXoXoXoXoXoXoXoXoXoXoXoXoXoXoXoXoXoXoXoXoXoXoXoXoXoXoXoXoXoXoXoXoXoXoXoXoXoXoXoXoXoXoXoXoXoXoXoXoXoXoXoXoXoXoXoXoXXXXXXX'.].<X<X1X3XH.<.| %.3.3.6.6.6.w.:.| X.y.R.6X<XoX].].oXoXXXXXXXXXoXoXoXoXoXXXXX'.'.'.'.oXrX6X:Xn.-.X.:.:.:.3.7.6.:.:.7.7.6.$.6.6.6.6.6.6.6.6.6.6.6.6.6.6.6.6.6.6.6.6.6.6.6.6.6.6.6.6.6.6.6.6.6.6.6.6.6.6.6.6.6.6.6.6.6.6.6.6.6.6.6.6.6.6.6.6.6.6.6.6.6.6.6.6.6.6.6.6.6.6.6.6.6.6.6.6.6.6.6.6.6.6.6.6.6.6.6.6.6.6.6.6.6.6.6.6.6.6.6.6.6.6.6.6.6.6.6.6.6.6.6.6.6.6.6.6.6.6.6.6.6.6.6.6.6.6.6.6.$.$.$.$.$.$.6.6.0.0.0.0.0.0.9.9.9.$.X.,.M.>XiX0X[.&X&X-X[.].oXoXiX`.z.|  .@.%.%.$.6.+.w.$.X.| x.:XyX1X'.<XXX'.<X<X<XXXXXoXoXoXoXXXXX'.'.'.'.XX'.2XZXdXC + , h p y g g 1 g 1 g z IXIXIXIXIXIXIXIXIXIXIXIXIXIXIXIXIXIXIXIXIX",
"IXIXIXIXIXIXIXIXIXIXIXIXIXIXIXIXIXIXIXIXIXIXx 1 0 g g g g g g g = # A gXSXtX_.XXXX'.].oXoXoXXXXXoXoXoXoXoXoXoXoXoXoXoXoXoXoXoXXXXX<XoX'.*X*XXXoXoX1X7XK.<.X.$.6.6.6.6.6.6.6.6.6.6.6.6.6.6.6.6.6.+.3.:.+.%.o.k.R.5X<XoXXXXXXX*X'.XXoXoXoXoXoXoXoXoXoXoXoXoXoXoXoXoXoXoXoXoXoXoXoXoXoXoXoXoXoXoXoXoXoXoXoXoXoXoXoXoXoXoXoXoXoXoXoXoXoXoXoXoXoXoXoXoXoXoXoXoXoXoXXXXXXX'.].<X<X1X3XH.<.| +.:.3.6.6.6.w.:.| X.y.R.5X<XoX].].'.XXXXXXXXXXoXoXoXoXoXXXXX'.'.'.'.oXrX6X:Xn.-.X.:.:.:.3.6.6.:.:.7.7.6.$.6.6.6.6.6.6.6.6.6.6.6.6.6.6.6.6.6.6.6.6.6.6.6.6.6.6.6.6.6.6.6.6.6.6.6.6.6.6.6.6.6.6.6.6.6.6.6.6.6.6.6.6.6.6.6.6.6.6.6.6.6.6.6.6.6.6.6.6.6.6.6.6.6.6.6.6.6.6.6.6.6.6.6.6.6.6.6.6.6.6.6.6.6.6.6.6.6.6.6.6.6.6.6.6.6.6.6.6.6.6.6.6.6.6.6.6.6.6.6.6.6.6.6.6.6.6.6.6.$.$.$.$.6.6.6.6.6.6.9.9.6.6.0.0.0.0._ ;.A.,XuX].'.&X&X[.[.].oXoXuX!.v.|  .@.%.%.$.:.:.3.9._ -.x.>XyX1X'.<XXX'.<X<X<XoXoXoXoXoXoXXXXX'.'.'.'.XX'.2XZXI.C + , h p < g 1 1 g 1 g x IXIXIXIXIXIXIXIXIXIXIXIXIXIXIXIXIXIXIXIXIX",
"IXIXIXIXIXIXIXIXIXIXIXIXIXIXIXIXIXIXIXIXIXIXx 1 g g g g g g g g = # A gXFXtX_.XXXX'.].oXoXoXXXXXoXoXoXoXoXoXoXoXoXoXoXoXoXoXoXXXXX<XoX'.*X*XXXoXoX1X7XK.<.X.$.6.6.6.6.6.6.6.6.6.6.6.6.6.6.6.6.6.+.3.:.+.%.o.k.R.5X<XoXXXXXXX*X'.XXoXoXoXoXoXoXoXoXoXoXoXoXoXoXoXoXoXoXoXoXoXoXoXoXoXoXoXoXoXoXoXoXoXoXoXoXoXoXoXoXoXoXoXoXoXoXoXoXoXoXoXoXoXoXoXoXoXoXoXoXoXoXXXXXXX'.].<X<X1X3XH.<.( +.3.3.6.6.6.w.:.| X.y.Y.5X<XoX].].XXXXXXXXXXXXoXoXoXoXoXXXXXXXXX'.XXoXrX6X:Xn.-.X.:.:.:.:.7.6.:.:.7.7.6.$.6.6.6.6.6.6.6.6.6.6.6.6.6.6.6.6.6.6.6.6.6.6.6.6.6.6.6.6.6.6.6.6.6.6.6.6.6.6.6.6.6.6.6.6.6.6.6.6.6.6.6.6.6.6.6.6.6.6.6.6.6.6.6.6.6.6.6.6.6.6.6.6.6.6.6.6.6.6.6.6.6.6.6.6.6.6.6.6.6.6.6.6.6.6.6.6.6.6.6.6.6.6.6.6.6.6.6.6.6.6.6.6.6.6.6.6.6.6.6.6.6.6.6.6.6.6.6.6.$.$.$.6.6.6.6.6.$.6.6.6.6.6.6.6.7.:.X.;.A.,XuX].XX|.'.[.'.oXoXoXuXQ.x.|  .@.+.$.$.:.,.>.9._ ;.x.>XyX1X'.oXXX'.<X<X<XoXoXoXoXoXoXXXXX'.'.'.'.XX'.2XZXI.C + , h p 1 g 1 1 g 1 g x IXIXIXIXIXIXIXIXIXIXIXIXIXIXIXIXIXIXIXIXIX",
"IXIXIXIXIXIXIXIXIXIXIXIXIXIXIXIXIXIXIXIXIXIXx 1 g g g g g g d d = # A gXFXtX_.XXXX'.].oXoXoXXXXXoXoXoXoXoXoXoXoXoXoXoXoXoXoXoXXXXX<XoX'.*X*XXXoXoX1X7XK.>.X.$.6.6.6.6.6.6.6.6.6.6.6.6.6.6.6.6.6.+.w.:.+.%.o.k.R.5X1XoXXXXXXX*X'.XXoXoXoXoXoXoXoXoXoXoXoXoXoXoXoXoXoXoXoXoXoXoXoXoXoXoXoXoXoXoXoXoXoXoXoXoXoXoXoXoXoXoXoXoXoXoXoXoXoXoXoXoXoXoXoXoXoXoXoXoXoXoXXXXXXX].].<X<X1X3XH.<.( +.3.3.6.6.6.w.:.| o.y.R.6X<XoX].'.XXXXXXXXXXXXoXoXoXoXoXXXXXXXXXXXXXoXrX6X:Xn.-.X.:.:.:.:.7.6.:.:.7.7.6.$.6.6.6.6.6.6.6.6.6.6.6.6.6.6.6.6.6.6.6.6.6.6.6.6.6.6.6.6.6.6.6.6.6.6.6.6.6.6.6.6.6.6.6.6.6.6.6.6.6.6.6.6.6.6.6.6.6.6.6.6.6.6.6.6.6.6.6.6.6.6.6.6.6.6.6.6.6.6.6.6.6.6.6.6.6.6.6.6.6.6.6.6.6.6.6.6.6.6.6.6.6.6.6.6.6.6.6.6.6.6.6.6.6.6.6.6.6.6.6.6.6.6.6.6.6.6.6.6.$.$.$.6.:.:.:.$.&.$.6.6.6.6.6.:.3.@.{ ..A.&XuXwX+X+XXX'.XX<X<X3X6X/.x.( | :.$.$.+.:.,.>.9._ ;.x.>XyX1X'.oXXX'.<X<X<XoXoXoXoXoXoXXXXX'.'.'.'.XX'.=XZXI.C + , h p < g 1 1 g 1 g z IXIXIXIXIXIXIXIXIXIXIXIXIXIXIXIXIXIXIXIXIX",
"IXIXIXIXIXIXIXIXIXIXIXIXIXIXIXIXIXIXIXIXIXIXz 1 g g g g g 0 0 y = # A gXSXtX_.XXXX'.oXoXoXoXXXXXoXoXoXoXoXoXoXoXoXoXoXoXoXoXoXXXXXXXXXXX*X*XXXoXoX1X7XK.<.X.$.6.6.6.6.6.6.6.6.6.6.6.6.6.6.6.6.6.:.w.:.+.%.o.k.R.5X1XoXXXXXXX*X'.XXoXoXoXoXoXoXoXoXoXoXoXoXoXoXoXoXoXoXoXoXoXoXoXoXoXoXoXoXoXoXoXoXoXoXoXoXoXoXoXoXoXoXoXoXoXoXoXoXoXoXoXoXoXoXoXoXoXoXoXoXoXoXXXXXXX'.].<X<X1X3XH.<.| %.3.3.6.6.6.w.:.| o.y.R.6X<XoX'.'.XXoXXXXXXXXXoXoXoXoXoXXXXXXXXXXXXXoXrX6X:Xn.-.X.:.:.:.:.7.6.:.:.7.7.6.6.6.6.6.6.6.6.6.6.6.6.6.6.6.6.6.6.6.6.6.6.6.6.6.6.6.6.6.6.6.6.6.6.6.6.6.6.6.6.6.6.6.6.6.6.6.6.6.6.6.6.6.6.6.6.6.6.6.6.6.6.6.6.6.6.6.6.6.6.6.6.6.6.6.6.6.6.6.6.6.6.6.6.6.6.6.6.6.6.6.6.6.6.6.6.6.6.6.6.6.6.6.6.6.6.6.6.6.6.6.6.6.6.6.6.6.6.6.6.6.6.6.6.6.6.6.6.6.6.$.$.6.6.7.:.:.+.$.$.$.$.6.6.:.:.3.@.{ ..A.;XuXwX+XXXXX'.XX<X<X3X6X(.x.( ;.7.:.:.+.3.3.:.9._ ;.x.:XyX1X'.oXXX'.<XXXXXoXoXoXoXoXoXXXXX'.'.'.'.XX'.=XZXI.C + , h p y g g 1 g 1 g z IXIXIXIXIXIXIXIXIXIXIXIXIXIXIXIXIXIXIXIXIX",
"IXIXIXIXIXIXIXIXIXIXIXIXIXIXIXIXIXIXIXIXIXIXz 1 y y 1 e e e g y = # A gXSXuX`.XXoXoXoXoXoX].XXXXoXoXoXoXoXoXoXoXoXoXoXoXoXoXoXXXXXXXXXXX<X<XXXoXoX1X3XR.<.X.$.6.6.6.6.6.6.6.6.6.6.6.6.6.6.6.6.6.+.w.:.+.%.o.k.R.5X<XoXXXXXoX*X'.XXoXoXoXoXoXoXoXoXoXoXoXoXoXoXoXoXoXoXoXoXoXoXoXoXoXoXoXoXoXoXoXoXoXoXoXoXoXoXoXoXoXoXoXoXoXoXoXoXoXoXoXoXoXoXoXoXoXoXoXoXoXoXXXXXXX'.].oX<X1X3XH.1.} %.3.:.7.6.6.w.3.| o.y.Y.6X<X<X'.'.oXoXXXXXXXXXoXoXoXoXoXXXXXXXXX'.XXoXrX6X;Xn.-.X.w.:.:.:.6.6.:.:.7.7.6.+.6.6.6.6.6.6.6.6.6.6.6.6.6.6.6.6.6.6.6.6.6.6.6.6.6.6.6.6.6.6.6.6.6.6.6.6.6.6.6.6.6.6.6.6.6.6.6.6.6.6.6.6.6.6.6.6.6.6.6.6.6.6.6.6.6.6.6.6.6.6.6.6.6.6.6.6.6.6.6.6.6.6.6.6.6.6.6.6.6.6.6.6.6.6.6.6.6.6.6.6.6.6.6.6.6.6.6.6.6.6.6.6.6.6.6.6.6.6.6.6.6.6.6.6.6.6.6.6.O.+.6.7.6.6.+.@.+.&.$.*.9.9.7.6.6.$.O.,.A.>XuX[.'.*X&X&X*X'.].].-X!.x.;.) 0.<.>.3...3.w.+.X.7.x.>X1X1XoXXXoXoX'.oXoXoXoXoXoXoXoXoXoX].].XXXXXX'.2XZXI.C + , a p y g 1 1 g 1 g x IXIXIXIXIXIXIXIXIXIXIXIXIXIXIXIXIXIXIXIXIX",
"IXIXIXIXIXIXIXIXIXIXIXIXIXIXIXIXIXIXIXIXIXIXz 1 p g 1 0 g e g p = # A gXSXuX`.XXoXoXoXoX].].XXXXoXoXoXoXoXoXoXoXoXoXoXoXoXoXoXXXXXXXXXXX<X<X+X+XoX1X3XR.<.X.$.7.6.6.6.6.6.6.6.6.6.6.6.6.6.6.6.6.+.w.:.+.%.o.k.R.5X<XoXXXoXoX*X'.XXoXoXoXoXoXoXoXoXoXoXoXoXoXoXoXoXoXoXoXoXoXoXoXoXoXoXoXoXoXoXoXoXoXoXoXoXoXoXoXoXoXoXoXoXoXoXoXoXoXoXoXoXoXoXoXoXoXoXoXoXoXoXXXXX*X'.'.oX<X1X3XH.1.X.%.3.:.7.6.6.w.3.| o.y.Y.6X7X<X'.'.oXoXoXXXXXXXoXoXoXoXoXXXXXXXXX'.XXoXrX6X;Xn.-.X.w.:.:.:.6.6.:.:.7.7.6.+.6.6.6.6.6.6.6.6.6.6.6.6.6.6.6.6.6.6.6.6.6.6.6.6.6.6.6.6.6.6.6.6.6.6.6.6.6.6.6.6.6.6.6.6.6.6.6.6.6.6.6.6.6.6.6.6.6.6.6.6.6.6.6.6.6.6.6.6.6.6.6.6.6.6.6.6.6.6.6.6.6.6.6.6.6.6.6.6.6.6.6.6.6.6.6.6.6.6.6.6.6.6.6.6.6.6.6.6.6.6.6.6.6.6.6.6.6.6.6.6.6.6.6.6.6.6.6.:.+.w.7.7.6.$.+.+.:.$.%.*.*.9.6.6.6.$.} -.n.:XCX[.].*X&X&X*X].].].2X!.x.0.o.9.>.-.:.+.&.t.O. .7.x.mX1X1XoX'.oXoX'.oXoXoXoXoXoXoXoXoXoX].].XXXXXX*XtXZXI.C + - a p y g 1 1 g 1 g z IXIXIXIXIXIXIXIXIXIXIXIXIXIXIXIXIXIXIXIXIX",
"IXIXIXIXIXIXIXIXIXIXIXIXIXIXIXIXIXIXIXIXIXIXz 1 g g g g g g g p = # A gXSXtX`.XX<XoXoXoX].].XXXXoXoXoXoXoXoXoXoXoXoXoXoXoXoXoXXXXXXXXXXX<X<X+X+XoX1X3XR.<.X.$.7.6.:.6.6.6.6.6.6.6.6.6.6.6.6.6.6.+.3.:.+.%.o.k.R.5X<XoXoXoXoX*X'.XXoXoXoXoXoXoXoXoXoXoXoXoXoXoXoXoXoXoXoXoXoXoXoXoXoXoXoXoXoXoXoXoXoXoXoXoXoXoXoXoXoXoXoXoXoXoXoXoXoXoXoXoXoXoXoXoXoXoXoXoXoXoXXXXX*X'.'.oX<X1X3XH.1.X.%.3.:.w.6.6.w.3.| o.y.Y.6X7X<X'.'.oXoXoXXXXXXXoXoXoXoXoXXX'.XXXX'.'.oXrX6X;Xn.-.X.w.:.:.:.6.6.:.:.7.7.6.+.6.6.6.6.6.6.6.6.6.6.6.6.6.6.6.6.6.6.6.6.6.6.6.6.6.6.6.6.6.6.6.6.6.6.6.6.6.6.6.6.6.6.6.6.6.6.6.6.6.6.6.6.6.6.6.6.6.6.6.6.6.6.6.6.6.6.6.6.6.6.6.6.6.6.6.6.6.6.6.6.6.6.6.6.6.6.6.6.6.6.6.6.6.6.6.6.6.6.6.6.6.6.6.6.6.6.6.6.6.6.6.6.6.6.6.6.6.6.6.6.6.6.6.6.6.6.6.6.w.6.0.0.9.%.+.O.| | X.X.O.X.X.X.+.X./ ` n.mXJXZXiXyX2X2X2X1XyXyXAX.XB.` / X.O.O. . .o.$.X.[ o.j.mX1X1XXX'.oXoX'.oXoXoXoXoXoXoXoXoXoX].].'.XXXX*XtXZXI.C + - a p y g 1 1 g 1 g x IXIXIXIXIXIXIXIXIXIXIXIXIXIXIXIXIXIXIXIXIX",
"IXIXIXIXIXIXIXIXIXIXIXIXIXIXIXIXIXIXIXIXIXIXz 1 g g g g g g g p = # A gXSXtX`.XX<X<XoXoX].].XXXXoXoXoXoXoXoXoXoXoXoXoXoXoXoXoXXX<XXXXXXX<X<XXXoXoX1X3XR.<.X.$.7.6.:.6.6.6.6.6.6.6.6.6.6.6.6.6.6.+.3.:.+.%.o.k.R.5X1XoXoXoXoX*X'.XXoXoXoXoXoXoXoXoXoXoXoXoXoXoXoXoXoXoXoXoXoXoXoXoXoXoXoXoXoXoXoXoXoXoXoXoXoXoXoXoXoXoXoXoXoXoXoXoXoXoXoXoXoXoXoXoXoXoXoXoXoXoXXXXX*X'.'.oX<X1X3XH.1.} %.3.:.7.6.6.w.3.| o.y.Y.6X7X<X'.'.oXoXoXXXXXXXoXoXoXoXoXXX'.XX'.'.'.oXrX6X;Xn.-.X.w.:.:.:.7.6.:.:.7.7.6.$.6.6.6.6.6.6.6.6.6.6.6.6.6.6.6.6.6.6.6.6.6.6.6.6.6.6.6.6.6.6.6.6.6.6.6.6.6.6.6.6.6.6.6.6.6.6.6.6.6.6.6.6.6.6.6.6.6.6.6.6.6.6.6.6.6.6.6.6.6.6.6.6.6.6.6.6.6.6.6.6.6.6.6.6.6.6.6.6.6.6.6.6.6.6.6.6.6.6.6.6.6.6.6.6.6.6.6.6.6.6.6.6.6.6.6.6.6.6.6.6.6.6.6.6.6.6.6.6.6.$.0.0.$.+.+.:.-.-.-.| | | | | ,.-.` 2.F.mXBXCXMXNX5X5X5X5X5XNXJX/.c.] ) | ..3.| | ;.>.-.( ,.f.>X<X<X'.'.oXoX'.oXoXoXoXoXoXoXoXoXoX].].XXXXXX'.tXZXI.C + - p p y g 1 1 g 1 g x IXIXIXIXIXIXIXIXIXIXIXIXIXIXIXIXIXIXIXIXIX",
"IXIXIXIXIXIXIXIXIXIXIXIXIXIXIXIXIXIXIXIXIXIXz 1 e e e g g g g p = # A gXSXuX[.XX'.'.oXoX].].XXXXoXoXoXoXoXoXoXoXoXoXoXoXoXoXoXXXXXOXXXXX<X<XXXoXoX1X3XR.<.X.$.7.6.6.6.6.6.6.6.6.6.6.6.6.6.6.6.6.+.w.:.+.%.o.k.R.5X1XoXoXXXXX*X'.XXoXoXoXoXoXoXoXoXoXoXoXoXoXoXoXoXoXoXoXoXoXoXoXoXoXoXoXoXoXoXoXoXoXoXoXoXoXoXoXoXoXoXoXoXoXoXoXoXoXoXoXoXoXoXoXoXoXoXoXoXoXoXXXXX*X'.'.oX<X<X3XH.1.} %.3.:.7.6.6.w.:.| o.y.Y.6X<X<X'.'.oXoXoXXXXXXXoXoXoXoXoXXX'.'.XX'.'.oXrX6X;Xn.-.X.6.6.:.:.7.6.:.:.7.7.6.:.6.6.6.6.6.6.6.6.6.6.6.6.6.6.6.6.6.6.6.6.6.6.6.6.6.6.6.6.6.6.6.6.6.6.6.6.6.6.6.6.6.6.6.6.6.6.6.6.6.6.6.6.6.6.6.6.6.6.6.6.6.6.6.6.6.6.6.6.6.6.6.6.6.6.6.6.6.6.6.6.6.6.6.6.6.6.6.6.6.6.6.6.6.6.6.6.6.6.6.6.6.6.6.6.6.6.6.6.6.6.6.6.6.6.6.6.6.6.6.6.6.6.6.6.6.6.6.:.+.+.:.6.+.+.4.l.z.v.v.v.v.v.z.z.C.c.v.n.F.K.Y.Y.Y.Y.Y.K.K.K.K.Y.~.Y.V.c.v.v.C.C.c.v.c.n.c.z.c.M.|.<X<X'.'.oXoX'.oXoXoXoXoXoXoXoXoXoX'.*XoXoXoX].2XZXgXC + - p p y g 1 1 g 1 g x IXIXIXIXIXIXIXIXIXIXIXIXIXIXIXIXIXIXIXIXIX",
"IXIXIXIXIXIXIXIXIXIXIXIXIXIXIXIXIXIXIXIXIXIXz 1 e e g g g g g p = # A gXSXtX[.XX'.'.oXoX].].XXXXoXoXoXoXoXoXoXoXoXoXoXoXoXoXoXXXXXOXXXXX<X<XXXoXoX1X3XR.<.X.$.7.6.6.6.6.6.6.6.6.6.6.6.6.6.6.6.6.+.w.:.+.%.o.k.R.5X1XoXoXXXXX*X'.XXoXoXoXoXoXoXoXoXoXoXoXoXoXoXoXoXoXoXoXoXoXoXoXoXoXoXoXoXoXoXoXoXoXoXoXoXoXoXoXoXoXoXoXoXoXoXoXoXoXoXoXoXoXoXoXoXoXoXoXoXoXoXXXXXXX'.'.oX<X1X3XH.1.} %.3.:.7.6.6.w.:.| o.y.Y.6X<X<X'.'.oXoXoXXXXXXXoXoXoXoXoXXXXXXXXX'.'.oXrX6X;Xn.-.X.6.6.:.:.7.6.:.:.7.7.6.:.6.6.6.6.6.6.6.6.6.6.6.6.6.6.6.6.6.6.6.6.6.6.6.6.6.6.6.6.6.6.6.6.6.6.6.6.6.6.6.6.6.6.6.6.6.6.6.6.6.6.6.6.6.6.6.6.6.6.6.6.6.6.6.6.6.6.6.6.6.6.6.6.6.6.6.6.6.6.6.6.6.6.6.6.6.6.6.6.6.6.6.6.6.6.6.6.6.6.6.6.6.6.6.6.6.6.6.6.6.6.6.6.6.6.6.6.6.6.6.6.6.6.6.6.6.6.6.:.3.:.6.w.+.3.l.L.%X/././././.(.%X%X$X$X~.A.b.2.2.f.f.f.1.1.y.1.f.f.v.J.(.mX$X%X(./././.;X$X(./.|.XXoXoX'.'.oXoX'.oXoXoXoXoXoXoXoXoXoX].'.oXoXXX].2XZXgXC + - p p 1 g 1 1 g 1 g x IXIXIXIXIXIXIXIXIXIXIXIXIXIXIXIXIXIXIXIXIX",
"IXIXIXIXIXIXIXIXIXIXIXIXIXIXIXIXIXIXIXIXIXIXz 1 0 0 d d g g e p = # A gXSXuX`.XX'.'.oXoX].].XXXXoXoXoXoXoXoXoXoXoXoXoXoXoXoXoXXXXXXXXXXX<X<XXXoXoX1X3XR.<.X.$.6.6.6.6.6.6.6.6.6.6.6.6.6.6.6.6.6.:.3.:.+.%.o.k.R.5X1XoXXXXXXX*X'.XXoXoXoXoXoXoXoXoXoXoXoXoXoXoXoXoXoXoXoXoXoXoXoXoXoXoXoXoXoXoXoXoXoXoXoXoXoXoXoXoXoXoXoXoXoXoXoXoXoXoXoXoXoXoXoXoXoXoXoXoXoXoXXXXXXX'.'.oX<X<X>XH.1.} %.3.:.6.6.6.w.3.| o.y.Y.6X<X<X'.'.oXoXXXXXXXXXoXoXoXoXoXXXXXXX<X'.'.oXrX6X;Xn.-.X.6.6.:.:.6.6.:.:.7.7.:.+.6.6.6.6.6.6.6.6.6.6.6.6.6.6.6.6.6.6.6.6.6.6.6.6.6.6.6.6.6.6.6.6.6.6.6.6.6.6.6.6.6.6.6.6.6.6.6.6.6.6.6.6.6.6.6.6.6.6.6.6.6.6.6.6.6.6.6.6.6.6.6.6.6.6.6.6.6.6.6.6.6.6.6.6.6.6.6.6.6.6.6.6.6.6.6.6.6.6.6.6.6.6.6.6.6.6.6.6.6.6.6.6.6.6.6.6.6.6.6.6.6.6.6.6.6.6.6.:.3.3.w.:.} -.Z.~.MXCXCXCXCXCXuX6X1XaXDX>XA.-.^ } } } } } } } | | / 5.K.BXDXuX6X6XZX4X4XCXCX2XrXZX'.oXoX'.'.oXoX'.oXoXoXoXoXoXoXoXXXXXXX'.<X<XXXXX2XZXdXC + - p p 1 g 1 1 g 1 g z IXIXIXIXIXIXIXIXIXIXIXIXIXIXIXIXIXIXIXIXIX",
"IXIXIXIXIXIXIXIXIXIXIXIXIXIXIXIXIXIXIXIXIXIXz 1 0 d d g g g g y = # A gXSXuX`.XX'.'.oXoX].].XXXXoXoXoXoXoXoXoXoXoXoXoXoXoXoXoXXXXXXXXXXX<X<XXX+XoX<X3XR.<.X.$.6.6.6.6.6.6.6.6.6.6.6.6.6.6.6.6.6.+.3.:.+.%.o.k.R.5X<XoXXXXXXX*X'.XXoXoXoXoXoXoXoXoXoXoXoXoXoXoXoXoXoXoXoXoXoXoXoXoXoXoXoXoXoXoXoXoXoXoXoXoXoXoXoXoXoXoXoXoXoXoXoXoXoXoXoXoXoXoXoXoXoXoXoXoXoXoXXXXXXX'.'.oX<X1X>XJ.1.} %.3.:.7.9.6.w.3.| o.h.Y.6X<XoX'.'.oXoXoXXXXXXXoXoXoXoXoXXXXXXX<X'.'.oXrX6X:Xn.-.X.6.6.:.:.6.6.:.:.7.7.6.+.6.6.6.6.6.6.6.6.6.6.6.6.6.6.6.6.6.6.6.6.6.6.6.6.6.6.6.6.6.6.6.6.6.6.6.6.6.6.6.6.6.6.6.6.6.6.6.6.6.6.6.6.6.6.6.6.6.6.6.6.6.6.6.6.6.6.6.6.6.6.6.6.6.6.6.6.6.6.6.6.6.6.6.6.6.6.6.6.6.6.6.6.6.6.6.6.6.6.6.6.6.6.6.6.6.6.6.6.6.6.6.6.6.6.6.6.6.6.6.6.6.6.6.6.6.6.6.:.:.:.6.+.^ / v.$X6XeXeXeXeXiXrXtX[.sXGXMXA.( ^ =.=.O.O.O.%.%.O. .[ 4.K.5XpX0XtXpXyX+X].yXtX=XwXrX'.oXoX'.'.oXoX'.oXoXoXoXoXoXoXoXXXXXXX'.XXXXXX<X2XZXdXC + - g p 1 g 1 1 g 1 g x IXIXIXIXIXIXIXIXIXIXIXIXIXIXIXIXIXIXIXIXIX",
"IXIXIXIXIXIXIXIXIXIXIXIXIXIXIXIXIXIXIXIXIXIXz g g g g g g d d y ; # A gXSX2X`.<X].].oXoX].].XXXXoXoXoXoXoXoXoXoXoXoXoXoXoXoXoXXXXXOXXXXX<X<XOX+X+X1X3XK.<.X.$.6.6.6.6.6.6.6.6.6.6.6.6.6.6.6.6.6.+.3.:.+.%.o.k.R.5X<XoXoXXXXX*X'.XXoXoXoXoXoXoXoXoXoXoXoXoXoXoXoXoXoXoXoXoXoXoXoXoXoXoXoXoXoXoXoXoXoXoXoXoXoXoXoXoXoXoXoXoXoXoXoXoXoXoXoXoXoXoXoXoXoXoXoXoXoXoXXXXXXX'.'.oX<X<X>XJ.1.} %.3.:.7.9.$.w.3.| o.h.Y.6X<X<X].].oXoXXXXXXXXXoXoXoXoXoXXXXXXXXX'.'.oXrX6X;Xn.-.X.6.6.:.6.7.6.6.6.7.7.:.+.6.6.6.6.6.6.6.6.6.6.6.6.6.6.6.6.6.6.6.6.6.6.6.6.6.6.6.6.6.6.6.6.6.6.6.6.6.6.6.6.6.6.6.6.6.6.6.6.6.6.6.6.6.6.6.6.6.6.6.6.6.6.6.6.6.6.6.6.6.6.6.6.6.6.6.6.6.6.6.6.6.6.6.6.6.6.6.6.6.6.6.6.6.6.6.6.6.6.6.6.6.6.6.6.6.6.6.6.6.6.6.6.6.6.6.6.6.6.6.6.6.6.6.6.6.6.6.6.:.6.9.$.%.| k.~.MXeXwXwX+XoXoX'.].wXiX3XF.,.{ =.%.$.$.$.$.$.@.@.[ u.R.4XrX[.*X'.oX+XoX].*X*X'.].oXoXoXoXoXoXoXoXoXoXoXoXoXoXoXoXoXoX<X<XXXXXXXXX1XZXgXC . , h 4 1 g 1 1 g 1 g z IXIXIXIXIXIXIXIXIXIXIXIXIXIXIXIXIXIXIXIXIX",
"IXIXIXIXIXIXIXIXIXIXIXIXIXIXIXIXIXIXIXIXIXIXz g g g g g g g d y ; # A gXSX2X`.<X].].oXoX].].XXXXoXoXoXoXoXoXoXoXoXoXoXoXoXoXoXXXXXOXXXXX<X<XOX+X+X1X5XK.<.X.$.6.6.6.6.6.6.6.6.6.6.6.6.6.6.6.6.6.+.3.:.+.%.o.k.R.5X<XoXoXXX<X*X'.XXoXoXoXoXoXoXoXoXoXoXoXoXoXoXoXoXoXoXoXoXoXoXoXoXoXoXoXoXoXoXoXoXoXoXoXoXoXoXoXoXoXoXoXoXoXoXoXoXoXoXoXoXoXoXoXoXoXoXoXoXoXoXXXXXXX'.'.oX<X<X>XH.<.} %.:.:.7.9.$.w.3.| o.h.T.6X<X<X].].oXoXXXXXXXXXoXoXoXoXoXXXXXXXXX'.XXoXrX6X;Xn.-.X.6.6.:.6.7.6.6.6.7.7.6.+.6.6.6.6.6.6.6.6.6.6.6.6.6.6.6.6.6.6.6.6.6.6.6.6.6.6.6.6.6.6.6.6.6.6.6.6.6.6.6.6.6.6.6.6.6.6.6.6.6.6.6.6.6.6.6.6.6.6.6.6.6.6.6.6.6.6.6.6.6.6.6.6.6.6.6.6.6.6.6.6.6.6.6.6.6.6.6.6.6.6.6.6.6.6.6.6.6.6.6.6.6.6.6.6.6.6.6.6.6.6.6.6.6.6.6.6.6.6.6.6.6.6.6.6.6.6.6.7.:.0.9.$.%.| k.~.MXeXwXoXoXoX<XXX'.+XiX3XH.>.X.*.$.6.6.6.6.:.+.+.} q.E.6XrX].*X|.XXoXoXoX<X*X<X<XXXoXoXoXoXoXoXoXoXoXoXoXoXoXoXoXoXoX<X<XXXXXXXXX1XZXgXC . , h 4 1 g 1 1 g 1 g z IXIXIXIXIXIXIXIXIXIXIXIXIXIXIXIXIXIXIXIXIX",
"IXIXIXIXIXIXIXIXIXIXIXIXIXIXIXIXIXIXIXIXIXIXz g 0 e g g g g g p ; * A gXSX2X`.<XXXoXoXoX].].XXXXoXoXoXoXoXoXoXoXoXoXoXoXoXoXoXXXXXOXXXXX<X<XXXoXoX1X5XK.>.X.$.6.6.6.6.6.6.6.6.6.6.6.6.6.6.6.6.6.+.w.:.+.%.o.k.R.5X<XoXXXXXXX*X'.XXoXoXoXoXoXoXoXoXoXoXoXoXoXoXoXoXoXoXoXoXoXoXoXoXoXoXoXoXoXoXoXoXoXoXoXoXoXoXoXoXoXoXoXoXoXoXoXoXoXoXoXoXoXoXoXoXoXoXoXoXoXoXXXXXXX'.'.oX<X1X3XH.<.} +.:.:.7.9.$.w.3.| o.h.T.6X<X<X].oXoXoXXXXXXXXXoXoXoXoXoXXXXXXXXX'.XXoXrX6X:Xn.;.X.6.6.:.6.7.6.6.6.7.7.6.+.6.6.6.6.6.6.6.6.6.6.6.6.6.6.6.6.6.6.6.6.6.6.6.6.6.6.6.6.6.6.6.6.6.6.6.6.6.6.6.6.6.6.6.6.6.6.6.6.6.6.6.6.6.6.6.6.6.6.6.6.6.6.6.6.6.6.6.6.6.6.6.6.6.6.6.6.6.6.6.6.6.6.6.6.6.6.6.6.6.6.6.6.6.6.6.6.6.6.6.6.6.6.6.6.6.6.6.6.6.6.6.6.6.6.6.6.6.6.6.6.6.6.6.6.6.6.6.7.:.7.9.$.%.| k.~.MXwXoX'.XX<X<X&X'.<XiX3XH.0.X.*.0.7.7.6.0.7.:.:.o.q.).MXrX'.<X<XOX+XoXoXXX<X<X<XXXoXoXoXoXoXoXoXoXoXoXoXoXoXoXoXXXXX<X<XXXXXOXXX1XZXgXC . , h 4 1 g 1 1 g 1 g z IXIXIXIXIXIXIXIXIXIXIXIXIXIXIXIXIXIXIXIXIX",
"IXIXIXIXIXIXIXIXIXIXIXIXIXIXIXIXIXIXIXIXIXIXz g 0 e g g g g g p ; * A gXSX2X`.<XXXoXoXoX].].XXXXoXoXoXoXoXoXoXoXoXoXoXoXoXoXoXXXXXOXXXXX<X<XXXXXoX1X5XK.<.X.$.6.6.6.6.6.6.6.6.6.6.6.6.6.6.6.6.6.:.w.:.+.%.o.k.R.5X<XoXXXXXXX*X'.XXoXoXoXoXoXoXoXoXoXoXoXoXoXoXoXoXoXoXoXoXoXoXoXoXoXoXoXoXoXoXoXoXoXoXoXoXoXoXoXoXoXoXoXoXoXoXoXoXoXoXoXoXoXoXoXoXoXoXoXoXoXoXXXXXXX'.'.oX<X1X3XH.<.} +.3.:.7.9.6.w.3.| o.h.T.6X<X<XoXoXoXoXXXXXXXXXoXoXoXoXoXXXXXXXXXXXXXoXrX6X:Xn.;.X.6.6.:.6.0.9.6.6.7.7.6.+.6.6.6.6.6.6.6.6.6.6.6.6.6.6.6.6.6.6.6.6.6.6.6.6.6.6.6.6.6.6.6.6.6.6.6.6.6.6.6.6.6.6.6.6.6.6.6.6.6.6.6.6.6.6.6.6.6.6.6.6.6.6.6.6.6.6.6.6.6.6.6.6.6.6.6.6.6.6.6.6.6.6.6.6.6.6.6.6.6.6.6.6.6.6.6.6.6.6.6.6.6.6.6.6.6.6.6.6.6.6.6.6.6.6.6.6.6.6.6.6.6.6.6.6.6.6.6.7.:.7.6.$.%.| k.~.5XoX].'.'.*X&X&X'.<XyX3XF.>.X.*.7.:.6.9.9.0.:.:.o.y.).MX4XXX<X<XXXXXXXXXXXXX<X<XXXoXoXoXoXoXoXoXoXoXoXoXoXoXoXXXXXXX<X<XXXXXOXXX1XJXgXC . , h 4 1 g 1 1 g 1 g z IXIXIXIXIXIXIXIXIXIXIXIXIXIXIXIXIXIXIXIXIX",
"IXIXIXIXIXIXIXIXIXIXIXIXIXIXIXIXIXIXIXIXIXIXz g 0 0 g g g g g p ; * A nXSX2X`.<X'.'.oXoXoXoXXXXXoXoXoXoXoXoXoXoXoXoXoXoXoXoXoXXXXXOXXXXX<X<XXXoXoX1X5XK.<.X.$.6.6.6.6.6.6.6.6.6.6.6.6.6.6.6.6.6.+.w.:.+.%.o.k.R.5X1XoXXXXXXX*X'.XXoXoXoXoXoXoXoXoXoXoXoXoXoXoXoXoXoXoXoXoXoXoXoXoXoXoXoXoXoXoXoXoXoXoXoXoXoXoXoXoXoXoXoXoXoXoXoXoXoXoXoXoXoXoXoXoXoXoXoXoXoXoXXXXXXXXX'.oX<X1X3XJ.1.} +.3.:.9.9.6.w.3.| o.h.T.6XXXoX].'.oXoXXXXXXXXXoXoXoXoXoX<XXXXXXX'.XXoXrX6X:Xn.;.X.6.6.:.6.6.6.6.6.7.7.6.:.6.6.6.6.6.6.6.6.6.6.6.6.6.6.6.6.6.6.6.6.6.6.6.6.6.6.6.6.6.6.6.6.6.6.6.6.6.6.6.6.6.6.6.6.6.6.6.6.6.6.6.6.6.6.6.6.6.6.6.6.6.6.6.6.6.6.6.6.6.6.6.6.6.6.6.6.6.6.6.6.6.6.6.6.6.6.6.6.6.6.6.6.6.6.6.6.6.6.6.6.6.6.6.6.6.6.6.6.6.6.6.6.6.6.6.6.6.6.6.6.6.6.6.6.:.6.6.:.:.:.6.$.O.| g.~.4X0X].[.[.*X*X*X[.=XtX,XF.>./ *.:.:.@.$.9.9.6.$. .u.R.5X1X'.<X&X<X*X*X<XXXXX*X*XXXoXoXoXoXoXoXoXoXoXoXoXoXoXoXXXXXXX<X<X<XOXOXXX1XJXgXC . , h 4 1 g 1 1 g 1 g z IXIXIXIXIXIXIXIXIXIXIXIXIXIXIXIXIXIXIXIXIX",
"IXIXIXIXIXIXIXIXIXIXIXIXIXIXIXIXIXIXIXIXIXIXz g 0 0 g g p g g p ; * A gXSX2X`.<X'.'.oXoXoXoXXXXXoXoXoXoXoXoXoXoXoXoXoXoXoXoXoXXXXXXXoXXX<X<XOX+XoX1X5XK.<.X.$.6.6.6.6.6.6.6.6.6.6.6.6.6.6.6.6.6.+.3.:.+.%.o.k.R.5X1XoXoXXXXX*X'.XXoXoXoXoXoXoXoXoXoXoXoXoXoXoXoXoXoXoXoXoXoXoXoXoXoXoXoXoXoXoXoXoXoXoXoXoXoXoXoXoXoXoXoXoXoXoXoXoXoXoXoXoXoXoXoXoXoXoXoXXXXXoXXXXXXXXX'.oX<X1X3XJ.1.} +.3.:.9.$.6.w.3.| o.h.T.6XXXoX].'.oXoXXXXXXXXXoXoXoXoXoX<XXXXX'.'.XXoXrX6X Xn.;.X.6.6.:.6.6.6.6.6.7.7.6.:.6.6.6.6.6.6.6.6.6.6.6.6.6.6.6.6.6.6.6.6.6.6.6.6.6.6.6.6.6.6.6.6.6.6.6.6.6.6.6.6.6.6.6.6.6.6.6.6.6.6.6.6.6.6.6.6.6.6.6.6.6.6.6.6.6.6.6.6.6.6.6.6.6.6.6.6.6.6.6.6.6.6.6.6.6.6.6.6.6.6.6.6.6.6.6.6.6.6.6.6.6.6.6.6.6.6.6.6.6.6.6.6.6.6.6.6.6.6.6.6.6.6.6.6.:.6.6.:.-.3.6.%.O.| g.~.4X0X].[.'.*X].].[.=XtX,XF.>.) $.:.:.@.&.9.9.$.@.[ <.R.5X4X'.<X'.*X*X*X<XXXoX*X*X'.oXoXoXoXoXoXoXoXoXoXoXoXoXoXXXXXXX<X<X<XOXOXXX<XJXdXC . , h 4 1 g 1 1 g 1 g z IXIXIXIXIXIXIXIXIXIXIXIXIXIXIXIXIXIXIXIXIX",
"IXIXIXIXIXIXIXIXIXIXIXIXIXIXIXIXIXIXIXIXIXIXz g 0 g g g p 1 1 p ; * A nXSX2X`.<X].'.oXoX].].XXXXoXoXoXoXoXoXoXoXoXoXoXoXoXoXoXXXXXOXoXXX<X<XOXoXoX1X5XK.>.X.$.6.6.6.6.6.6.6.6.6.6.6.6.6.6.6.6.6.+.3.:.+.%.o.k.R.5X1XoXoXXXXX'.'.XXoXoXoXoXoXoXoXoXoXoXoXoXoXoXoXoXoXoXoXoXoXoXoXoXoXoXoXoXoXoXoXoXoXoXoXoXoXoXoXoXoXoXoXoXoXoXoXoXoXoXoXoXoXoXoXoXoXoXoXoXoXoXXXXXXXXX].].<X<X>XJ.1.} +.3.:.9.9.$.w.3.| o.h.T.6XXX<X].].].].XXXXXXXXoXoXoXoXXX<X'.'.'.'.'.oXrX6X Xn.;.X.w.6.:.6.6.6.6.6.7.7.6.:.6.6.6.6.6.6.6.6.6.6.6.6.6.6.6.6.6.6.6.6.6.6.6.6.6.6.6.6.6.6.6.6.6.6.6.6.6.6.6.6.6.6.6.6.6.6.6.6.6.6.6.6.6.6.6.6.6.6.6.6.6.6.6.6.6.6.6.6.6.6.6.6.6.6.6.6.6.6.6.6.6.6.6.6.6.6.6.6.6.6.6.6.6.6.6.6.6.6.6.6.6.6.6.6.6.6.6.6.6.6.6.6.6.6.6.6.6.6.6.6.6.6.6.6.6.6.6.:.:.3.$.%.=.| k.~.5X1X].'.XXXXoXXXXX<XuX,XF.,.) 0.:.,.#.@.9.6.:.+.} 5.Y.3X4XXXXX'.*X*X*XXX+X+X].*X].oXoXoXoXoXoXoXoXoXoXoXoXoXoXXXXX<X<X<X<XOXOXXX<XZXdXC . , h 4 1 g 1 1 g 1 g z IXIXIXIXIXIXIXIXIXIXIXIXIXIXIXIXIXIXIXIXIX",
"IXIXIXIXIXIXIXIXIXIXIXIXIXIXIXIXIXIXIXIXIXIXz g g g g g 1 1 0 y ; * A nXSX2X`.<X].].oXoXoX].XXXXoXoXoXoXoXoXoXoXoXoXoXoXoXoXoXXXXXOXoXXX<X<XOXoXoX1X5XK.>.X.$.6.6.6.6.6.6.6.6.6.6.6.6.6.6.6.6.6.+.3.:.+.%.o.k.R.5X1XoXoXXXXX'.'.XXoXoXoXoXoXoXoXoXoXoXoXoXoXoXoXoXoXoXoXoXoXoXoXoXoXoXoXoXoXoXoXoXoXoXoXoXoXoXoXoXoXoXoXoXoXoXoXoXoXoXoXoXoXoXoXoXoXoXoXoXoXoXXXXXXX'.].].<X1X3XJ.1.} +.3.:.7.9.$.w.3.| o.h.T.6X<X<X].].].].XXXXXXXXoXoXoXoXXXXX'.'.'.'.'.oXrX6X:Xn.;.X.w.6.6.6.6.6.6.6.7.7.6.6.6.6.6.6.6.6.6.6.6.6.6.6.6.6.6.6.6.6.6.6.6.6.6.6.6.6.6.6.6.6.6.6.6.6.6.6.6.6.6.6.6.6.6.6.6.6.6.6.6.6.6.6.6.6.6.6.6.6.6.6.6.6.6.6.6.6.6.6.6.6.6.6.6.6.6.6.6.6.6.6.6.6.6.6.6.6.6.6.6.6.6.6.6.6.6.6.6.6.6.6.6.6.6.6.6.6.6.6.6.6.6.6.6.6.6.6.6.6.6.6.6.6.6.6.6.6.6.:.+.w.$.$.O.| k.~.MX4XXXXXXXXXoX+XXX<XuX>XF.,.) 7.,.3.@.#.$.$.:.3.| 1.Y.NX4XoXXX'.*X*X<XXX+X+X].].].oXoXoXoXoXoXoXoXoXoXoXoXoXoXXXXXXX<X<XXXXXXXXX1XJXdXC . , h 4 1 g 1 1 g 1 g z IXIXIXIXIXIXIXIXIXIXIXIXIXIXIXIXIXIXIXIXIX",
"IXIXIXIXIXIXIXIXIXIXIXIXIXIXIXIXIXIXIXIXIXIXz 1 e e e g g e g p = # A gXSXtX_.XXXX'.oXoXoXoXXXXXoXoXoXoXoXoXoXoXoXoXoXoXoXoXoXXXXXXXoXXX<X<XXXXXoX1X3XK.>.} $.6.6.6.6.6.6.6.6.6.6.6.6.6.6.6.6.6.+.6.:.+.+.| k.^.5X<XoXXXXXXXXXXXXXoXoXoXoXoXoXoXoXoXoXoXoXoXoXoXoXoXoXoXoXoXoXoXoXoXoXoXoXoXoXoXoXoXoXoXoXoXoXoXoXoXoXoXoXoXoXoXoXoXoXoXoXoXoXoXoXoXoXoXoXoXoXXXXXXX'.'.].<X<X>XH.1.| %.3.:.w.9.6.w.3. .o.y.Y.6X<X<X'.].oXoXXXXXXXXXoXoXoXoXoXXXXXXXXX'.XXoXrX6X:Xn.-.X.6.:.:.:.7.6.:.:.7.7.6.$.6.6.6.6.6.6.6.6.6.6.6.6.6.6.6.6.6.6.6.6.6.6.6.6.6.6.6.6.6.6.6.6.6.6.6.6.6.6.6.6.6.6.6.6.6.6.6.6.6.6.6.6.6.6.6.6.6.6.6.6.6.6.6.6.6.6.6.6.6.6.6.6.6.6.6.6.6.6.6.6.6.6.6.6.6.6.6.6.6.6.6.6.6.6.6.6.6.6.6.6.6.6.6.6.6.6.6.6.6.6.6.6.6.6.6.6.6.6.6.6.6.6.6.6.6.6.6.6.+.+.w.:.| ` c.(.BXMXCXCXCXCXCXuX].rXGXDXL.` ^ } ( } { [ { [ | ( ^ 1.).JXHXyX2XtXuXCXMXMXJXZXrXiX[.yX1X'.oXoX'.<XoXoXoXoXoXoXXXXXXXXX'.'.'.XXXX'.2XZXdXC + , g p 1 g 1 1 g 1 g z IXIXIXIXIXIXIXIXIXIXIXIXIXIXIXIXIXIXIXIXIX",
"IXIXIXIXIXIXIXIXIXIXIXIXIXIXIXIXIXIXIXIXIXIXz 1 e g g g g e g g = # A gXSXtX_.XXXXXXoXoXoXoXXXXXoXoXoXoXoXoXoXoXoXoXoXoXoXoXoXXXXXXXXXXX<X<XXXXXoX1X3XK.>.} $.6.6.6.6.6.6.6.6.6.6.6.6.6.6.6.6.6.+.6.:.+.+.| g.^.7X<XoXXXXXXXXXXXXXoXoXoXoXoXoXoXoXoXoXoXoXoXoXoXoXoXoXoXoXoXoXoXoXoXoXoXoXoXoXoXoXoXoXoXoXoXoXoXoXoXoXoXoXoXoXoXoXoXoXoXoXoXoXoXoXoXoXoXoXoXoXXXXX*X'.'.oX<X<X>XH.1.o.%.:.:.6.6.6.w.3. .o.y.E.6X<X<X'.'.oXoXXXXXXXXXoXoXoXoXoXXXXXXXXX'.XXoXrX6X:Xn.-.X.3.:.:.:.7.6.:.:.7.7.6.$.6.6.6.6.6.6.6.6.6.6.6.6.6.6.6.6.6.6.6.6.6.6.6.6.6.6.6.6.6.6.6.6.6.6.6.6.6.6.6.6.6.6.6.6.6.6.6.6.6.6.6.6.6.6.6.6.6.6.6.6.6.6.6.6.6.6.6.6.6.6.6.6.6.6.6.6.6.6.6.6.6.6.6.6.6.6.6.6.6.6.6.6.6.6.6.6.6.6.6.6.6.6.6.6.6.6.6.6.6.6.6.6.6.6.6.6.6.6.6.6.6.6.6.6.6.6.6.6.$.$.w.:.-.-.k.K.$X$X.X.X.X.X X X!.`.,X;XG.2.2.y.q.q.u.w.t.4.1.f.1.v.Y. X.X.X!.;X X X/./.lX.X`.XX'.yX1X'.oXoX'.<XoXoXoXoXoXoXXXXXXXXX'.'.'.].'.'.2XZXI.C + , h p y g 1 1 g 1 g x IXIXIXIXIXIXIXIXIXIXIXIXIXIXIXIXIXIXIXIXIX",
"IXIXIXIXIXIXIXIXIXIXIXIXIXIXIXIXIXIXIXIXIXIXz 1 e 4 g d p g e g = # A gXSXtX_.XXXX'.].oXoXoXXXXXoXoXoXoXoXoXoXoXoXoXoXoXoXoXoXXXXXXXoXXX<X<XXXXXoX1X3XK.>.} $.6.6.6.6.6.6.6.6.6.6.6.6.6.6.6.6.6.+.6.:.+.+.| k.^.7X=XoXXXXXXXXXXXXXoXoXoXoXoXoXoXoXoXoXoXoXoXoXoXoXoXoXoXoXoXoXoXoXoXoXoXoXoXoXoXoXoXoXoXoXoXoXoXoXoXoXoXoXoXoXoXoXoXoXoXoXoXoXoXoXoXoXoXoXoXoXXXXX*X'.'.oX<X1X3XH.1.X.%.:.:.7.6.6.6.3. .o.y.E.6X<X<X'.'.oXoXXXXXXXXXoXoXoXoXoXXX'.XXXX'.'.oXrX6X:Xn.-.X.w.:.:.:.7.6.:.:.7.7.6.$.6.6.6.6.6.6.6.6.6.6.6.6.6.6.6.6.6.6.6.6.6.6.6.6.6.6.6.6.6.6.6.6.6.6.6.6.6.6.6.6.6.6.6.6.6.6.6.6.6.6.6.6.6.6.6.6.6.6.6.6.6.6.6.6.6.6.6.6.6.6.6.6.6.6.6.6.6.6.6.6.6.6.6.6.6.6.6.6.6.6.6.6.6.6.6.6.6.6.6.6.6.6.6.6.6.6.6.6.6.6.6.6.6.6.6.6.6.6.6.6.6.6.6.6.6.6.6.6.$.%.&.w.+.| <.D.D.D.F.A.A.D.D.C.C.C.A.A.A.S.J.Y.T.T.J.J.J.J.J.J.K.H.F.V.F.c.C.A.A.A.c.c.F.A.m.J.|.yX1X'.oXoX'.<XoXoXoXoXoXoXoXoXXXXX'.'.'.'.XX'.2XZXI.C + , h p y g 1 1 g 1 g x IXIXIXIXIXIXIXIXIXIXIXIXIXIXIXIXIXIXIXIXIX",
"IXIXIXIXIXIXIXIXIXIXIXIXIXIXIXIXIXIXIXIXIXIXz 1 e e d d d d g g = # A gXSXtX_.OXXX'.].oXoXoXXXXXoXoXoXoXoXoXoXoXoXoXoXoXoXoXoXXXXXOXoXXX<X<XOX+XoX1X3XK.>.} $.6.6.6.6.6.6.6.6.6.6.6.6.6.6.6.6.6.+.6.+.+.+.| k.^.5X=XoXXXXXXXXXXXXXoXoXoXoXoXoXoXoXoXoXoXoXoXoXoXoXoXoXoXoXoXoXoXoXoXoXoXoXoXoXoXoXoXoXoXoXoXoXoXoXoXoXoXoXoXoXoXoXoXoXoXoXoXoXoXoXoXoXoXoXoXoXXXXX*X'.'.oX<X1X3XH.1.} %.:.:.7.6.6.6.3. .o.y.E.6X<X<X'.'.oXoXXXXXXXXXoXoXoXoXoXXX'.XX'.'.'.oXrX6X:Xn.-.X.w.:.:.:.7.6.:.:.7.7.6.$.6.6.6.6.6.6.6.6.6.6.6.6.6.6.6.6.6.6.6.6.6.6.6.6.6.6.6.6.6.6.6.6.6.6.6.6.6.6.6.6.6.6.6.6.6.6.6.6.6.6.6.6.6.6.6.6.6.6.6.6.6.6.6.6.6.6.6.6.6.6.6.6.6.6.6.6.6.6.6.6.6.6.6.6.6.6.6.6.6.6.6.6.6.6.6.6.6.6.6.6.6.6.6.6.6.6.6.6.6.6.6.6.6.6.6.6.6.6.6.6.6.6.6.6.6.6.6.6.$.$.*.t.$.O.:.4.;.,.,.,.,.,.-...+...-.2.A.$XBX5X1X1X4X3X3X3X3XNXBX~.c.2.,.;.,.,.,.2.,.,.<.,.,.g.;XyX1X'.oXoX'.<XoXoXoXoXoXoXoXoXXXXX'.'.].].XX'.2XZXI.C + , h p y g 1 1 g 1 g x IXIXIXIXIXIXIXIXIXIXIXIXIXIXIXIXIXIXIXIXIX",
"IXIXIXIXIXIXIXIXIXIXIXIXIXIXIXIXIXIXIXIXIXIXz 1 e g d d y y d g = # A gXSXtX_.XXXX'.].oXoXoXXXXXoXoXoXoXoXoXoXoXoXoXoXoXoXoXoXXXXXOXoXXX<X<XOX+XoX1X3XK.>.} $.6.6.6.6.6.6.6.6.6.6.6.6.6.6.6.6.6.+.6.:.+.+.o.k.^.5X=XoXoXXXXXXXXXXXoXoXoXoXoXoXoXoXoXoXoXoXoXoXoXoXoXoXoXoXoXoXoXoXoXoXoXoXoXoXoXoXoXoXoXoXoXoXoXoXoXoXoXoXoXoXoXoXoXoXoXoXoXoXoXoXoXoXoXoXoXoXXXXX*X'.'.oX<X1X3XH.1.} %.3.:.7.6.6.6.3. .o.j.E.6X<XoX'.'.oXoXXXXXXXXXoXoXoXoXoXXX'.'.XX'.'.oXrX6X:Xn.-.X.w.:.:.:.6.6.:.:.7.7.6.+.6.6.6.6.6.6.6.6.6.6.6.6.6.6.6.6.6.6.6.6.6.6.6.6.6.6.6.6.6.6.6.6.6.6.6.6.6.6.6.6.6.6.6.6.6.6.6.6.6.6.6.6.6.6.6.6.6.6.6.6.6.6.6.6.6.6.6.6.6.6.6.6.6.6.6.6.6.6.6.6.6.6.6.6.6.6.6.6.6.6.6.6.6.6.6.6.6.6.6.6.6.6.6.6.6.6.6.6.6.6.6.6.6.6.6.6.6.6.6.6.6.6.6.6.6.6.6.6.9.$.6.t.t.%.o.o.( ( ( ( ( / / / X.{ ^ | A.mXFXiXsXsXsXuXuXuX6X6XHX/.z.( ^ { X./ / } / } X./ / y.;XyX1X'.oXoX'.<XoXoXoXoXoXoXoXoXXXXX'.'.'.'.XX'.2XZXI.C + , h p y g 1 1 g 1 g x IXIXIXIXIXIXIXIXIXIXIXIXIXIXIXIXIXIXIXIXIX",
"IXIXIXIXIXIXIXIXIXIXIXIXIXIXIXIXIXIXIXIXIXIXz 1 g g g g y d d g = # A gXSXtX_.XXXX'.].oXoXoXXXXXoXoXoXoXoXoXoXoXoXoXoXoXoXoXoXXXXXOXoXXX<X<XOXoXoX1X3XK.>.} $.6.6.6.6.6.6.6.6.6.6.6.6.6.6.6.6.6.+.6.:.+.+.o.k.^.5X=XoXoXXXXXXXXXXXoXoXoXoXoXoXoXoXoXoXoXoXoXoXoXoXoXoXoXoXoXoXoXoXoXoXoXoXoXoXoXoXoXoXoXoXoXoXoXoXoXoXoXoXoXoXoXoXoXoXoXoXoXoXoXoXoXoXoXoXoXoXXXXXXX'.'.oX<X1X3XH.1.} %.3.:.7.6.6.6.3...o.y.E.6X<XoX'.'.oXoXXXXXXXXXoXoXoXoXoXXXXXXXXX'.'.oXrX6X:Xn.-.X.w.:.:.:.6.:.:.:.7.7.6.+.6.6.6.6.6.6.6.6.6.6.6.6.6.6.6.6.6.6.6.6.6.6.6.6.6.6.6.6.6.6.6.6.6.6.6.6.6.6.6.6.6.6.6.6.6.6.6.6.6.6.6.6.6.6.6.6.6.6.6.6.6.6.6.6.6.6.6.6.6.6.6.6.6.6.6.6.6.6.6.6.6.6.6.6.6.6.6.6.6.6.6.6.6.6.6.6.6.6.6.6.6.6.6.6.6.6.6.6.6.6.6.6.6.6.6.6.6.6.6.6.6.6.6.6.6.6.6.6.0.0.9.6.6.$.+.o.;.0.0.0.$.$.%.%.*.%.[ | A.mXCX[.0X[.[.[.].].*X*XAX.Xz.( ^ %.d.%.%.+.O.@.&.X.%.l.;XyX1X'.oXoX'.<XoXoXoXoXoXoXoXoXXXXX'.'.'.'.XX'.2XZXI.C + , g p 1 g 1 1 g 1 g x IXIXIXIXIXIXIXIXIXIXIXIXIXIXIXIXIXIXIXIXIX",
"IXIXIXIXIXIXIXIXIXIXIXIXIXIXIXIXIXIXIXIXIXIXz 1 p g g g g e g g = # A gXSXtX_.XXoX].].oXoXoXXXXXoXoXoXoXoXoXoXoXoXoXoXoXoXoXoXXXXXOXoXXX<X<XXXoXoX1X3XK.>.} $.6.6.6.6.6.6.6.6.6.6.6.6.6.6.6.6.6.+.:.:.+.+.o.k.^.5X=XoXoXXXXXXXXXXXoXoXoXoXoXoXoXoXoXoXoXoXoXoXoXoXoXoXoXoXoXoXoXoXoXoXoXoXoXoXoXoXoXoXoXoXoXoXoXoXoXoXoXoXoXoXoXoXoXoXoXoXoXoXoXoXoXoXoXoXoXoXXXXXXX'.].oX<X<X>XH.1.} %.3.:.w.6.6.6.3. .o.y.E.6X<XoX'.'.oXoXXXXXXXXXoXoXoXoXoXXXXXXX<X'.'.oXrX6X;Xn.-.X.6.:.:.:.6.6.:.:.7.7.6.+.6.6.6.6.6.6.6.6.6.6.6.6.6.6.6.6.6.6.6.6.6.6.6.6.6.6.6.6.6.6.6.6.6.6.6.6.6.6.6.6.6.6.6.6.6.6.6.6.6.6.6.6.6.6.6.6.6.6.6.6.6.6.6.6.6.6.6.6.6.6.6.6.6.6.6.6.6.6.6.6.6.6.6.6.6.6.6.6.6.6.6.6.6.6.6.6.6.6.6.6.6.6.6.6.6.6.6.6.6.6.6.6.6.6.6.6.6.6.6.6.6.6.6.6.6.6.6.7.7.7.7.:.6.:.6.+.w.7.w.t.t.t.t.t.t.6. .,.A. XyX[.'.[.[.[.[.[.[.`.iX!.v.-.X.d.s.8.7.w.3.w.w.X.0.B.;XyX1X'.oXoX'.<XXXXXoXoXoXoXoXoXXXXX'.'.'.'.XX'.2XZXI.C + , g p 1 g 1 1 g 1 g x IXIXIXIXIXIXIXIXIXIXIXIXIXIXIXIXIXIXIXIXIX",
"IXIXIXIXIXIXIXIXIXIXIXIXIXIXIXIXIXIXIXIXIXIXz 1 p g g g g g g g = # A gXSXtX_.XXoX].].oXoXoXXXXXoXoXoXoXoXoXoXoXoXoXoXoXoXoXoXXXXXOXoXXX<X<XXXoXoX1X3XK.>.} $.6.6.6.6.6.6.6.6.6.6.6.6.6.6.6.6.6.+.:.:.+.+.o.k.^.5X=XoXXXXXXX<XXXXXoXoXoXoXoXoXoXoXoXoXoXoXoXoXoXoXoXoXoXoXoXoXoXoXoXoXoXoXoXoXoXoXoXoXoXoXoXoXoXoXoXoXoXoXoXoXoXoXoXoXoXoXoXoXoXoXoXoXoXoXoXoXXXXXXX'.].oX<X1X3XJ.1.} %.3.:.7.6.6.6.3. .o.y.E.6X<XoX'.].oXoXXXXXXXXXoXoXoXoXoXXXXXXX<X'.'.oXrX6X;Xn.-.X.6.6.:.:.6.6.:.:.7.7.6.$.6.6.6.6.6.6.6.6.6.6.6.6.6.6.6.6.6.6.6.6.6.6.6.6.6.6.6.6.6.6.6.6.6.6.6.6.6.6.6.6.6.6.6.6.6.6.6.6.6.6.6.6.6.6.6.6.6.6.6.6.6.6.6.6.6.6.6.6.6.6.6.6.6.6.6.6.6.6.6.6.6.6.6.6.6.6.6.6.6.6.6.6.6.6.6.6.6.6.6.6.6.6.6.6.6.6.6.6.6.6.6.6.6.6.6.6.6.6.6.6.6.6.6.6.6.6.6.7.7.7.:.+.+.@.w.w.+.$.$.$.$.$.%.$.:.o.} ,.A.:XZXeX+X+X+XoX].].oXXX=X!.C.-.X.9.8.0.7.:.:.3.6./ ;.x.:XyX1X'.oXoX'.<XXXXXoXoXoXoXoXoXXXXX'.'.'.'.XX'.2XZXI.C + , g p 1 g 1 1 g 1 g x IXIXIXIXIXIXIXIXIXIXIXIXIXIXIXIXIXIXIXIXIX",
"IXIXIXIXIXIXIXIXIXIXIXIXIXIXIXIXIXIXIXIXIXIXz g g g g 0 0 0 g g = # A gXSXtX_.XXXX'.].oXoXoXXXXXoXoXoXoXoXoXoXoXoXoXoXoXoXoXoXXXXXOXoXXX<X<XOX+XoX1X5XK.<.X.$.6.6.6.6.6.6.6.6.6.6.6.6.6.6.6.6.6.+.w.:.+.+.o.g.R.5X=XoXXXXXXX<X'.XXoXoXoXoXoXoXoXoXoXoXoXoXoXoXoXoXoXoXoXoXoXoXoXoXoXoXoXoXoXoXoXoXoXoXoXoXoXoXoXoXoXoXoXoXoXoXoXoXoXoXoXoXoXoXoXoXoXoXoXoXoXoXXXXX'.'.'.oX<X1X5XJ.1.| %.3.:.7.6.6.6.3. .o.y.Y.6X<X<X].].oXoXXXXXXXXXoXoXoXoXoXXXXXXXXX'.'.oXrX6X;Xn.-.X.6.:.:.:.7.6.6.6.7.7.6.:.6.6.6.6.6.6.6.6.6.6.6.6.6.6.6.6.6.6.6.6.6.6.6.6.6.6.6.6.6.6.6.6.6.6.6.6.6.6.6.6.6.6.6.6.6.6.6.6.6.6.6.6.6.6.6.6.6.6.6.6.6.6.6.6.6.6.6.6.6.6.6.6.6.6.6.6.6.6.6.6.6.6.6.6.6.6.6.6.6.6.6.6.6.6.6.6.6.6.6.6.6.6.6.6.6.6.6.6.6.6.6.6.6.6.6.6.6.6.6.6.6.6.6.6.6.6.6.6.:.:.:.+.+.@.@.@.@.@.@.+.$.$.&.+.3...} -.A.:XCX+X+XOX+X+X'.'.XXXXaX$XZ.| o.0.0.7.:.3...:.6.( ;.x.:XyX1X'.<XXX'.XXXXXXoXoXoXoXoXoXXXXX].].oXoXoXoX1XZXdXC + , h y 1 g 1 1 g 1 g z IXIXIXIXIXIXIXIXIXIXIXIXIXIXIXIXIXIXIXIXIX",
"IXIXIXIXIXIXIXIXIXIXIXIXIXIXIXIXIXIXIXIXIXIXz g g g g d e e g g = # A gXSXtX_.XXXX'.].oXoXoXXXXXoXoXoXoXoXoXoXoXoXoXoXoXoXoXoXXXXXOXoXXX<X<XOXoXoX1X5XK.<.X.$.6.6.6.6.6.6.6.6.6.6.6.6.6.6.6.6.6.+.3.:.+.+.o.g.R.5X<XoXXXoXoX<X'.XXoXoXoXoXoXoXoXoXoXoXoXoXoXoXoXoXoXoXoXoXoXoXoXoXoXoXoXoXoXoXoXoXoXoXoXoXoXoXoXoXoXoXoXoXoXoXoXoXoXoXoXoXoXoXoXoXoXoXoXoXoXoXXXXX'.'.'.oX<X1X5XJ.1.| %.3.:.7.6.6.6.3. .o.y.Y.6X<X<X].].oXoXXXXXXXXXoXoXoXoXoXXX'.XXXX'.XXoXrX6X:Xn.-.X.6.:.:.:.7.6.6.6.7.7.6.:.6.6.6.6.6.6.6.6.6.6.6.6.6.6.6.6.6.6.6.6.6.6.6.6.6.6.6.6.6.6.6.6.6.6.6.6.6.6.6.6.6.6.6.6.6.6.6.6.6.6.6.6.6.6.6.6.6.6.6.6.6.6.6.6.6.6.6.6.6.6.6.6.6.6.6.6.6.6.6.6.6.6.6.6.6.6.6.6.6.6.6.6.6.6.6.6.6.6.6.6.6.6.6.6.6.6.6.6.6.6.6.6.6.6.6.6.6.6.6.6.6.6.6.6.6.6.6.6.:.:.:.+.+.+.+.+.+.+.+.:.:.:.:.:.3...} -.A.>XCXoXOXOXOXXX*X*X<XOX6XQ.Z...+.7.;.,.:.....:.7.( ;.x.:XyX1X'.<XXX'.XXXXXXoXoXoXoXoXoXoXXX].].oXoXoXoX1XZXdXC + , h y 1 g 1 1 g 1 e z IXIXIXIXIXIXIXIXIXIXIXIXIXIXIXIXIXIXIXIXIX",
"IXIXIXIXIXIXIXIXIXIXIXIXIXIXIXIXIXIXIXIXIXIXz g g g g g e y p g = # A gXSXtX_.XXoX].].oXoXoXXXXXoXoXoXoXoXoXoXoXoXoXoXoXoXoXoXXXXXOXoXXX<X<XOX+X+X1X5XK.<.X.$.6.6.6.6.6.6.6.6.6.6.6.6.6.6.6.6.6.+.3.:.+.%.o.k.R.5X1XoXoXoXoX<X'.XXoXoXoXoXoXoXoXoXoXoXoXoXoXoXoXoXoXoXoXoXoXoXoXoXoXoXoXoXoXoXoXoXoXoXoXoXoXoXoXoXoXoXoXoXoXoXoXoXoXoXoXoXoXoXoXoXoXoXoXoXoXoXXXXX'.'.'.oX<X1X5XH.<.} +.3.:.7.9.6.6.3. .o.y.Y.6X<X<X].].oXoXXXXXXXXXoXoXoXoXoXXXXXXXXX'.XXoXrX6X;Xn.-.X.6.:.:.6.7.6.6.6.7.7.:.+.6.6.6.6.6.6.6.6.6.6.6.6.6.6.6.6.6.6.6.6.6.6.6.6.6.6.6.6.6.6.6.6.6.6.6.6.6.6.6.6.6.6.6.6.6.6.6.6.6.6.6.6.6.6.6.6.6.6.6.6.6.6.6.6.6.6.6.6.6.6.6.6.6.6.6.6.6.6.6.6.6.6.6.6.6.6.6.6.6.6.6.6.6.6.6.6.6.6.6.6.6.6.6.6.6.6.6.6.6.6.6.6.6.6.6.6.6.6.6.6.6.6.6.6.6.6.6.6.6.6.6.6.$.$.$.6.:.:.:.:.:.:.:.:.:...} ,.A.:XaX<X<X<XXX*X&X&X<X3XMX/.Z...+.6.+...#.#.| :.6./ o.x.:XyX1X'.<XoX'.<X<X<XXXXXoXoXoXoXoXXX].].oXoXoXoX1XZXdXC + , h 1 1 g 1 1 0 1 1 z IXIXIXIXIXIXIXIXIXIXIXIXIXIXIXIXIXIXIXIXIX",
"IXIXIXIXIXIXIXIXIXIXIXIXIXIXIXIXIXIXIXIXIXIXz g y p g g e 1 g g = # A gXSXtX_.XXoX].].oXoXoXXXXXoXoXoXoXoXoXoXoXoXoXoXoXoXoXoXXXXXOXoXXX<X<XXXoX+X1X5XK.<.X.$.6.6.6.6.6.6.6.6.6.6.6.6.6.6.6.6.6.+.3.:.+.%.o.k.R.5X1XoXoXoXoX<X'.XXoXoXoXoXoXoXoXoXoXoXoXoXoXoXoXoXoXoXoXoXoXoXoXoXoXoXoXoXoXoXoXoXoXoXoXoXoXoXoXoXoXoXoXoXoXoXoXoXoXoXoXoXoXoXoXoXoXoXoXoXoXoXXXXX'.'.'.oX<X1X5XH.<.} +.3.:.7.9.6.6.3. .o.y.Y.6X<X<X].].oXoXXXXXXXXXoXoXoXoXoXXXXXXXXXXXXXoXrX6X:Xn.-.X.6.:.:.6.7.6.6.6.7.7.6.+.6.6.6.6.6.6.6.6.6.6.6.6.6.6.6.6.6.6.6.6.6.6.6.6.6.6.6.6.6.6.6.6.6.6.6.6.6.6.6.6.6.6.6.6.6.6.6.6.6.6.6.6.6.6.6.6.6.6.6.6.6.6.6.6.6.6.6.6.6.6.6.6.6.6.6.6.6.6.6.6.6.6.6.6.6.6.6.6.6.6.6.6.6.6.6.6.6.6.6.6.6.6.6.6.6.6.6.6.6.6.6.6.6.6.6.6.6.6.6.6.6.6.6.6.6.6.6.6.7.0.6.6.6.6.6.6.7.7.7.6.6.7.7.7.e.3.O.,.A.;X7X`._.'.[.[.&X&XXX+XCX/.Z...+.t.w.w.#.@.:.7.7.X.+.x.:XyX1X'.<XoX'.<X<X<XXXXXoXoXoXoXoXXX].].oXoXoXoX1XZXdXm + , h 4 1 g 1 1 0 1 1 z IXIXIXIXIXIXIXIXIXIXIXIXIXIXIXIXIXIXIXIXIX",
"IXIXIXIXIXIXIXIXIXIXIXIXIXIXIXIXIXIXIXIXIXIXz g e e e e g g e g = # A gXSXtX_.OXXX'.].oXoXoXXXXXoXoXoXoXoXoXoXoXoXoXoXoXoXoXoXXXXXOXoXXX<X<XXXoXoX1X5XK.<.X.$.6.6.6.6.6.6.6.6.6.6.6.6.6.6.6.6.6.+.3.:.+.%.o.k.R.5X1XoXoXXXXX<X'.XXoXoXoXoXoXoXoXoXoXoXoXoXoXoXoXoXoXoXoXoXoXoXoXoXoXoXoXoXoXoXoXoXoXoXoXoXoXoXoXoXoXoXoXoXoXoXoXoXoXoXoXoXoXoXoXoXoXoXoXoXoXoXXXXXXX'.'.oX<X1X5XH.1.} +.:.:.9.9.6.6.3. .o.y.Y.6X<XoX'.'.oXoXXXXXXXXXoXoXoXoXoX<XXXXXXX'.XXoXrX6X;Xn.-.X.6.:.:.6.6.6.6.6.7.7.6.+.6.6.6.6.6.6.6.6.6.6.6.6.6.6.6.6.6.6.6.6.6.6.6.6.6.6.6.6.6.6.6.6.6.6.6.6.6.6.6.6.6.6.6.6.6.6.6.6.6.6.6.6.6.6.6.6.6.6.6.6.6.6.6.6.6.6.6.6.6.6.6.6.6.6.6.6.6.6.6.6.6.6.6.6.6.6.6.6.6.6.6.6.6.6.6.6.6.6.6.6.6.6.6.6.6.6.6.6.6.6.6.6.6.6.6.6.6.6.6.6.6.6.6.6.6.6.6.7.7.0.0.0.7.0.6.6.w.w.&.&.&.&.w.w.r.w.+.>.M.;X=X9X'.'.[.[.[.[.wXeXZX/.z.| o.t.w.r.&.&.:.7.w.X.+.x.:XyX1X'.<XXX'.<X<X<XXXXXoXoXoXoXoXXX].].oXoXoXoX1XZXdXm + , h y 1 g 1 1 g 1 g z IXIXIXIXIXIXIXIXIXIXIXIXIXIXIXIXIXIXIXIXIX",
"IXIXIXIXIXIXIXIXIXIXIXIXIXIXIXIXIXIXIXIXIXIXz g 0 e e e g e e g = # A gXSXtX_.OXXX'.].oXoXoXXXXXoXoXoXoXoXoXoXoXoXoXoXoXoXoXoXXXXXOXoXXX<X<XXXoXoX1X5XK.<.X.$.6.6.6.6.6.6.6.6.6.6.6.6.6.6.6.6.6.+.3.:.+.%.o.k.R.5X1XoXoXXXXX<X'.XXoXoXoXoXoXoXoXoXoXoXoXoXoXoXoXoXoXoXoXoXoXoXoXoXoXoXoXoXoXoXoXoXoXoXoXoXoXoXoXoXoXoXoXoXoXoXoXoXoXoXoXoXoXoXoXoXoXoXoXoXoXoXXXXXXX'.'.oX<X1X5XJ.1.} +.3.:.9.9.6.6.3. .o.y.Y.6X<XoX'.'.oXoXXXXXXXXXoXoXoXoXoX<XXXXX'.'.XXoXrX6X;Xn.-.X.6.:.:.6.7.6.6.:.7.7.6.+.6.6.6.6.6.6.6.6.6.6.6.6.6.6.6.6.6.6.6.6.6.6.6.6.6.6.6.6.6.6.6.6.6.6.6.6.6.6.6.6.6.6.6.6.6.6.6.6.6.6.6.6.6.6.6.6.6.6.6.6.6.6.6.6.6.6.6.6.6.6.6.6.6.6.6.6.6.6.6.6.6.6.6.6.6.6.6.6.6.6.6.6.6.6.6.6.6.6.6.6.6.6.6.6.6.6.6.6.6.6.6.6.6.6.6.6.6.6.6.6.6.6.6.6.6.6.6.6.6.6.6.6.7.6.6.6.X.X.X. .O. .O.X.} } ^ ;.G.5XpXtXyXyXiXsXsXrXZXZXSX.Xx.| / X.X.O.X.} ( o.X.^ / k.>XyX1X'.<XXX'.<X<X<XXXXXoXoXoXoXoXXX].].oXoX+XoX1XZXdXm + , h y 1 g 1 1 g 1 g z IXIXIXIXIXIXIXIXIXIXIXIXIXIXIXIXIXIXIXIXIX",
"IXIXIXIXIXIXIXIXIXIXIXIXIXIXIXIXIXIXIXIXIXIXz g g g d g g g e g = # A gXSXtX_.OXXX'.].oXoXoXXXXXoXoXoXoXoXoXoXoXoXoXoXoXoXoXoXXXXXXXoXXX<X<XXXoXoX1X5XK.<.X.$.6.6.6.6.6.6.6.6.6.6.6.6.6.6.6.6.6.:.3.:.+.%.o.k.R.5X<XoXXXXXXX<X'.XXoXoXoXoXoXoXoXoXoXoXoXoXoXoXoXoXoXoXoXoXoXoXoXoXoXoXoXoXoXoXoXoXoXoXoXoXoXoXoXoXoXoXoXoXoXoXoXoXoXoXoXoXoXoXoXoXoXoXoXoXoXoXXXXXXX'.'.].<X1X5XJ.1.} +.3.:.9.9.6.7.3...o.y.Y.6X<XoX'.'.oXoXXXXXXXXXoXoXoXoXXX<X'.'.'.'.'.oXrX6X;Xn.-.X.6.:.:.6.7.6.6.:.7.7.6.+.6.6.6.6.6.6.6.6.6.6.6.6.6.6.6.6.6.6.6.6.6.6.6.6.6.6.6.6.6.6.6.6.6.6.6.6.6.6.6.6.6.6.6.6.6.6.6.6.6.6.6.6.6.6.6.6.6.6.6.6.6.6.6.6.6.6.6.6.6.6.6.6.6.6.6.6.6.6.6.6.6.6.6.6.6.6.6.6.6.6.6.6.6.6.6.6.6.6.6.6.6.6.6.6.6.6.6.6.6.6.6.6.6.6.6.6.6.6.6.6.6.6.6.6.6.6.6.6.+.@.+.+.:.:.6.6.o.X.X. .o...o.o.} [ [ ;.F.MXGXiX4X4XrXrX7X7X6XCXSX;XC.| o.o._ X.o.o.| o.O.^ | k.>XyX1X'.<XoX'.<X<X<XXXXXoXoXoXoXoXXX].].oXoX+XoX1XZXdXC + , h y 1 g 1 1 g 1 g z IXIXIXIXIXIXIXIXIXIXIXIXIXIXIXIXIXIXIXIXIX",
"IXIXIXIXIXIXIXIXIXIXIXIXIXIXIXIXIXIXIXIXIXIXz g g d y g g g 0 d = # A gXSXtX_.XXXX'.].oXoXoXXXXXoXoXoXoXoXoXoXoXoXoXoXoXoXoXoXXXXXOXXXXX<X<XXX+X<X1X5XK.<.X.$.6.6.6.6.6.6.6.6.6.6.6.6.6.6.6.6.6.+.3.:.+.%.o.k.R.5X<XoXXXXXXX*X'.XXoXoXoXoXoXoXoXoXoXoXoXoXoXoXoXoXoXoXoXoXoXoXoXoXoXoXoXoXoXoXoXoXoXoXoXoXoXoXoXoXoXoXoXoXoXoXoXoXoXoXoXoXoXoXoXoXoXoXoXoXoXoXXXXXXX'.'.].<X1X5XJ.1.} +.3.:.7.9.6.7.3. .o.y.Y.6X<XoX'.].oXoXXXXXXXXXoXoXoXoXXXXX'.'.XX'.'.oXrX6X;Xn.-.X.:.:.:.6.7.6.6.:.7.7.6.+.6.6.6.6.6.6.6.6.6.6.6.6.6.6.6.6.6.6.6.6.6.6.6.6.6.6.6.6.6.6.6.6.6.6.6.6.6.6.6.6.6.6.6.6.6.6.6.6.6.6.6.6.6.6.6.6.6.6.6.6.6.6.6.6.6.6.6.6.6.6.6.6.6.6.6.6.6.6.6.6.6.6.6.6.6.6.6.6.6.6.6.6.6.6.6.6.6.6.6.6.6.6.6.6.6.6.6.6.6.6.6.6.6.6.6.6.6.6.6.6.6.6.6.6.6.6.6.6.+.@.@.+.+.:.>.2.y.1.y.y.y.1.h.1.y.u.,.2.m.$X,X!.!.(./.!.!.Q.(.(.:XW.g.,.1.h.y.y.j.j.h.j.y.<.1.F.>XyX4XXXoXXX'.<X<X<XXXoXoXoXoXoXoXXX].].oXoXoXoX1XZXdXC + , h y 1 g 1 1 g 1 g z IXIXIXIXIXIXIXIXIXIXIXIXIXIXIXIXIXIXIXIXIX",
"IXIXIXIXIXIXIXIXIXIXIXIXIXIXIXIXIXIXIXIXIXIXz 1 g g g g g p y d = # A gXSXtX'.OXXX'.].oXoXoXXXXXoXoXoXoXoXoXoXoXoXoXoXoXoXoXoXXXXXOXOXXX<X<XOXOXXX7X3XY.<.} +.$.6.6.6.6.6.6.6.6.6.6.6.6.6.6.6.6.+.3.:.+.%.o.k.R.5X<XoXoXoXXX*X'.XXoXoXoXoXoXoXoXoXoXoXoXoXoXoXoXoXoXoXoXoXoXoXoXoXoXoXoXoXoXoXoXoXoXoXoXoXoXoXoXoXoXoXoXoXoXoXoXoXoXoXoXoXoXoXoXoXoXoXoXoXoXoXXXXXXX'.].oX<X1X3XJ.1.} +.3.:.7.6.6.7.3. .o.y.Y.6X<X<X'.'.oXoXXXXXoXoXoXoXoXoXoXXXXXXXXX'.'.oXrX6X:Xn.-.X.6.:.:.6.6.6.:.:.7.7.:.+.6.6.6.6.6.6.6.6.6.6.6.6.6.6.6.6.6.6.6.6.6.6.6.6.6.6.6.6.6.6.6.6.6.6.6.6.6.6.6.6.6.6.6.6.6.6.6.6.6.6.6.6.6.6.6.6.6.6.6.6.6.6.6.6.6.6.6.6.6.6.6.6.6.6.6.6.6.6.6.6.6.6.6.6.6.6.6.6.6.6.6.6.6.6.6.6.6.6.6.6.6.6.6.6.6.6.6.6.6.6.6.6.6.6.6.6.6.6.6.6.6.6.6.6.6.6.6.6.6.+.$.&.O.| l.^.(.(.~.W.W.W.!.~.E.Q.:X$XG.f.2.j.g.g.k.k.j.j.k.k.2.k.K.mX X!.Q.~.~.~.~.~.~.~.~.!.<XXXXXXXXXXXXXXXXXXXoXoXoXoXoXoXXX'.'.'.'.'.'.'.2XZXI.C + , h p 1 1 1 1 g 1 g z IXIXIXIXIXIXIXIXIXIXIXIXIXIXIXIXIXIXIXIXIX",
"IXIXIXIXIXIXIXIXIXIXIXIXIXIXIXIXIXIXIXIXIXIXz 1 g g g g g g d y = # A gXSXtX_.OXXX'.].oXoXoXXXXXoXoXoXoXoXoXoXoXoXoXoXoXoXoXoXXXXXOXOXXX<X<X+XOXXX7X3XY.<./ +.&.6.6.6.6.6.6.6.6.6.6.6.6.6.6.6.6.+.3.:.+.%.o.k.R.5X<XoXXXoXoX*X'.XXoXoXoXoXoXoXoXoXoXoXoXoXoXoXoXoXoXoXoXoXoXoXoXoXoXoXoXoXoXoXoXoXoXoXoXoXoXoXoXoXoXoXoXoXoXoXoXoXoXoXoXoXoXoXoXoXoXoXoXoXoXoXXXXXXX'.'.oX<X1X3XH.1.| +.3.:.6.6.6.7.3. .o.y.Y.6X<X<X'.'.oXoXXXXXoXoXoXoXoXoXoXXXXXXXXX'.'.oXrX6X:Xn.-.X.6.:.:.6.6.6.:.:.7.:.:.+.6.6.6.6.6.6.6.6.6.6.6.6.6.6.6.6.6.6.6.6.6.6.6.6.6.6.6.6.6.6.6.6.6.6.6.6.6.6.6.6.6.6.6.6.6.6.6.6.6.6.6.6.6.6.6.6.6.6.6.6.6.6.6.6.6.6.6.6.6.6.6.6.6.6.6.6.6.6.6.6.6.6.6.6.6.6.6.6.6.6.6.6.6.6.6.6.6.6.6.6.6.6.6.6.6.6.6.6.6.6.6.6.6.6.6.6.6.6.6.6.6.6.6.6.6.6.6.6.7.6.$.&.O.| z.Q.DXuX6X7X5X2XyXyX_.*XyX>XF.2.} @.} } | o.o.o.| | } y.R.MXyX].<X*X7X7X1X1X1X<X7X7X<XXXXXXXXXXXXXXXXXXXoXoXoXoXoXoXXX'.'.[.'.'.'.'.2XZXI.C + , h p 1 1 1 1 g 1 g x IXIXIXIXIXIXIXIXIXIXIXIXIXIXIXIXIXIXIXIXIX",
"IXIXIXIXIXIXIXIXIXIXIXIXIXIXIXIXIXIXIXIXIXIXz 1 g g g g g g g g = # A gXSXtX'.OXXX'.].oXoXoXXXXXoXoXoXoXoXoXoXoXoXoXoXoXoXoXoXXXXXOXXXXX<X<XoXXXXX7X3XY.<./ +.&.6.6.6.6.6.6.6.6.6.6.6.6.6.6.6.6.+.w.:.+.%.o.k.R.5X1XoXXXXXXX*X'.XXoXoXoXoXoXoXoXoXoXoXoXoXoXoXoXoXoXoXoXoXoXoXoXoXoXoXoXoXoXoXoXoXoXoXoXoXoXoXoXoXoXoXoXoXoXoXoXoXoXoXoXoXoXoXoXoXoXoXoXoXoXoXXXXXXX'.'.oX<X1X3XH.1.} +.3.:.w.6.6.6.3. .o.y.Y.6X<X<X].].oXoXXXXXoXXXoXoXoXoXoXXXXXXX'.'.'.oXrX6X:Xn.-.X.6.:.:.6.6.6.:.:.7.7.6.+.6.6.6.6.6.6.6.6.6.6.6.6.6.6.6.6.6.6.6.6.6.6.6.6.6.6.6.6.6.6.6.6.6.6.6.6.6.6.6.6.6.6.6.6.6.6.6.6.6.6.6.6.6.6.6.6.6.6.6.6.6.6.6.6.6.6.6.6.6.6.6.6.6.6.6.6.6.6.6.6.6.6.6.6.6.6.6.6.6.6.6.6.6.6.6.6.6.6.6.6.6.6.6.6.6.6.6.6.6.6.6.6.6.6.6.6.6.6.6.6.6.6.6.6.6.6.6.6.:.+.@.&.{ | v.!.AXiXyX4X1XyXiXiX1X6XuX>XF.-.^ [ { { O.O.X.X.} } [ 4.K.MXiXrXyX4XyXyXyXyXyXyXyXyXXXOX<X<XXXXXXXXXXXXXoXoXoXoXoXoXXX'.'.[.'.'.'.'.2XZXI.C + , h p y g 1 1 g 1 g x IXIXIXIXIXIXIXIXIXIXIXIXIXIXIXIXIXIXIXIXIX",
"IXIXIXIXIXIXIXIXIXIXIXIXIXIXIXIXIXIXIXIXIXIXz 1 1 g g g g g g g = # A gXSXtX'.OXXX'.].oXoXoXXXXXoXoXoXoXoXoXoXoXoXoXoXoXoXoXoXXXXXOXXXXX<X<XoXXXXX7X3XY.<./ +.&.6.6.6.6.6.6.6.6.6.6.6.6.6.6.6.6.:.w.:.+.%.o.k.R.5X1XoXXXXXXX*X'.XXoXoXoXoXoXoXoXoXoXoXoXoXoXoXoXoXoXoXoXoXoXoXoXoXoXoXoXoXoXoXoXoXoXoXoXoXoXoXoXoXoXoXoXoXoXoXoXoXoXoXoXoXoXoXoXoXoXoXoXoXoXoXXXXXXX'.'.oX<X1X3XH.1.| +.3.:.6.6.6.6.3. .o.y.Y.6X<X<X].].oXoXXXXXoXXXoXoXoXoXoXXXXX'.'.'.'.oXrX6X:Xn.-.X.6.:.:.6.7.6.:.:.7.7.6.:.6.6.6.6.6.6.6.6.6.6.6.6.6.6.6.6.6.6.6.6.6.6.6.6.6.6.6.6.6.6.6.6.6.6.6.6.6.6.6.6.6.6.6.6.6.6.6.6.6.6.6.6.6.6.6.6.6.6.6.6.6.6.6.6.6.6.6.6.6.6.6.6.6.6.6.6.6.6.6.6.6.6.6.6.6.6.6.6.6.6.6.6.6.6.6.6.6.6.6.6.6.6.6.6.6.6.6.6.6.6.6.6.6.6.6.6.6.6.6.6.6.6.6.6.6.6.6.:.:.+.@.#.{ | v.!.1XwXoX'.[.].].].<X1XuX>XF.,./ O.*.*.*.*.*.*.&.@.[ 4.K.MXyXwX+XoXoXoX].[.'.[.].oXXXXX<X<XXXXXXXXXXXXXoXoXoXoXoXoXXX'.'.'.'.'.'.'.=XZXI.C + , h p y g 1 1 g 1 g x IXIXIXIXIXIXIXIXIXIXIXIXIXIXIXIXIXIXIXIXIX",
"IXIXIXIXIXIXIXIXIXIXIXIXIXIXIXIXIXIXIXIXIXIXz 1 0 0 g g g g g g = # A dXSXtX'.OXXX'.].oXoXoXXXXXoXoXoXoXoXoXoXoXoXoXoXoXoXoXoXXXXXXXXXXX<X<XoXXXXX7X3XY.<./ +.&.6.6.6.6.6.6.6.6.6.6.6.6.6.6.6.6.+.w.:.+.%.o.k.R.5X<XoXXXXXXX*X'.XXoXoXoXoXoXoXoXoXoXoXoXoXoXoXoXoXoXoXoXoXoXoXoXoXoXoXoXoXoXoXoXoXoXoXoXoXoXoXoXoXoXoXoXoXoXoXoXoXoXoXoXoXoXoXoXoXoXoXoXoXoXoXXXXXXX'.'.oXoX<X3XH.<.} +.3.:.6.6.6.6.3. .o.y.Y.6X<XoX].].oXoXXXXXXXXXoXoXoXoXoXXXXX'.'.'.'.oXrX6X:Xn.-.X.6.:.:.6.7.6.:.:.7.7.6.:.6.6.6.6.6.6.6.6.6.6.6.6.6.6.6.6.6.6.6.6.6.6.6.6.6.6.6.6.6.6.6.6.6.6.6.6.6.6.6.6.6.6.6.6.6.6.6.6.6.6.6.6.6.6.6.6.6.6.6.6.6.6.6.6.6.6.6.6.6.6.6.6.6.6.6.6.6.6.6.6.6.6.6.6.6.6.6.6.6.6.6.6.6.6.6.6.6.6.6.6.6.6.6.6.6.6.6.6.6.6.6.6.6.6.6.6.6.6.6.6.6.6.6.6.6.6.6.:.>.:.:.@.O.| v.!.4XwXXXXX'.*X<X<X_.*XyX>XH.<.` 9.$.$.6.9.9.6.+.+...5.Y.3X+XoXXXXX+X+XXX_.&X&X'.XXXXXXXXXXXXXXXXXXXXXXoXoXoXoXoXoXXXXX'.'.'.'.XX'.=XZXI.C + , h p y g 1 1 g 1 g x IXIXIXIXIXIXIXIXIXIXIXIXIXIXIXIXIXIXIXIXIX",
"IXIXIXIXIXIXIXIXIXIXIXIXIXIXIXIXIXIXIXIXIXIXz 1 0 0 g g g g e g = # A dXSXtX'.OXXX'.].oXoXoXXXXXoXoXoXoXoXoXoXoXoXoXoXoXoXoXoXXXXX<XXXXX<XXXoXXX'.<X3XY.<./ +.$.6.6.6.6.6.6.6.6.6.6.6.6.6.6.6.6.+.3.:.+.%.o.k.R.5X<XoXXXXXXX*X'.XXoXoXoXoXoXoXoXoXoXoXoXoXoXoXoXoXoXoXoXoXoXoXoXoXoXoXoXoXoXoXoXoXoXoXoXoXoXoXoXoXoXoXoXoXoXoXoXoXoXoXoXoXoXoXoXoXoXoXoXoXoXoXXXXXXX'.'.oX<X1X3XH.1.} +.3.:.6.6.6.6.3. .o.y.Y.6X<XoX].].oXoXXXXXXXXXoXoXoXoXoXXXXXXXXX'.XXoXrX6X:Xn.-.X.6.:.:.6.7.6.:.:.7.7.6.:.6.6.6.6.6.6.6.6.6.6.6.6.6.6.6.6.6.6.6.6.6.6.6.6.6.6.6.6.6.6.6.6.6.6.6.6.6.6.6.6.6.6.6.6.6.6.6.6.6.6.6.6.6.6.6.6.6.6.6.6.6.6.6.6.6.6.6.6.6.6.6.6.6.6.6.6.6.6.6.6.6.6.6.6.6.6.6.6.6.6.6.6.6.6.6.6.6.6.6.6.6.6.6.6.6.6.6.6.6.6.6.6.6.6.6.6.6.6.6.6.6.6.6.6.6.6.6.7.>.:.:.&.O.| z.Q.yXrX+XXX<X*X<X<X`.XXyXmXH.2.` 7.;.+.:.:.6.+.+.....5.T.3X+XXX3X3XOX+XXX<X&X&X<X<XXXXXXXXXXXXXXXXXXXXXoXoXoXoXoXoXXXXX'.'.'.XXXX'.2XZXI.C + , h p y g 1 1 g 1 g x IXIXIXIXIXIXIXIXIXIXIXIXIXIXIXIXIXIXIXIXIX",
"IXIXIXIXIXIXIXIXIXIXIXIXIXIXIXIXIXIXIXIXIXIXz 1 0 e g g g 1 1 d = # A dXSXtX'.OXXX'.].oXoXoXXXXXoXoXoXoXoXoXoXoXoXoXoXoXoXoXoXXXXX<XXXXX<X'.oXoX'.<X3XY.<./ +.$.6.6.6.6.6.6.6.6.6.6.6.6.6.6.6.6.+.3.:.+.%.o.k.R.5X1XoXXXXXXX*X'.XXoXoXoXoXoXoXoXoXoXoXoXoXoXoXoXoXoXoXoXoXoXoXoXoXoXoXoXoXoXoXoXoXoXoXoXoXoXoXoXoXoXoXoXoXoXoXoXoXoXoXoXoXoXoXoXoXoXoXoXoXoXoXXXXXXX'.'.oX<X<X>XH.1.} +.3.:.6.6.6.6.3. .X.y.Y.6X<XoX'.'.oXoXXXXXXXXXoXoXoXoXoXXXXXXXXXXXXXoXrX6X:Xn.-.X.6.:.:.6.6.6.:.:.7.7.:.+.6.6.6.6.6.6.6.6.6.6.6.6.6.6.6.6.6.6.6.6.6.6.6.6.6.6.6.6.6.6.6.6.6.6.6.6.6.6.6.6.6.6.6.6.6.6.6.6.6.6.6.6.6.6.6.6.6.6.6.6.6.6.6.6.6.6.6.6.6.6.6.6.6.6.6.6.6.6.6.6.6.6.6.6.6.6.6.6.6.6.6.6.6.6.6.6.6.6.6.6.6.6.6.6.6.6.6.6.6.6.6.6.6.6.6.6.6.6.6.6.6.6.6.6.6.6.6.7.7.6.6.&.=.| v.~.4XwX+XXX'.'.XXXX_.<XCXmXH.2.( :.:.:.:.:.w.@.@.@.| 1.Y.NX4XXX3X>XOX+X+X+X<X<XXXXXXXXXXXXXXXXXXXXXXXXXoXoXoXoXoXoXXXXX'.'.'.'.XX'.2XZXI.C + , h p y g 1 1 g 1 g x IXIXIXIXIXIXIXIXIXIXIXIXIXIXIXIXIXIXIXIXIX",
"IXIXIXIXIXIXIXIXIXIXIXIXIXIXIXIXIXIXIXIXIXIXz 1 0 e g g g y 1 y = # A gXSXtX'.OXXX'.].oXoXoXXXXXoXoXoXoXoXoXoXoXoXoXoXoXoXoXoXXXXX<XXXXX<XXXoXoX'.<X3XY.<./ +.$.6.6.6.6.6.6.6.6.6.6.6.6.6.6.6.6.+.3.:.+.%.o.k.R.5X1XoXXXXXXX*X'.XXoXoXoXoXoXoXoXoXoXoXoXoXoXoXoXoXoXoXoXoXoXoXoXoXoXoXoXoXoXoXoXoXoXoXoXoXoXoXoXoXoXoXoXoXoXoXoXoXoXoXoXoXoXoXoXoXoXoXoXoXoXoXXXXXXX'.'.oX<X<X>XH.1.} +.3.:.6.6.6.6.3. .o.y.Y.6X<XoX'.'.oXoXXXXXXXXXoXoXoXoXoXXXXXXXXXXXXXoXrX6X:Xn.-.X.6.:.:.6.6.6.:.:.7.:.:.+.6.6.6.6.6.6.6.6.6.6.6.6.6.6.6.6.6.6.6.6.6.6.6.6.6.6.6.6.6.6.6.6.6.6.6.6.6.6.6.6.6.6.6.6.6.6.6.6.6.6.6.6.6.6.6.6.6.6.6.6.6.6.6.6.6.6.6.6.6.6.6.6.6.6.6.6.6.6.6.6.6.6.6.6.6.6.6.6.6.6.6.6.6.6.6.6.6.6.6.6.6.6.6.6.6.6.6.6.6.6.6.6.6.6.6.6.6.6.6.6.6.6.6.6.6.6.6.6.6.$.$.&.=.} z.~.CXeXeX+XXX<X<X<X_.<XCXmXF.,.} 3.:.,.,.:.@.@.@.+./ 1.R.NX4X'.&X.XXX+X+X+XXX'.'.'.XXXXXXXXXXXXXXXXXXXXoXoXoXoXoXoXXXXX'.'.'.'.XX'.2XZXI.C + , h p y g 1 1 g 1 g x IXIXIXIXIXIXIXIXIXIXIXIXIXIXIXIXIXIXIXIXIX",
"IXIXIXIXIXIXIXIXIXIXIXIXIXIXIXIXIXIXIXIXIXIXz g 1 0 d d g p e g = # A gXSXtX'.OXXX'.].oXoXoXXXXXoXoXoXoXoXoXoXoXoXoXoXoXoXoXoXXXXX<XXXXX*X'.oXoX'.2X3XJ.y.o.o.&.6.6.6.6.6.6.6.6.6.6.6.6.6.6.6.6.:.3.:.+.%.o.k.R.5X1XoXXXXXoX*X'.XXoXoXoXoXoXoXoXoXoXoXoXoXoXoXoXoXoXoXoXoXoXoXoXoXoXoXoXoXoXoXoXoXoXoXoXoXoXoXoXoXoXoXoXoXoXoXoXoXoXoXoXoXoXoXoXoXoXoXoXoXoXoXXXXXXX'.'.oX<X<X>XG.<.} %.:.:.w.6.6.6.3. .o.y.Y.6X<X<X'.'.oXoXXXXXXXXXoXoXoXoXoXXXXXXXXX'.XXoXrX6X:Xn.-.X.6.:.:.6.7.6.:.:.7.7.:.+.6.6.6.6.6.6.6.6.6.6.6.6.6.6.6.6.6.6.6.6.6.6.6.6.6.6.6.6.6.6.6.6.6.6.6.6.6.6.6.6.6.6.6.6.6.6.6.6.6.6.6.6.6.6.6.6.6.6.6.6.6.6.6.6.6.6.6.6.6.6.6.6.6.6.6.6.6.6.6.6.6.6.6.6.6.6.6.6.6.6.6.6.6.6.6.6.6.6.6.6.6.6.6.6.6.6.6.6.6.6.6.6.6.6.6.6.6.6.6.6.6.6.6.6.6.6.6.6.6.%.&.*.=.} k.R.MXyX+XoX'.[.*X*X-X*X4X:XF.4.[ [ +.6.7.:.+.+.+.+. .u.Y.|.2X=X&X&XXXXX+XwX1X1X<X'.XXXXXXXXXXXXXXXXoXoXoXoXoXoXoXoXXXXXoXoXoXoXoXoX2XZXdXC + , h p g g 1 1 g 1 g z IXIXIXIXIXIXIXIXIXIXIXIXIXIXIXIXIXIXIXIXIX",
"IXIXIXIXIXIXIXIXIXIXIXIXIXIXIXIXIXIXIXIXIXIXz g 1 0 d g g 4 e d = # A gXSXtX'.OXoX'.].oXoXoXXXXXoXoXoXoXoXoXoXoXoXoXoXoXoXoXoXXXXX<XoXXX<X'.oXoX'.2X3XJ.y.o.o.&.6.6.6.6.6.6.6.6.6.6.6.6.6.6.6.6.:.3.:.+.%.o.k.R.5X1XoXXXXXXX*X'.XXoXoXoXoXoXoXoXoXoXoXoXoXoXoXoXoXoXoXoXoXoXoXoXoXoXoXoXoXoXoXoXoXoXoXoXoXoXoXoXoXoXoXoXoXoXoXoXoXoXoXoXoXoXoXoXoXoXoXoXoXoXoXXXXXXX'.'.oX<X<X>XG.<.} %.:.:.6.6.6.6.3. .o.y.Y.6X<X<X'.'.oXoXXXXXXXXXoXoXoXoXoXXXXXXXXX'.XXoXrX6X:Xn.-.X.6.:.:.6.7.6.:.:.7.7.6.+.6.6.6.6.6.6.6.6.6.6.6.6.6.6.6.6.6.6.6.6.6.6.6.6.6.6.6.6.6.6.6.6.6.6.6.6.6.6.6.6.6.6.6.6.6.6.6.6.6.6.6.6.6.6.6.6.6.6.6.6.6.6.6.6.6.6.6.6.6.6.6.6.6.6.6.6.6.6.6.6.6.6.6.6.6.6.6.6.6.6.6.6.6.6.6.6.6.6.6.6.6.6.6.6.6.6.6.6.6.6.6.6.6.6.6.6.6.6.6.6.6.6.6.6.6.6.6.6.$.+.$.&.=.} z.~.3XoXoX'.[.[.[.[.9X[.rX>XF.4.[ #.t.t.7.7.w.w.w.t.[ u.K.|.=X[.`.`._.[.'.].].].[.[.oXXXXXXXXXXXXXXXoXoXoXoXoXoXoXoXXXXXoX].oXoXoXoX2XZXdXC + , h p y g 1 1 g 1 g z IXIXIXIXIXIXIXIXIXIXIXIXIXIXIXIXIXIXIXIXIX",
"IXIXIXIXIXIXIXIXIXIXIXIXIXIXIXIXIXIXIXIXIXIXz g 1 e g g g g 1 d = # A gXSXtX'.OXoX=X].oXoXoXXXXXoXoXoXoXoXoXoXoXoXoXoXoXoXoXoXXXXX<XXXXX*X*XoXoX'.2X3XT.y.o.o.&.6.6.6.6.6.6.6.6.6.6.6.6.6.6.6.6.:.3.:.+.%.o.k.R.5X1XoXXXXXXX'.'.XXoXoXoXoXoXoXoXoXoXoXoXoXoXoXoXoXoXoXoXoXoXoXoXoXoXoXoXoXoXoXoXoXoXoXoXoXoXoXoXoXoXoXoXoXoXoXoXoXoXoXoXoXoXoXoXoXoXoXoXoXoXoXXXXXXX'.'.oX<X1X3XG.<./ +.:.:.6.6.6.7.3...o.y.Y.6X<X<X'.'.oXoXXXXXXXXXoXoXoXoXoXXX'.'.XX'.'.oXrX6X:Xn.-.X.6.:.:.6.7.6.:.:.7.7.6.+.6.6.6.6.6.6.6.6.6.6.6.6.6.6.6.6.6.6.6.6.6.6.6.6.6.6.6.6.6.6.6.6.6.6.6.6.6.6.6.6.6.6.6.6.6.6.6.6.6.6.6.6.6.6.6.6.6.6.6.6.6.6.6.6.6.6.6.6.6.6.6.6.6.6.6.6.6.6.6.6.6.6.6.6.6.6.6.6.6.6.6.6.6.6.6.6.6.6.6.6.6.6.6.6.6.6.6.6.6.6.6.6.6.6.6.6.6.6.6.6.6.6.6.6.6.6.6.6.6.:.:.6.} | v.%X2X1X<XoX[.].].].[.].iXNXF.-.[ &.*.%.9.9.6.$.6.6.^ u.R.3XsXqX[.[.*X<XoXoX].].].].].oXoXoXoXoXoXoXoXoXoXoXoXoXoXoXXXXXoX].oXoXoXoX2XZXI.C + , h p y g 1 1 g 1 g z IXIXIXIXIXIXIXIXIXIXIXIXIXIXIXIXIXIXIXIXIX",
"IXIXIXIXIXIXIXIXIXIXIXIXIXIXIXIXIXIXIXIXIXIXz g e e g g g g 0 g = # A dXSXtX'.OXoX].].oXoXoXXXXXoXoXoXoXoXoXoXoXoXoXoXoXoXoXoXXXXX<XXXXX*X*XoXoX'.2X3XT.y.o.o.&.6.6.6.6.6.6.6.6.6.6.6.6.6.6.6.6.+.3.:.+.%.o.k.R.5X1XoXXXXXXX'.'.XXoXoXoXoXoXoXoXoXoXoXoXoXoXoXoXoXoXoXoXoXoXoXoXoXoXoXoXoXoXoXoXoXoXoXoXoXoXoXoXoXoXoXoXoXoXoXoXoXoXoXoXoXoXoXoXoXoXoXoXoXoXoXXXXXXX'.'.oX<X1X3XG.<./ +.:.:.6.6.6.6.3...o.y.Y.6X<X<X'.'.oXoXXXXXXXXXoXoXoXoXoXXX'.'.XX'.'.oXrX6X:Xn.-.X.6.:.:.6.7.6.:.:.7.7.6.+.6.6.6.6.6.6.6.6.6.6.6.6.6.6.6.6.6.6.6.6.6.6.6.6.6.6.6.6.6.6.6.6.6.6.6.6.6.6.6.6.6.6.6.6.6.6.6.6.6.6.6.6.6.6.6.6.6.6.6.6.6.6.6.6.6.6.6.6.6.6.6.6.6.6.6.6.6.6.6.6.6.6.6.6.6.6.6.6.6.6.6.6.6.6.6.6.6.6.6.6.6.6.6.6.6.6.6.6.6.6.6.6.6.6.6.6.6.6.6.6.6.6.6.6.6.6.6.:.:.:.>.:.} -.C.%XBXAXCXMX6XuXuXuX=XtXAXBXF.-.^ o.X.X._ ) ( | | | ^ 5.K.5XpXiXrX1X6XMXCXuXuXuXuXCXoXoXoXoXoXoXoXoXoXoXoXoXoXoXoXoXoXoXoXoXoXoXoXoX2XZXI.C + , h p 1 g 1 1 g 1 g z IXIXIXIXIXIXIXIXIXIXIXIXIXIXIXIXIXIXIXIXIX",
"IXIXIXIXIXIXIXIXIXIXIXIXIXIXIXIXIXIXIXIXIXIXz g g g g g g d g g = # A gXSXtX'.OXXX'.].oXoXoXXXXXoXoXoXoXoXoXoXoXoXoXoXoXoXoXoXXX<X<XXX'.*X*XoXoX'.2X3XT.y.o.o.6.6.6.6.6.6.6.6.6.6.6.6.6.6.6.6.6.+.3.:.+.%.o.k.R.5X<XoXXXXXXX*X'.XXoXoXoXoXoXoXoXoXoXoXoXoXoXoXoXoXoXoXoXoXoXoXoXoXoXoXoXoXoXoXoXoXoXoXoXoXoXoXoXoXoXoXoXoXoXoXoXoXoXoXoXoXoXoXoXoXoXoXoXoXoXoXXXXXXX'.'.oX<X1X3XH.<.} +.:.:.6.6.6.7.3. .o.y.Y.6X<X<X].].oXoXXXXXXXXXoXoXoXoXoXXX'.XXXX'.'.oXrX6X:Xn.-.X.6.:.:.6.6.6.:.:.7.7.6.:.6.6.6.6.6.6.6.6.6.6.6.6.6.6.6.6.6.6.6.6.6.6.6.6.6.6.6.6.6.6.6.6.6.6.6.6.6.6.6.6.6.6.6.6.6.6.6.6.6.6.6.6.6.6.6.6.6.6.6.6.6.6.6.6.6.6.6.6.6.6.6.6.6.6.6.6.6.6.6.6.6.6.6.6.6.6.6.6.6.6.6.6.6.6.6.6.6.6.6.6.6.6.6.6.6.6.6.6.6.6.6.6.6.6.6.6.6.6.6.6.6.6.6.6.6.6.6.:.:.:.>.>.o.;.v.K.mX3XmX.X|.XXOX3X<X,XNXlXF.2.2.<.>.7.>.>.,.,.:.>.,.g.J.$X5X3XOX|.>X>X3X3XXXOXvXNXXXoXoXoXoXoXoXoXoXoXoXoXoXoXoXoXXXXXoXoXoXoXoXoX2XZXI.C + , h p 1 g 1 1 g 1 g z IXIXIXIXIXIXIXIXIXIXIXIXIXIXIXIXIXIXIXIXIX",
"IXIXIXIXIXIXIXIXIXIXIXIXIXIXIXIXIXIXIXIXIXIXz g g g g g g g g g = # A gXFXtX'.OXXX'.].oXoXoXXXXXoXoXoXoXoXoXoXoXoXoXoXoXoXoXoXXX<X<XXX'.*X*XoXoX'.2X3XT.y.o.o.6.6.6.6.6.6.6.6.6.6.6.6.6.6.:.6.6.+.3.:.+.%.o.k.R.5X<XoXXXXXXX*X'.XXoXoXoXoXoXoXoXoXoXoXoXoXoXoXoXoXoXoXoXoXoXoXoXoXoXoXoXoXoXoXoXoXoXoXoXoXoXoXoXoXoXoXoXoXoXoXoXoXoXoXoXoXoXoXoXoXoXoXoXXXXXoXXXXXXX'.'.oX<X1X3XH.<.} +.:.:.6.6.6.7.3. .o.y.Y.6X<X<X].].oXoXXXXXXXXXoXoXoXoXoXXXXXXX<X'.'.oXrX6X:Xn.-.X.6.:.:.6.6.6.:.:.7.7.6.:.6.6.6.6.6.6.6.6.6.6.6.6.6.6.6.6.6.6.6.6.6.6.6.6.6.6.6.6.6.6.6.6.6.6.6.6.6.6.6.6.6.6.6.6.6.6.6.6.6.6.6.6.6.6.6.6.6.6.6.6.6.6.6.6.6.6.6.6.6.6.6.6.6.6.6.6.6.6.6.6.6.6.6.6.6.6.6.6.6.6.6.6.6.6.6.6.6.6.6.6.6.6.6.6.6.6.6.6.6.6.6.6.6.6.6.6.6.6.6.6.6.6.6.6.6.6.6.6.6.:.>.7.0.;.y.C.J.J.J.G.S.S.J.J.S.G.J.J.F.A.S.F.F.D.D.A.A.F.D.D.A.A.A.G.K.J.J.M.J.J.S.S.M.M.J.Y.3XoXoXoXoXoXoXoXoXoXoXoXoXoXoXoXOXOXoXoXoXoXoXXX2XZXI.C + , h p y g 1 1 g 1 g z IXIXIXIXIXIXIXIXIXIXIXIXIXIXIXIXIXIXIXIXIX",
"IXIXIXIXIXIXIXIXIXIXIXIXIXIXIXIXIXIXIXIXIXIXz g y y g g g y g p = # A gXSXtX'.OXXX'.].oXoXoXXXXXoXoXoXoXoXoXoXoXoXoXoXoXoXoXoXXX<X<XXX'.*X*XXXXX'.2X3XT.h.o.o.6.6.6.6.6.6.6.6.6.6.6.6.6.:.:.6.6.+.w.:.+.%.o.k.R.5X1XoXXXXXXX*X'.XXoXoXoXoXoXoXoXoXoXoXoXoXoXoXoXoXoXoXoXoXoXoXoXoXoXoXoXoXoXoXoXoXoXoXoXoXoXoXoXoXoXoXoXoXoXoXoXoXoXoXoXoXoXoXoXoXoXoXoXoXoXoXXXXXXX'.].oX<X<X>XJ.1.} +.:.:.w.6.6.6.3. .o.y.Y.6X<X<X].].oXoXXXXXXXXXoXoXoXoXoXXXXXXXXX'.'.XXrX6X:Xn.-.X.6.:.:.6.6.6.:.:.7.7.6.:.6.6.6.6.6.6.6.6.6.6.6.6.6.6.6.6.6.6.6.6.6.6.6.6.6.6.6.6.6.6.6.6.6.6.6.6.6.6.6.6.6.6.6.6.6.6.6.6.6.6.6.6.6.6.6.6.6.6.6.6.6.6.6.6.6.6.6.6.6.6.6.6.6.6.6.6.6.6.6.6.6.6.6.6.6.6.6.6.6.6.6.6.6.6.6.6.6.6.6.6.6.6.6.6.6.6.6.6.6.6.6.6.6.6.6.6.6.6.6.6.6.6.6.6.6.6.6.6.$.$.6.9.*.*.:.4.5.5.>.>.,.>.<.u.>.>.2.f.F.:XMX<X;X$X;X_._.|.lXVXmXR.c.5.<.<.q.<.<.<.5.2.2.<.u.l.>XoXoXoXoXoXoXoXoXoXoXoXoXoXoXoXOXOXoXoXoXoXXXXX2XZXI.C + , h p y g 1 1 g 1 g z IXIXIXIXIXIXIXIXIXIXIXIXIXIXIXIXIXIXIXIXIX",
"IXIXIXIXIXIXIXIXIXIXIXIXIXIXIXIXIXIXIXIXIXIXz g 1 g g g g g g y = # A gXSXtX'.OXXX'.].oXoXoXXXXXoXoXoXoXoXoXoXoXoXoXoXoXoXoXoXXXXXXXXXXX*X*XXXoX'.2X3XJ.y.o.o.6.6.6.6.6.6.6.6.6.6.6.6.6.:.:.:.6.+.w.:.+.%.o.k.R.2X1XoXXXXXXX*X'.XXoXoXoXoXoXoXoXoXoXoXoXoXoXoXoXoXoXoXoXoXoXoXoXoXoXoXoXoXoXoXoXoXoXoXoXoXoXoXoXoXoXoXoXoXoXoXoXoXoXoXoXoXoXoXoXoXoXoXoXoXoXoXXXXXXX'.].oX<X1X3XH.1.} +.:.:.6.6.6.6.3. .o.y.Y.6X<X<X'.].oXoXXXXXXXXXoXoXoXoXoXXXXXXXXX'.'.XXrX6X:Xn.-.X.6.:.:.6.6.6.:.:.7.7.6.6.6.6.6.6.6.6.6.6.6.6.6.6.6.6.6.6.6.6.6.6.6.6.6.6.6.6.6.6.6.6.6.6.6.6.6.6.6.6.6.6.6.6.6.6.6.6.6.6.6.6.6.6.6.6.6.6.6.6.6.6.6.6.6.6.6.6.6.6.6.6.6.6.6.6.6.6.6.6.6.6.6.6.6.6.6.6.6.6.6.6.6.6.6.6.6.6.6.6.6.6.6.6.6.6.6.6.6.6.6.6.6.6.6.6.6.6.6.6.6.6.6.6.6.6.6.6.6.6.$.%.6.9.d.*.O.} | | [ [ [ [  . .[ [ ^ ` A.BXHXpX6X6XuXiXiXiXZXMXHX$Xb.( ^ ^ / / } } } } / [ %.q.:XoXoXoXoXoXoXXXoXoXoXoXoXoXoXoXOXXXXXoXoXoXoXXX2XZXI.C + , h p g g 1 1 g 1 g z IXIXIXIXIXIXIXIXIXIXIXIXIXIXIXIXIXIXIXIXIX",
"IXIXIXIXIXIXIXIXIXIXIXIXIXIXIXIXIXIXIXIXIXIXz 1 g g 1 0 0 0 0 g = # A gXSXtX_.XXXX'.].oXoXoXXXXXoXoXoXoXoXoXoXoXoXoXoXoXoXoXoXXXXXXXXXXX<X<XXXoXoX1X5XR.<.X.+.6.6.6.6.6.6.6.6.6.6.6.6.6.6.6.6.6.:.3.:.+.%.o.k.R.2X1XoXXXXX<X=X'.oXoXoXoXoXoXoXoXoXoXoXoXoXoXoXoXoXoXoXoXoXoXoXoXoXoXoXoXoXoXoXoXoXoXoXoXoXoXoXoXoXoXoXoXoXoXoXoXoXoXoXoXoXoXoXoXoXoXoXoXoXoXoXXXXXXXXX'.XX<X1X3XG.1.o.$.+.+.6.9.6.7.3.| o.y.E.6X<X<X'.'.oXoXoXXXXXXXoXoXoXoXoXXX'.XX<XXX'.oX1X6X:Xn.-.X.6.:.:.:.7.6.:.:.7.7.6.$.:.6.6.6.6.6.6.6.6.6.6.6.6.6.6.6.6.6.6.6.6.6.6.6.6.6.6.6.6.6.6.6.6.6.6.6.6.6.6.6.6.6.6.6.6.6.6.6.6.6.6.6.6.6.6.6.6.6.6.6.6.6.6.6.6.6.6.6.6.6.6.6.6.6.6.6.6.6.6.6.6.6.6.6.6.6.6.6.6.6.6.6.6.6.6.6.6.6.6.6.6.6.6.6.6.6.6.6.6.6.6.6.6.6.6.6.6.6.6.6.6.6.6.6.6.6.6.6.6.6.6.6.$.$.:.:.:.:.+.+.+.@.@.@.@.+.} ,.A.,XuX*XXXXXoX].*X*X+XOXMX/.v.-.o.6.$.&.+.:.:.6.@.[ O.x.:XyX1X'.oXXX'.<XoXoXXXoXoXoXoXoXXXXX'.'.'.'.'.'.=XZXdXC + - h g y g 1 1 g 1 g x IXIXIXIXIXIXIXIXIXIXIXIXIXIXIXIXIXIXIXIXIX",
"IXIXIXIXIXIXIXIXIXIXIXIXIXIXIXIXIXIXIXIXIXIXz 1 g g g g 0 0 g g = # A gXSXtX_.XXXX'.oXoXoXoXXXXXoXoXoXoXoXoXoXoXoXoXoXoXoXoXoXXXXXXX+XXX<X<XOX+XoX1X5XR.<.X.+.6.6.6.6.6.6.6.6.6.6.6.6.6.6.6.6.6.:.6.+.+.%.o.k.R.2X1XXXXXXX<X=X'.oXoXoXoXoXoXoXoXoXoXoXoXoXoXoXoXoXoXoXoXoXoXoXoXoXoXoXoXoXoXoXoXoXoXoXoXoXoXoXoXoXoXoXoXoXoXoXoXoXoXoXoXoXoXoXoXoXoXoXoXoXoXoXXXXXXXoX'.XX<X1X3XH.1.| $.+.+.6.9.6.7.3.| o.y.T.6X<X<X'.'.oXoXoXXXXXXXoXoXoXoXoXXX'.XX<XXXXXoX1X6X:Xn.-.X.3.:.:.:.7.6.:.:.7.7.6.$.6.6.6.6.6.6.6.6.6.6.6.6.6.6.6.6.6.6.6.6.6.6.6.6.6.6.6.6.6.6.6.6.6.6.6.6.6.6.6.6.6.6.6.6.6.6.6.6.6.6.6.6.6.6.6.6.6.6.6.6.6.6.6.6.6.6.6.6.6.6.6.6.6.6.6.6.6.6.6.6.6.6.6.6.6.6.6.6.6.6.6.6.6.6.6.6.6.6.6.6.6.6.6.6.6.6.6.6.6.6.6.6.6.6.6.6.6.6.6.6.6.6.6.6.6.6.6.6.6.6.7.6.:.:.:.:.6.6.6.6.:.+.@.@.6.+.} -.A.,X8X*XXXXX+XoX*X*XoXoXyX/.x.-.o.6.$.&.:.:.7.7.&.[ ..x.>XyX1X'.<XXX'.<X<X<XXXXXoXoXoXoXXX'.'.'.'.'.'.'.=XCXdXC + - h g y g 1 1 g 1 g x IXIXIXIXIXIXIXIXIXIXIXIXIXIXIXIXIXIXIXIXIX",
"IXIXIXIXIXIXIXIXIXIXIXIXIXIXIXIXIXIXIXIXIXIXz 1 g g g g g g g g = # A gXSXtX_.XXXX'.oXoXoXoXXXXXoXoXoXoXoXoXoXoXoXoXoXoXoXoXoXXXoXXXoXXX<X<XOX+XoX1X5XK.<.X.+.6.6.6.6.6.6.6.6.6.6.6.6.6.6.6.6.6.:.6.+.+.%.o.k.R.2X1XXXXXXX<X'.'.oXoXoXoXoXoXoXoXoXoXoXoXoXoXoXoXoXoXoXoXoXoXoXoXoXoXoXoXoXoXoXoXoXoXoXoXoXoXoXoXoXoXoXoXoXoXoXoXoXoXoXoXoXoXoXoXoXoXoXoXoXoXoXXXXXXXoX].XX<X1X3XH.1.| $.+.+.7.9.6.w.3.| o.y.T.6X<X<X'.'.oXoXoXXXXXXXoXoXoXoXoXXX'.XXXXXXXXoXrX6X:Xn.-.X.w.:.:.:.7.6.:.:.7.7.6.$.6.6.6.6.6.6.6.6.6.6.6.6.6.6.6.6.6.6.6.6.6.6.6.6.6.6.6.6.6.6.6.6.6.6.6.6.6.6.6.6.6.6.6.6.6.6.6.6.6.6.6.6.6.6.6.6.6.6.6.6.6.6.6.6.6.6.6.6.6.6.6.6.6.6.6.6.6.6.6.6.6.6.6.6.6.6.6.6.6.6.6.6.6.6.6.6.6.6.6.6.6.6.6.6.6.6.6.6.6.6.6.6.6.6.6.6.6.6.6.6.6.6.6.6.6.6.6.6.6.9.7.7.7.7.6.6.6.6.6.$.$.$.%.%.6.%.{ -.A.,XuX].XXXXoX].*X*X<XoXyX.Xv.-.;.9.$.6.:.7.0.0.$.} ;.x.>XyX1X'.<XXX'.<X<X<XXXXXoXoXoXoXXX'.'.'.'.'.'.'.1XCXdXC + - h g y g 1 1 g 1 g x IXIXIXIXIXIXIXIXIXIXIXIXIXIXIXIXIXIXIXIXIX",
"IXIXIXIXIXIXIXIXIXIXIXIXIXIXIXIXIXIXIXIXIXIXz 1 g g g g g g g g = # A gXSXtX_.XXXXXXoXoXoXoXXXXXoXoXoXoXoXoXoXoXoXoXoXoXoXoXoXXXoXXXoXXX<X<XXXoXoX1X5XK.<.X.+.6.6.6.6.6.6.6.6.6.6.6.6.6.6.6.6.6.:.6.+.+.%.o.k.R.2X1XXXXXXX<X'.'.oXoXoXoXoXoXoXoXoXoXoXoXoXoXoXoXoXoXoXoXoXoXoXoXoXoXoXoXoXoXoXoXoXoXoXoXoXoXoXoXoXoXoXoXoXoXoXoXoXoXoXoXoXoXoXoXoXoXoXoXoXoXoXXXXXXXXX].XX<X1X3XH.1.| $.+.+.7.9.6.w.3.| o.y.T.6X7X<X'.'.oXoXoXXXXXXXoXoXoXoXoXXX'.XXXXXXXXoXrX6X:Xn.-.X.w.:.:.:.7.6.:.:.7.7.6.$.6.6.6.6.6.6.6.6.6.6.6.6.6.6.6.6.6.6.6.6.6.6.6.6.6.6.6.6.6.6.6.6.6.6.6.6.6.6.6.6.6.6.6.6.6.6.6.6.6.6.6.6.6.6.6.6.6.6.6.6.6.6.6.6.6.6.6.6.6.6.6.6.6.6.6.6.6.6.6.6.6.6.6.6.6.6.6.6.6.6.6.6.6.6.6.6.6.6.6.6.6.6.6.6.6.6.6.6.6.6.6.6.6.6.6.6.6.6.6.6.6.6.6.6.6.6.6.6.6.6.6.7.7.7.7.6.6.6.6.6.6.6.6.$.9.%.{ -.A.>XuX].'.'.].*X*X*X<XoXyX.Xv.-.%.9.6.6.,.:.0.0.$./ ;.c.>XyX1X'.<XXX'.<X<X<XXXXXoXoXoXoXXX'.'.'.'.'.'.'.=XCXdXC + : h g y g 1 1 g 1 g x IXIXIXIXIXIXIXIXIXIXIXIXIXIXIXIXIXIXIXIXIX",
"IXIXIXIXIXIXIXIXIXIXIXIXIXIXIXIXIXIXIXIXIXIXz 1 g g g g g g p y = # A gXSXtX'.XXXX'.].oXoXoXXXXXoXoXoXoXoXoXoXoXoXoXoXoXoXoXoXXXXXOXoXXX*X*XXXoXoX1X5XK.<.X.+.6.6.6.6.6.6.6.6.6.6.6.6.6.6.6.6.6.:.:.+.+.%.o.k.R.2X1XXXXXXXXX'.'.oXoXoXoXoXoXoXoXoXoXoXoXoXoXoXoXoXoXoXoXoXoXoXoXoXoXoXoXoXoXoXoXoXoXoXoXoXoXoXoXoXoXoXoXoXoXoXoXoXoXoXoXoXoXoXoXoXoXoXoXoXoXoXXXXXXXoX].XX<X1X3XH.1.| $.+.+.7.9.6.w.3.| o.j.T.6X<X<X'.].oXoXoXXXXXXXoXoXoXoXoXXX'.'.<XXXXXoX1X6X:Xn.-.X.w.:.:.:.6.6.:.:.7.7.6.+.6.6.6.6.6.6.6.6.6.6.6.6.6.6.6.6.6.6.6.6.6.6.6.6.6.6.6.6.6.6.6.6.6.6.6.6.6.6.6.6.6.6.6.6.6.6.6.6.6.6.6.6.6.6.6.6.6.6.6.6.6.6.6.6.6.6.6.6.6.6.6.6.6.6.6.6.6.6.6.6.6.6.6.6.6.6.6.6.6.6.6.6.6.6.6.6.6.6.6.6.6.6.6.6.6.6.6.6.6.6.6.6.6.6.6.6.6.6.6.6.6.6.6.6.6.6.6.6.6.:.:.:.:.:.7.7.7.6.6.7.7.7.7.7.0.$.{ -.A.,XuX].'.&X*X&X&X&X3X<X2XQ.l.| o.6.6.:.:.:.7.7.$./ ;.c.>XyX1X'.<XXX'.<X<X<XXXXXoXoXoXoXXXXX'.'.'.'.XX'.=XCXdXC + - h g y g 1 1 g 1 g x IXIXIXIXIXIXIXIXIXIXIXIXIXIXIXIXIXIXIXIXIX",
"IXIXIXIXIXIXIXIXIXIXIXIXIXIXIXIXIXIXIXIXIXIXz 1 d g g g g g 1 y = # A gXSXtX_.XXXX'.].oXoXoXXXXXoXoXoXoXoXoXoXoXoXoXoXoXoXoXoXXXXXXXoXXX*X*XXXoX].1X7XK.<.X.+.6.6.6.6.6.6.6.6.6.6.6.6.6.6.6.6.6.:.:.+.+.%.o.k.R.2X1XXXXXXXXX'.'.oXoXoXoXoXoXoXoXoXoXoXoXoXoXoXoXoXoXoXoXoXoXoXoXoXoXoXoXoXoXoXoXoXoXoXoXoXoXoXoXoXoXoXoXoXoXoXoXoXoXoXoXoXoXoXoXoXoXoXoXoXoXoXXXXXXXoX].XX<X1X3XH.1.| $.+.+.7.9.6.w.3.| o.y.T.6X<X<X'.].oXoXoXXXXXXXoXoXoXoXoXXX'.'.<XXXXXoX1X6X:Xn.-.X.w.:.:.:.6.:.:.:.7.7.6.+.6.6.6.6.6.6.6.6.6.6.6.6.6.6.6.6.6.6.6.6.6.6.6.6.6.6.6.6.6.6.6.6.6.6.6.6.6.6.6.6.6.6.6.6.6.6.6.6.6.6.6.6.6.6.6.6.6.6.6.6.6.6.6.6.6.6.6.6.6.6.6.6.6.6.6.6.6.6.6.6.6.6.6.6.6.6.6.6.6.6.6.6.6.6.6.6.6.6.6.6.6.6.6.6.6.6.6.6.6.6.6.6.6.6.6.6.6.6.6.6.6.6.6.6.6.6.6.:.:.:.:.:.:.:.:.:.:.:.:.:.:.7.7.7.7.+.{ ..A.,XiX0X'.&X&X&X&X<XOX+X2X!.l.| %.9.:.:.3.:.6.7.6.) ;.x.>XyX1X'.<XXX'.<X<X<XXXXXoXoXoXoXXXXX'.'.'.'.XX'.=XZXdXC + - h g y g 1 1 g 1 g x IXIXIXIXIXIXIXIXIXIXIXIXIXIXIXIXIXIXIXIXIX",
"IXIXIXIXIXIXIXIXIXIXIXIXIXIXIXIXIXIXIXIXIXIXz 1 1 1 g g g g 1 d = # A dXSXtX'.XXXX'.].oXoXoXXXXXoXoXoXoXoXoXoXoXoXoXoXoXoXoXoXXXXXXXoXXX*X*XXXoX].1X7XK.<.X.+.6.6.6.6.6.6.6.6.6.6.6.6.6.6.6.6.6.:.:.+.+.%.o.k.R.2X1XXXXXXX<X'.'.oXoXoXoXoXoXoXoXoXoXoXoXoXoXoXoXoXoXoXoXoXoXoXoXoXoXoXoXoXoXoXoXoXoXoXoXoXoXoXoXoXoXoXoXoXoXoXoXoXoXoXoXoXoXoXoXoXoXoXoXoXoXoXXXXXXXoX].XX<X1X3XH.1.| $.+.+.7.9.6.w.3.| o.j.T.6X<X<X'.].oXoXoXXXXXXXoXoXoXoXoXXX'.XX<XXX'.oX1X6X;Xn.-.X.6.:.:.:.6.6.:.:.7.7.6.+.6.6.6.6.6.6.6.6.6.6.6.6.6.6.6.6.6.6.6.6.6.6.6.6.6.6.6.6.6.6.6.6.6.6.6.6.6.6.6.6.6.6.6.6.6.6.6.6.6.6.6.6.6.6.6.6.6.6.6.6.6.6.6.6.6.6.6.6.6.6.6.6.6.6.6.6.6.6.6.6.6.6.6.6.6.6.6.6.6.6.6.6.6.6.6.6.6.6.6.6.6.6.6.6.6.6.6.6.6.6.6.6.6.6.6.6.6.6.6.6.6.6.6.6.6.6.6.:.:.:.:.:.:.:.:.:.:.+.@.@.+.:.7.7.6.+.[ ..A.>XiX0X].'.*X<X<XXX+X+XyX!.x.| %.9.6.3...3.6.9.9.) ;.x.:XyX1X'.<XXX'.XXXXXXXXXXoXoXoXoXXXXX'.'.'.'.XX'.=XCXdXC + - h g y g 1 1 g 1 g x IXIXIXIXIXIXIXIXIXIXIXIXIXIXIXIXIXIXIXIXIX",
"IXIXIXIXIXIXIXIXIXIXIXIXIXIXIXIXIXIXIXIXIXIXz 1 0 0 g g g e e d = * A dXSXtX'.OXXX'.].oXoXoXXXXXoXoXoXoXoXoXoXoXoXoXoXoXoXoXoXXXXXXXoXXX<X*XXXoX].1X7XK.<.X.+.6.6.6.6.6.6.6.6.6.6.6.6.6.6.6.6.6.:.6.:.+.%.o.k.R.2X1XXXXXXX<X'.'.oXoXoXoXoXoXoXoXoXoXoXoXoXoXoXoXoXoXoXoXoXoXoXoXoXoXoXoXoXoXoXoXoXoXoXoXoXoXoXoXoXoXoXoXoXoXoXoXoXoXoXoXoXoXoXoXoXoXoXoXoXoXoXXXXXXXoX].XX<X1X3XH.1.| $.:.+.7.9.6.w.:.| o.j.T.6X<X<X'.'.oXoXoXXXXXXXoXoXoXoXoXXX'.XX<XXX'.oX1X6X;Xn.-.X.6.6.:.:.6.6.:.:.7.7.6.$.6.6.6.6.6.6.6.6.6.6.6.6.6.6.6.6.6.6.6.6.6.6.6.6.6.6.6.6.6.6.6.6.6.6.6.6.6.6.6.6.6.6.6.6.6.6.6.6.6.6.6.6.6.6.6.6.6.6.6.6.6.6.6.6.6.6.6.6.6.6.6.6.6.6.6.6.6.6.6.6.6.6.6.6.6.6.6.6.6.6.6.6.6.6.6.6.6.6.6.6.6.6.6.6.6.6.6.6.6.6.6.6.6.6.6.6.6.6.6.6.6.6.6.6.6.6.6.:.:.:.:.:.:.:.:.:.:.@.#.#.#.@.6.6.w.+.[ ..A.mXZXqX].].'.'.XXoX+X+XiX.Xv.;.%.*.$.w...@.6.9.9./ o.x.:XyX1X'.<XXX'.XXXXXXXXXXoXoXoXoXXXXX'.'.'.'.XX'.1XZXdXC + - h g y g 1 1 g 1 g x IXIXIXIXIXIXIXIXIXIXIXIXIXIXIXIXIXIXIXIXIX",
"IXIXIXIXIXIXIXIXIXIXIXIXIXIXIXIXIXIXIXIXIXIXz g 0 e g g g 1 1 y = * A hXSX-X_.3XXX'.oXoXoXoXXXXXoXoXoXoXoXoXoXoXoXoXoXoXoXoXoXXXXXXXoXXX*X*XXXoX].6X3XG.u.X.o.w.6.6.6.6.6.6.6.6.6.6.6.6.6.6.6.6.:.:.+.+.%.o.k.R.2X1XXXXX<X<X'.'.oXoXoXoXoXoXoXoXoXoXoXoXoXoXoXoXoXoXoXoXoXoXoXoXoXoXoXoXoXoXoXoXoXoXoXoXoXoXoXoXoXoXoXoXoXoXoXoXoXoXoXoXoXoXoXoXoXoXoXoXoXoXoXXXXXXXoX'.XX<X1X3XH.<.| +.3.3.7.9.6.w.:.| o.y.Y.6X<X<X'.'.oXoXoXXXXXXXoXoXoXoXoXXXXXXXXX'.'.oXrX6X;Xn.-.X.6.:.:.:.7.6.6.6.7.7.6.:.6.6.6.6.6.6.6.6.6.6.6.6.6.6.6.6.6.6.6.6.6.6.6.6.6.6.6.6.6.6.6.6.6.6.6.6.6.6.6.6.6.6.6.6.6.6.6.6.6.6.6.6.6.6.6.6.6.6.6.6.6.6.6.6.6.6.6.6.6.6.6.6.6.6.6.6.6.6.6.6.6.6.6.6.6.6.6.6.6.6.6.6.6.6.6.6.6.6.6.6.6.6.6.6.6.6.6.6.6.6.6.6.6.6.6.6.6.6.6.6.6.6.6.6.6.6.6.7.;.6.6.t.t.$.+.o.+.O.O.=.=.=.O.O.t.O.^ / n.NXJXeXwXwX0X1X1X1X1XwXHX.Xz.` _ *.&.[  . .+.6.%.X.O.y.mX1X<X<XoXoX'.'.XXXXoXoXoXoXoXoXXXXXXX'.oXoXXXXX2XZXdXC + , h p y g 1 1 g 1 g z IXIXIXIXIXIXIXIXIXIXIXIXIXIXIXIXIXIXIXIXIX",
"IXIXIXIXIXIXIXIXIXIXIXIXIXIXIXIXIXIXIXIXIXIXz g e e g g y y e d ; * A hXSX-X_.4XXXXXoXoXoXoXXXXXoXoXoXoXoXoXoXoXoXoXoXoXoXoXoXXXXXXXoXXX*X*XXXoX].6X3XG.u.X.o.w.6.6.6.6.6.6.6.6.6.6.6.6.6.6.6.6.:.6.+.+.%.o.k.R.2X1XXXXX<X<X'.'.oXoXoXoXoXoXoXoXoXoXoXoXoXoXoXoXoXoXoXoXoXoXoXoXoXoXoXoXoXoXoXoXoXoXoXoXoXoXoXoXoXoXoXoXoXoXoXoXoXoXoXoXoXoXoXoXoXoXoXoXoXoXoXXXXXXXoX'.XX<X1X3XH.<.| +.3.3.7.9.6.w.:.| o.h.T.6X<X<X'.'.oXoXoXXXXXXXoXoXoXoXoXXXXXXXXX'.'.oXrX6X:Xn.-.X.6.:.:.:.7.6.6.6.7.7.6.:.6.6.6.6.6.6.6.6.6.6.6.6.6.6.6.6.6.6.6.6.6.6.6.6.6.6.6.6.6.6.6.6.6.6.6.6.6.6.6.6.6.6.6.6.6.6.6.6.6.6.6.6.6.6.6.6.6.6.6.6.6.6.6.6.6.6.6.6.6.6.6.6.6.6.6.6.6.6.6.6.6.6.6.6.6.6.6.6.6.6.6.6.6.6.6.6.6.6.6.6.6.6.6.6.6.6.6.6.6.6.6.6.6.6.6.6.6.6.6.6.6.6.6.6.6.6.6.7.7.0.$.*.*.%.%.7.-.| |  . .} | o.;.( / -.F.mXJXJX4X1X2X1X2X2X2X2XJX.Xn.` ( +...} | | | ;.| / | 1.>X<X1XoXoXoX'.'.XXXXoXoXoXoXoXoXXXXXXX'.oXoXoXXX2XZXdXC + , h p y g 1 1 g 1 g z IXIXIXIXIXIXIXIXIXIXIXIXIXIXIXIXIXIXIXIXIX",
"IXIXIXIXIXIXIXIXIXIXIXIXIXIXIXIXIXIXIXIXIXIXz g g g g g g g e g ; * A hXSX-X_.3XXX'.].oXoXoXXXXXoXoXoXoXoXoXoXoXoXoXoXoXoXoXoXXXXXXXoXXX*X*XXXXX].6X3XG.u.X.o.w.6.6.6.6.6.6.6.6.6.6.6.6.6.6.6.6.:.6.+.+.%.o.k.R.2X1XoXXX<X<X'.'.oXoXoXoXoXoXoXoXoXoXoXoXoXoXoXoXoXoXoXoXoXoXoXoXoXoXoXoXoXoXoXoXoXoXoXoXoXoXoXoXoXoXoXoXoXoXoXoXoXoXoXoXoXoXoXoXoXoXoXoXoXoXoXXXXXXXoX].XX<X1X3XH.<.| +.3.3.7.9.6.w.3.| o.h.T.6X<X<X'.'.oXoXXXXXXXXXoXoXoXoXoXXX'.XX'.'.'.oXrX6X;Xn.-.X.6.:.:.6.7.6.6.6.7.7.:.+.6.6.6.6.6.6.6.6.6.6.6.6.6.6.6.6.6.6.6.6.6.6.6.6.6.6.6.6.6.6.6.6.6.6.6.6.6.6.6.6.6.6.6.6.6.6.6.6.6.6.6.6.6.6.6.6.6.6.6.6.6.6.6.6.6.6.6.6.6.6.6.6.6.6.6.6.6.6.6.6.6.6.6.6.6.6.6.6.6.6.6.6.6.6.6.6.6.6.6.6.6.6.6.6.6.6.6.6.6.6.6.6.6.6.6.6.6.6.6.6.6.6.6.6.6.6.6.7.7.9.%.%.%.o.7.j.j.g.g.1.1.1.h.h.f.f.h.g.F.^.mXmX(.Q.Q.Q.(.(.(.(.%XK.A.g.h.h.g.1.5.1.g.j.1.2.1.v.>X<X<XoXoXoX'.'.oXoXoXoXoXoXoXoXXXXXXX'.oXoXoXoX2XZXI.C + , h p y g 1 1 g 1 g z IXIXIXIXIXIXIXIXIXIXIXIXIXIXIXIXIXIXIXIXIX",
"IXIXIXIXIXIXIXIXIXIXIXIXIXIXIXIXIXIXIXIXIXIXz g g g g g g g g g ; * A hXSX-X_.3XXX'.].oXoXoXXXXXoXoXoXoXoXoXoXoXoXoXoXoXoXoXoXXXXXXXoXXX*X*XXXXX].6X3XG.u.X.o.w.6.6.6.6.6.6.6.6.6.6.6.6.6.6.6.6.:.6.+.+.%.o.k.R.2X1XoXXXXX<X'.].oXoXoXoXoXoXoXoXoXoXoXoXoXoXoXoXoXoXoXoXoXoXoXoXoXoXoXoXoXoXoXoXoXoXoXoXoXoXoXoXoXoXoXoXoXoXoXoXoXoXoXoXoXoXoXoXoXoXoXoXoXoXoXXXXXXXXX].XX<X1X3XH.<.| +.3.3.7.6.6.w.3.| o.h.T.6X<X<X'.'.oXoXXXXXXXXXoXoXoXoXoXXX'.'.'.'.'.oXrX6X:Xn.-.X.6.:.:.6.7.6.6.6.7.7.6.+.6.6.6.6.6.6.6.6.6.6.6.6.6.6.6.6.6.6.6.6.6.6.6.6.6.6.6.6.6.6.6.6.6.6.6.6.6.6.6.6.6.6.6.6.6.6.6.6.6.6.6.6.6.6.6.6.6.6.6.6.6.6.6.6.6.6.6.6.6.6.6.6.6.6.6.6.6.6.6.6.6.6.6.6.6.6.6.6.6.6.6.6.6.6.6.6.6.6.6.6.6.6.6.6.6.6.6.6.6.6.6.6.6.6.6.6.6.6.6.6.6.6.6.6.6.6.6.7.7.6.%.%.O.o.y.F.L.R.R.K.K.K.Y.Y.Y.^.R.H.A.c.x.c.C.C.C.C.c.c.c.C.g.Z.A.G.K.Y.Y.K.J.J.J.K.K.S.K.W.3XoXoXoXoXoX'.'.oXoXoXoXoXoXoXoXXXXXoXoXoXoXoXoX2XZXI.C + , h p y g 1 1 g 1 g z IXIXIXIXIXIXIXIXIXIXIXIXIXIXIXIXIXIXIXIXIX",
"IXIXIXIXIXIXIXIXIXIXIXIXIXIXIXIXIXIXIXIXIXIXz g g g g g g g g g ; * A hXSX-X_.3XXX'.].oXoXoXXXXXoXoXoXoXoXoXoXoXoXoXoXoXoXoXoXXXXX<XoX'.*X*XXXoX].2X3XG.u.X.o.w.6.6.6.6.6.6.6.6.6.6.6.6.6.6.6.6.:.:.+.+.%.o.k.R.2X1XXXXXXX<X'.'.oXoXoXoXoXoXoXoXoXoXoXoXoXoXoXoXoXoXoXoXoXoXoXoXoXoXoXoXoXoXoXoXoXoXoXoXoXoXoXoXoXoXoXoXoXoXoXoXoXoXoXoXoXoXoXoXoXoXoXoXoXoXoXXXXXXXoX].XX<X1X3XH.<.| +.3.3.7.6.6.w.3.| o.h.T.6X<X<X'.'.].oXXXXXXXXXoXoXoXoXoXXXXXXXXX'.'.oXrX6X;Xn.-.X.6.:.:.6.6.6.6.6.7.7.6.+.6.6.6.6.6.6.6.6.6.6.6.6.6.6.6.6.6.6.6.6.6.6.6.6.6.6.6.6.6.6.6.6.6.6.6.6.6.6.6.6.6.6.6.6.6.6.6.6.6.6.6.6.6.6.6.6.6.6.6.6.6.6.6.6.6.6.6.6.6.6.6.6.6.6.6.6.6.6.6.6.6.6.6.6.6.6.6.6.6.6.6.6.6.6.6.6.6.6.6.6.6.6.6.6.6.6.6.6.6.6.6.6.6.6.6.6.6.6.6.6.6.:.6.6.6.6.6.:.7.:.+.#. .-.x.R.mXMX6X6X3X3XNX5XOXMXMX$XA.2.( | ....-.,.;.;.;.,.} 5.K.,X6X2X<X<X3X3X3X3X,X&X3X6XXXoXoXoXXXXX'.'.oXoXoXoXoXoXoXoXOXXXoXoXoXoXoXoX2XZXI.C + , h p y g 1 1 g 1 g z IXIXIXIXIXIXIXIXIXIXIXIXIXIXIXIXIXIXIXIXIX",
"IXIXIXIXIXIXIXIXIXIXIXIXIXIXIXIXIXIXIXIXIXIXz g g g g g g g y g ; * A hXSX-X_.3XXX'.].oXoXoXXXXXoXoXoXoXoXoXoXoXoXoXoXoXoXoXoXXXXX<XoX'.*X*XXXoX].2X3XG.u.X.o.w.6.6.6.6.6.6.6.6.6.6.6.6.6.6.6.6.:.:.+.+.%.o.k.R.2X1XXXXXXX<X'.'.oXoXoXoXoXoXoXoXoXoXoXoXoXoXoXoXoXoXoXoXoXoXoXoXoXoXoXoXoXoXoXoXoXoXoXoXoXoXoXoXoXoXoXoXoXoXoXoXoXoXoXoXoXoXoXoXoXoXoXoXoXoXoXXXXXXXoX].XX<X1X3XH.<.( +.3.3.7.$.6.w.3.| o.h.T.6X<X<X'.'.oXoXXXXXXXXXoXoXoXoXoXXXXXXXXX'.'.oXrX6X;Xn.-.X.6.:.:.6.7.6.6.:.7.7.6.+.6.6.6.6.6.6.6.6.6.6.6.6.6.6.6.6.6.6.6.6.6.6.6.6.6.6.6.6.6.6.6.6.6.6.6.6.6.6.6.6.6.6.6.6.6.6.6.6.6.6.6.6.6.6.6.6.6.6.6.6.6.6.6.6.6.6.6.6.6.6.6.6.6.6.6.6.6.6.6.6.6.6.6.6.6.6.6.6.6.6.6.6.6.6.6.6.6.6.6.6.6.6.6.6.6.6.6.6.6.6.6.6.6.6.6.6.6.6.6.6.6.6.6.6.6.6.6.:.>.:.@.#. .-.c.(.MXiXiXsXuXyXyXiX].yXAX>XF.,./ [  .} } | X.X.X.} ^ 5.R.MXAXsX=XoXeXeXyXrX1X<XtXrXoXXXXXXXXXXXXXXXoXoXoXoXoXoXoXoXXXXXoXoXoXoXoXoX2XZXI.C + , h p y g 1 1 g 1 g z IXIXIXIXIXIXIXIXIXIXIXIXIXIXIXIXIXIXIXIXIX",
"IXIXIXIXIXIXIXIXIXIXIXIXIXIXIXIXIXIXIXIXIXIXz g g d g g e e y y ; * A hXSX-X_.3XoX].].oXoXoXXXXXoXoXoXoXoXoXoXoXoXoXoXoXoXoXoXXXXX<XoX'.*X*XXXoX].2X3XG.u.X.+.w.6.6.6.6.6.6.6.6.6.6.6.6.6.6.6.6.:.6.+.+.%.o.k.R.4XoXXXXXXX<X'.'.oXoXoXoXoXoXoXoXoXoXoXoXoXoXoXoXoXoXoXoXoXoXoXoXoXoXoXoXoXoXoXoXoXoXoXoXoXoXoXoXoXoXoXoXoXoXoXoXoXoXoXoXoXoXoXoXoXoXoXoXoXoXoXXXXXXXoX].XX<X1X3XH.<.| +.3.3.7.9.6.w.3.| o.h.T.6X<X<X'.'.oXoXXXXXXXXXoXoXoXoXoXXXXXXXXX'.XXoXrX6X;Xn.-.X.6.:.:.6.7.6.6.:.7.7.6.+.6.6.6.6.6.6.6.6.6.6.6.6.6.6.6.6.6.6.6.6.6.6.6.6.6.6.6.6.6.6.6.6.6.6.6.6.6.6.6.6.6.6.6.6.6.6.6.6.6.6.6.6.6.6.6.6.6.6.6.6.6.6.6.6.6.6.6.6.6.6.6.6.6.6.6.6.6.6.6.6.6.6.6.6.6.6.6.6.6.6.6.6.6.6.6.6.6.6.6.6.6.6.6.6.6.6.6.6.6.6.6.6.6.6.6.6.6.6.6.6.6.6.6.6.6.6.6.7.>.:.&.*. .| v.(.4XeXwX0X=X=X<X<X[.oXuXNXH.<.X.*.$.6.7.0.9.$.%.%./ j.E.MXuX*X&X,X+X+XeX+XXX'.*X<X'.'.'.'.'.XXXXXXoXoXoXoXoXoXXXXX+X+XoXoXoXoXoXoX2XZXI.C + , h p y g 1 1 g 1 g z IXIXIXIXIXIXIXIXIXIXIXIXIXIXIXIXIXIXIXIXIX",
"IXIXIXIXIXIXIXIXIXIXIXIXIXIXIXIXIXIXIXIXIXIXz g d d g e e 0 0 d ; * A hXSX=X_.4XoX].].oXoXoXXXXXoXoXoXoXoXoXoXoXoXoXoXoXoXoXoXXXXX<XoX'.*X*XXXoX].2X3XG.u.X.+.w.6.6.6.6.6.6.6.6.6.6.6.6.6.6.6.6.:.w.:.+.%.o.k.^.2X1XoXXXXX<X'.'.oXoXoXoXoXoXoXoXoXoXoXoXoXoXoXoXoXoXoXoXoXoXoXoXoXoXoXoXoXoXoXoXoXoXoXoXoXoXoXoXoXoXoXoXoXoXoXoXoXoXoXoXoXoXoXoXoXoXoXoXoXoXoXXXXXXXoX].XX<X1X3XH.<.| +.3.3.7.9.$.w.3.| o.y.Y.6X<XoX'.'.oXoXXXXXXXXXoXoXoXoXoXXXXXXXXX'.'.oXrX6X;Xn.-.X.:.:.:.6.7.6.6.:.7.7.6.+.6.6.6.6.6.6.6.6.6.6.6.6.6.6.6.6.6.6.6.6.6.6.6.6.6.6.6.6.6.6.6.6.6.6.6.6.6.6.6.6.6.6.6.6.6.6.6.6.6.6.6.6.6.6.6.6.6.6.6.6.6.6.6.6.6.6.6.6.6.6.6.6.6.6.6.6.6.6.6.6.6.6.6.6.6.6.6.6.6.6.6.6.6.6.6.6.6.6.6.6.6.6.6.6.6.6.6.6.6.6.6.6.6.6.6.6.6.6.6.6.6.6.6.6.6.6.6.7.;.:.w.&.{ } k.(.+XwX].].].'.'.'.].oXrX3XH.<.X.*.6.6.0.0.9.9.&.&.0.l.Y.XX1X_.&X3XOX@X+X+X'.'._.'.'.'.'.'.'.'.XXXXoXoXoXoXoXoXXXXXoXoXoXoXoXoXoXoX2XZXI.C + , g p 1 g 1 1 g 1 g z IXIXIXIXIXIXIXIXIXIXIXIXIXIXIXIXIXIXIXIXIX",
"IXIXIXIXIXIXIXIXIXIXIXIXIXIXIXIXIXIXIXIXIXIXz 1 g g 1 0 0 0 0 g = # A gXSXtX_.XXXX'.].oXoXoXXXXXoXoXoXoXoXoXoXoXoXoXoXoXoXoXoXXXXX<XoX'.*X*XXXXXoX1X7XK.<.X.$.6.6.6.6.6.6.6.6.6.6.6.6.6.6.6.6.6.+.3.:.+.%.o.k.R.2X1XoXXXXXXX*X'.XXoXoXoXoXoXoXoXoXoXoXoXoXoXoXoXoXoXoXoXoXoXoXoXoXoXoXoXoXoXoXoXoXoXoXoXoXoXoXoXoXoXoXoXoXoXoXoXoXoXoXoXoXoXoXoXoXoXoXoXoXoXoXXXXXXX'.'.'.<X1X3XH.<.| +.3.3.9.9.$.w.:.| o.y.E.6X<XoX].].oXoXXXXXXXXXoXoXoXoXoXXXXXXXXX'.XXoXrX6X;Xn.-.X.6.:.:.6.6.6.6.:.7.7.:.+.6.6.6.6.6.6.6.6.6.6.6.6.6.6.6.6.6.6.6.6.6.6.6.6.6.6.6.6.6.6.6.6.6.6.6.6.6.6.6.6.6.6.6.6.6.6.6.6.6.6.6.6.6.6.6.6.6.6.6.6.6.6.6.6.6.6.6.6.6.6.6.6.6.6.6.6.6.6.6.6.6.6.6.6.6.6.6.6.6.6.6.6.6.6.6.6.6.6.6.6.6.6.6.6.6.6.6.6.6.6.6.6.6.6.6.6.6.6.6.6.6.6.6.6.6.6.6.6.:.6.6.+.=.} k.(.CXeX].].].oXoXXX+X+XiX3XH.>.[ #.3.:.:.6.6.$.$.+.| h.T.2X1X'.<XOX+X+XXXXXXX'.*X*X*X<X<X<X<XXXXXXXXXXXoXoXoXoXoXoXoXoX].].oXXXXXoX2XZXI.C + , g p 1 g 1 1 g 1 g x IXIXIXIXIXIXIXIXIXIXIXIXIXIXIXIXIXIXIXIXIX",
"IXIXIXIXIXIXIXIXIXIXIXIXIXIXIXIXIXIXIXIXIXIXz 1 g g g g 0 0 g g = # A gXSXtX_.XXXX'.oXoXoXoXXXXXoXoXoXoXoXoXoXoXoXoXoXoXoXoXoXXXXX<XoX'.*X*XXXXXoX1X7XK.<.X.$.6.6.6.6.6.6.6.6.6.6.6.6.6.6.6.6.6.+.w.:.:.%.o.k.R.5X1XoXXXXX<X*X'.XXoXoXoXoXoXoXoXoXoXoXoXoXoXoXoXoXoXoXoXoXoXoXoXoXoXoXoXoXoXoXoXoXoXoXoXoXoXoXoXoXoXoXoXoXoXoXoXoXoXoXoXoXoXoXoXoXoXoXoXoXoXoXXXXXXX'.].'.<X1X3XH.<.| +.3.3.9.9.$.w.:.| o.y.R.5X<XoX].'.oXoXXXXXXXXXoXoXoXoXoXXXXXXXXX'.XXoXrX6X;Xn.-.X.6.:.:.6.6.6.:.:.7.7.6.+.6.6.6.6.6.6.6.6.6.6.6.6.6.6.6.6.6.6.6.6.6.6.6.6.6.6.6.6.6.6.6.6.6.6.6.6.6.6.6.6.6.6.6.6.6.6.6.6.6.6.6.6.6.6.6.6.6.6.6.6.6.6.6.6.6.6.6.6.6.6.6.6.6.6.6.6.6.6.6.6.6.6.6.6.6.6.6.6.6.6.6.6.6.6.6.6.6.6.6.6.6.6.6.6.6.6.6.6.6.6.6.6.6.6.6.6.6.6.6.6.6.6.6.6.6.6.6.6.+.w.6.+.=.} k.(.MXwX'.'.].oXXXXXXXoXiX3XH.>.[ #.3.:.6.$.+.w.:.:.| y.T.2X1X'.+XXX+XXX<X<XXX'.'.*X*X<X<X<X<X<XXXXXXXXXoXoXoXoXoXoXoXoX].].XXXXXXoX1XZXdXC + , g p 1 g 1 1 g 1 g x IXIXIXIXIXIXIXIXIXIXIXIXIXIXIXIXIXIXIXIXIX",
"IXIXIXIXIXIXIXIXIXIXIXIXIXIXIXIXIXIXIXIXIXIXz 1 g g g g g g g g = # A gXSXtX_.XXXX'.oXoXoXoXXXXXoXoXoXoXoXoXoXoXoXoXoXoXoXoXoXXXXXXXoX'.*X*XXXoXoX1X7XK.<.X.$.6.6.6.6.6.6.6.6.6.6.6.6.6.6.6.6.6.+.w.:.+.%.o.k.R.5X<XoXXXXXXX*X'.XXoXoXoXoXoXoXoXoXoXoXoXoXoXoXoXoXoXoXoXoXoXoXoXoXoXoXoXoXoXoXoXoXoXoXoXoXoXoXoXoXoXoXoXoXoXoXoXoXoXoXoXoXoXoXoXoXoXoXoXoXoXoXXXXXXX'.].oX<X1X3XH.<.( +.3.3.9.9.$.w.:.| o.y.R.6X<XoX].'.XXXXXXXXXXXXoXoXoXoXoXXX'.XXXX'.'.oXrX6X;Xn.-.X.6.:.:.6.6.6.6.:.7.7.6.+.6.6.6.6.6.6.6.6.6.6.6.6.6.6.6.6.6.6.6.6.6.6.6.6.6.6.6.6.6.6.6.6.6.6.6.6.6.6.6.6.6.6.6.6.6.6.6.6.6.6.6.6.6.6.6.6.6.6.6.6.6.6.6.6.6.6.6.6.6.6.6.6.6.6.6.6.6.6.6.6.6.6.6.6.6.6.6.6.6.6.6.6.6.6.6.6.6.6.6.6.6.6.6.6.6.6.6.6.6.6.6.6.6.6.6.6.6.6.6.6.6.6.6.6.6.6.6.6.+.6.6.+.O.} k.(.4XwX'.'.[.'.'.'.'.oXiX3XH.>.} &.w.6.6.6.6.6.6.$.o.y.Y.3X4XXXXXXXXX<X<XXXXX+XoXXX<X<X<X<X<X<XXXXXXXXXoXoXoXoXoXoXoXoX].].XXXXoXoX1XZXdXC + , g p 1 g 1 1 g 1 g x IXIXIXIXIXIXIXIXIXIXIXIXIXIXIXIXIXIXIXIXIX",
"IXIXIXIXIXIXIXIXIXIXIXIXIXIXIXIXIXIXIXIXIXIXz 1 g g g g g g g g = # A gXSXtX_.XXXXXXoXoXoXoXXXXXoXoXoXoXoXoXoXoXoXoXoXoXoXoXoXXXXXXXoX'.*X*XXXoXoX1X7XK.<.X.$.6.6.6.6.6.6.6.6.6.6.6.6.6.6.6.6.6.+.w.:.+.%.o.k.R.5X<XoXXXXXXX*X'.XXoXoXoXoXoXoXoXoXoXoXoXoXoXoXoXoXoXoXoXoXoXoXoXoXoXoXoXoXoXoXoXoXoXoXoXoXoXoXoXoXoXoXoXoXoXoXoXoXoXoXoXoXoXoXoXoXoXoXoXoXoXoXXXXXXX'.].oX<X1X3XH.<.| +.3.3.9.9.$.w.:.| o.y.R.6X<XoX].'.XXXXXXXXXXXXoXoXoXoXoXXX'.XX'.'.'.oXrX6X;Xn.-.X.6.:.:.6.7.6.6.6.7.7.6.+.6.6.6.6.6.6.6.6.6.6.6.6.6.6.6.6.6.6.6.6.6.6.6.6.6.6.6.6.6.6.6.6.6.6.6.6.6.6.6.6.6.6.6.6.6.6.6.6.6.6.6.6.6.6.6.6.6.6.6.6.6.6.6.6.6.6.6.6.6.6.6.6.6.6.6.6.6.6.6.6.6.6.6.6.6.6.6.6.6.6.6.6.6.6.6.6.6.6.6.6.6.6.6.6.6.6.6.6.6.6.6.6.6.6.6.6.6.6.6.6.6.6.6.6.6.6.6.6.:.6.6.+. .| k.(.4XoX'._.[.'._.'.[.].iX3XH.<./ $.7.7.9.9.9.6.9.6.X.u.Y.MX4XoXXX'.*X*X*XXX+X+XoXXXXX<X<X<X<X<XXXXXXXXXoXoXoXoXoXoXoXoXoX].XXXXoXXX1XZXdXC + , g p 1 g 1 1 g 1 g x IXIXIXIXIXIXIXIXIXIXIXIXIXIXIXIXIXIXIXIXIX",
"IXIXIXIXIXIXIXIXIXIXIXIXIXIXIXIXIXIXIXIXIXIXz 1 g g g g g g p y = # A gXSXtX_.XXXX'.].oXoXoXXXXXoXoXoXoXoXoXoXoXoXoXoXoXoXoXoXXXXXXXoX'.*X*XXXoXoX1X7XK.<.X.$.6.6.6.6.6.6.6.6.6.6.6.6.6.6.6.6.6.:.3.:.+.%.o.k.R.5X<XoXoXoXoX*X'.XXoXoXoXoXoXoXoXoXoXoXoXoXoXoXoXoXoXoXoXoXoXoXoXoXoXoXoXoXoXoXoXoXoXoXoXoXoXoXoXoXoXoXoXoXoXoXoXoXoXoXoXoXoXoXoXoXoXoXoXoXoXoXXXXX'.].].oX<X1X3XH.<.| +.3.3.7.9.$.w.:.| o.y.E.6X<XoX].'.XXXXXXXXXXXXoXoXoXoXoXXX'.'.XX'.'.oXrX6X;Xn.-.X.6.:.:.6.7.6.6.6.7.7.6.:.6.6.6.6.6.6.6.6.6.6.6.6.6.6.6.6.6.6.6.6.6.6.6.6.6.6.6.6.6.6.6.6.6.6.6.6.6.6.6.6.6.6.6.6.6.6.6.6.6.6.6.6.6.6.6.6.6.6.6.6.6.6.6.6.6.6.6.6.6.6.6.6.6.6.6.6.6.6.6.6.6.6.6.6.6.6.6.6.6.6.6.6.6.6.6.6.6.6.6.6.6.6.6.6.6.6.6.6.6.6.6.6.6.6.6.6.6.6.6.6.6.6.6.6.6.6.6.6.6.6.6.+. .| k.(.3X<X*X&X&X&X*X'.].0XiX3XH.2./ %.6.6.$.$.9.9.0.:.[ 4.K.MX4X].].[.*X*X*X].oXoXoXXX<X<X<X<X<X<XXXXXXXXXoXoXoXoXoXoXoXoX].].XXXXXXoX1XZXdXC + , g p 1 g 1 1 g 1 g x IXIXIXIXIXIXIXIXIXIXIXIXIXIXIXIXIXIXIXIXIX",
"IXIXIXIXIXIXIXIXIXIXIXIXIXIXIXIXIXIXIXIXIXIXz 1 d g g g g g 1 y = # A gXSXtX_.XXXX'.].oXoXoXXXXXoXoXoXoXoXoXoXoXoXoXoXoXoXoXoXXXXXXXoX'.*X*XXXoXoX1X7XK.<.X.$.6.6.6.6.6.6.6.6.6.6.6.6.6.6.6.6.6.:.3.:.+.%.o.k.R.5X<XoXoXXXoX*X'.XXoXoXoXoXoXoXoXoXoXoXoXoXoXoXoXoXoXoXoXoXoXoXoXoXoXoXoXoXoXoXoXoXoXoXoXoXoXoXoXoXoXoXoXoXoXoXoXoXoXoXoXoXoXoXoXoXoXoXoXoXoXoXXXXX'.].].oX<X1X3XH.<.| +.3.3.7.9.$.w.:.| o.y.E.6X<XoX].'.XXXXXXXXXXXXoXoXoXoXoXXXXXXXXX'.'.oXrX6X;Xn.-.X.6.:.:.6.7.6.6.6.7.7.6.:.6.6.6.6.6.6.6.6.6.6.6.6.6.6.6.6.6.6.6.6.6.6.6.6.6.6.6.6.6.6.6.6.6.6.6.6.6.6.6.6.6.6.6.6.6.6.6.6.6.6.6.6.6.6.6.6.6.6.6.6.6.6.6.6.6.6.6.6.6.6.6.6.6.6.6.6.6.6.6.6.6.6.6.6.6.6.6.6.6.6.6.6.6.6.6.6.6.6.6.6.6.6.6.6.6.6.6.6.6.6.6.6.6.6.6.6.6.6.6.6.6.6.6.6.6.6.6.6.$.w.6.:...| k.(.MX4X*X*X*X=X=X].].rXuX3XH.2./ O.%.%.%.%.6.9.0.:.[ <.K.MXyXwXrX].=X=X=X<XoX+X<X<X<X<X<X<X<X<XXXXXXXXXoXoXoXoXoXoXoXoX].].XXXXoX<X1XZXdXC + , g p 1 g 1 1 g 1 g x IXIXIXIXIXIXIXIXIXIXIXIXIXIXIXIXIXIXIXIXIX",
"IXIXIXIXIXIXIXIXIXIXIXIXIXIXIXIXIXIXIXIXIXIXz 1 1 1 g g g g 1 d = # A gXSXtX_.XXXX'.].oXoXoXXXXXoXoXoXoXoXoXoXoXoXoXoXoXoXoXoXXXXXXXoX'.*X*XXXoXoX1X7XK.<.X.$.6.6.6.6.6.6.6.6.6.6.6.6.6.6.6.6.6.+.3.:.+.%.o.k.R.5X1XoXoXXXXX'.'.XXoXoXoXoXoXoXoXoXoXoXoXoXoXoXoXoXoXoXoXoXoXoXoXoXoXoXoXoXoXoXoXoXoXoXoXoXoXoXoXoXoXoXoXoXoXoXoXoXoXoXoXoXoXoXoXoXoXoXoXoXoXoXXXXX'.].].XX<X1X3XH.<.| %.3.3.7.9.$.w.:.| o.y.E.6X<XoX].'.'.XXXXXXXXXXoXoXoXoXoXXXXXXX<X'.'.oXrX6X;Xn.-.X.6.:.:.:.6.6.6.6.7.7.:.+.6.6.6.6.6.6.6.6.6.6.6.6.6.6.6.6.6.6.6.6.6.6.6.6.6.6.6.6.6.6.6.6.6.6.6.6.6.6.6.6.6.6.6.6.6.6.6.6.6.6.6.6.6.6.6.6.6.6.6.6.6.6.6.6.6.6.6.6.6.6.6.6.6.6.6.6.6.6.6.6.6.6.6.6.6.6.6.6.6.6.6.6.6.6.6.6.6.6.6.6.6.6.6.6.6.6.6.6.6.6.6.6.6.6.6.6.6.6.6.6.6.6.6.6.6.6.6.6.$.&.6.+...| k.(.MXCX4X<XwXeXeXeXeXyXCXmXH.,./  .#.O.O.O.O.+.O.| / 1.R.BXCXrXrX1X1X1X1X1X4X4X3X7XXXXXXXXXXXXXoXXXXXXXoXoXoXoXoXoXoXoX].oXXXXXXXXX1XZXdXC + , g p 1 g 1 1 g 1 g x IXIXIXIXIXIXIXIXIXIXIXIXIXIXIXIXIXIXIXIXIX",
"IXIXIXIXIXIXIXIXIXIXIXIXIXIXIXIXIXIXIXIXIXIXz 1 0 0 g g g e e d = * A gXSXtX_.XXXX'.].oXoXoXXXXXoXoXoXoXoXoXoXoXoXoXoXoXoXoXoXXXXXXXoX'.*X*XXXoXoX1X7XK.<.X.$.6.6.6.6.6.6.6.6.6.6.6.6.6.6.6.6.6.+.w.:.+.%.o.k.R.5X1XoXoXXXXX'.'.XXoXoXoXoXoXoXoXoXoXoXoXoXoXoXoXoXoXoXoXoXoXoXoXoXoXoXoXoXoXoXoXoXoXoXoXoXoXoXoXoXoXoXoXoXoXoXoXoXoXoXoXoXoXoXoXoXoXoXoXoXoXoXXXXX'.].].XX<X1X3XH.<.| %.3.3.7.$.$.w.:.| o.y.E.6X<XoX].'.'.XXXXXXXXXXoXoXoXoXoXXXXXXX<X'.'.oXrX6X;Xn.-.X.6.:.:.:.6.6.6.6.7.7.6.+.6.6.6.6.6.6.6.6.6.6.6.6.6.6.6.6.6.6.6.6.6.6.6.6.6.6.6.6.6.6.6.6.6.6.6.6.6.6.6.6.6.6.6.6.6.6.6.6.6.6.6.6.6.6.6.6.6.6.6.6.6.6.6.6.6.6.6.6.6.6.6.6.6.6.6.6.6.6.6.6.6.6.6.6.6.6.6.6.6.6.6.6.6.6.6.6.6.6.6.6.6.6.6.6.6.6.6.6.6.6.6.6.6.6.6.6.6.6.6.6.6.6.6.6.6.6.6.6.$.&.6.+...| k.~.BXMXNXNXNXMXNXNXNXNXBXmXH.2.( -.-...........-.-.` f.R.BXBXNXMXNXNXNXNXNXNXNXmX3X<XXXXXXXXXXXoXoXXXXXoXoXoXoXoXoXoXoX].oXXXXXXXoX1XZXdXC + , g p 1 g 1 1 g 1 g z IXIXIXIXIXIXIXIXIXIXIXIXIXIXIXIXIXIXIXIXIX",
"IXIXIXIXIXIXIXIXIXIXIXIXIXIXIXIXIXIXIXIXIXIXz 1 0 e g g g 1 1 y = # A gXSXtX'.OXXX'.oXoXoXoXXXXXoXoXoXoXoXoXoXoXoXoXoXoXoXoXoXXXXXXXoX'.*X*XXXoX].2X7XG.u.X.o.w.6.6.6.6.6.6.6.6.6.6.6.6.6.6.6.6.+.3.:.+.%.o.k.R.5X1XoXXXXXXX*X'.XXoXoXoXoXoXoXoXoXoXoXoXoXoXoXoXoXoXoXoXoXoXoXoXoXoXoXoXoXoXoXoXoXoXoXoXoXoXoXoXoXoXoXoXoXoXoXoXoXoXoXoXoXoXoXoXoXoXoXoXoXoXoXXXXXXX'.'.XX<X1X3XH.1.| $.3.3.7.$.6.w.:.| X.y.R.6X<XoX].].oXoXXXXXXXXXoXoXoXoXoXXX'.XXXX'.XXoXrX6X;Xn.-.X.6.:.:.:.7.6.:.:.7.7.6.+.6.6.6.6.6.6.6.6.6.6.6.6.6.6.6.6.6.6.6.6.6.6.6.6.6.6.6.6.6.6.6.6.6.6.6.6.6.6.6.6.6.6.6.6.6.6.6.6.6.6.6.6.6.6.6.6.6.6.6.6.6.6.6.6.6.6.6.6.6.6.6.6.6.6.6.6.6.6.6.6.6.6.6.6.6.6.6.6.6.6.6.6.6.6.6.6.6.6.6.6.6.6.6.6.6.6.6.6.6.6.6.6.6.6.6.6.6.6.6.6.6.6.6.6.6.6.6.6.t.w.+.+.+.w.y.l.L.K.K.K.K.K.K.K.H.L.F.c.m.G.G.m.A.C.C.C.C.C.C.A.m.S.F.F.L.L.H.H.H.H.H.L.L.m.G.(.3XyX<X'.oX<X'.XXXXXXXXXXoXoXoXoXoXoX].].XXXXXXXX1XZXdXC + , g p g g 1 1 g 1 1 c IXIXIXIXIXIXIXIXIXIXIXIXIXIXIXIXIXIXIXIXIX",
"IXIXIXIXIXIXIXIXIXIXIXIXIXIXIXIXIXIXIXIXIXIXz 1 e e g g y y e d = # A gXSXtX'.OXXXXXoXoXoXoXXXXXoXoXoXoXoXoXoXoXoXoXoXoXoXoXoXXXXXXXoX'.*X*XXXoX].6X7XG.u.X.o.w.6.6.6.6.6.6.6.6.6.6.6.6.6.6.6.6.+.3.:.:.%.o.k.R.5X<XoXXXXXXX*X'.XXoXoXoXoXoXoXoXoXoXoXoXoXoXoXoXoXoXoXoXoXoXoXoXoXoXoXoXoXoXoXoXoXoXoXoXoXoXoXoXoXoXoXoXoXoXoXoXoXoXoXoXoXoXoXoXoXoXoXoXoXoXoXXXXXXX'.'.XX<X1X3XH.1.| $.3.3.7.$.6.w.:.| X.y.R.6X<XoX].].oXoXXXXXXXXXoXoXoXoXoXXXXXXXXX'.XXoXrX6X;Xn.-.X.6.:.:.:.7.6.:.:.7.7.6.$.6.6.6.6.6.6.6.6.6.6.6.6.6.6.6.6.6.6.6.6.6.6.6.6.6.6.6.6.6.6.6.6.6.6.6.6.6.6.6.6.6.6.6.6.6.6.6.6.6.6.6.6.6.6.6.6.6.6.6.6.6.6.6.6.6.6.6.6.6.6.6.6.6.6.6.6.6.6.6.6.6.6.6.6.6.6.6.6.6.6.6.6.6.6.6.6.6.6.6.6.6.6.6.6.6.6.6.6.6.6.6.6.6.6.6.6.6.6.6.6.6.6.6.6.6.6.6.6.6.6.6.6.$.3.4.u.1.1.1.<.<.<.1.1.y.y.1.f.M.(.:X.X;X$X$X$X;X$X$X;X:X(.A.1.<.q.2.q.q.q.q.y.y.2.1.m.,XuX<X'.<X<X'.XXXXXXXXXXoXoXoXoXoXoX].].XXXXXXXX1XZXdXC + , g p 1 g 1 1 g 1 g z IXIXIXIXIXIXIXIXIXIXIXIXIXIXIXIXIXIXIXIXIX",
"IXIXIXIXIXIXIXIXIXIXIXIXIXIXIXIXIXIXIXIXIXIXz 1 g g g g g g e g = # A gXSXtX'.OXXX'.].oXoXoXXXXXoXoXoXoXoXoXoXoXoXoXoXoXoXoXoXXXXXXXoX'.*X*XXXoX].6X3XG.u.X.o.w.6.6.6.6.6.6.6.6.6.6.6.6.6.6.6.6.+.3.:.+.%.o.k.R.5X<XoXXXXXXX*X'.XXoXoXoXoXoXoXoXoXoXoXoXoXoXoXoXoXoXoXoXoXoXoXoXoXoXoXoXoXoXoXoXoXoXoXoXoXoXoXoXoXoXoXoXoXoXoXoXoXoXoXoXoXoXoXoXoXoXoXoXoXoXoXXXXXXX'.'.oX<X1X3XH.<.| %.3.3.7.6.6.w.:.| X.y.R.5X<XoX].].XXXXXXXXXXXXoXoXoXoXoXXXXXXXXX'.XXoXrX6X:Xn.-.X.:.:.:.:.7.6.:.:.7.7.6.$.6.6.6.6.6.6.6.6.6.6.6.6.6.6.6.6.6.6.6.6.6.6.6.6.6.6.6.6.6.6.6.6.6.6.6.6.6.6.6.6.6.6.6.6.6.6.6.6.6.6.6.6.6.6.6.6.6.6.6.6.6.6.6.6.6.6.6.6.6.6.6.6.6.6.6.6.6.6.6.6.6.6.6.6.6.6.6.6.6.6.6.6.6.6.6.6.6.6.6.6.6.6.6.6.6.6.6.6.6.6.6.6.6.6.6.6.6.6.6.6.6.6.6.6.6.6.6.6.6.6.6.6.w.@.+.+./ / / [ [ [ [ [ / ( ) ` M.>XDXAXuXuXiXpXZXZXAXZXDX$Xg.) ^ / / } / / / } } ^ ) f.,XuX<X'.<XoX'.XX<X<XXXXXoXoXoXoXoXoX].].XXXXXXXX1XZXdXC + , g p 1 g 1 1 g 1 g z IXIXIXIXIXIXIXIXIXIXIXIXIXIXIXIXIXIXIXIXIX",
"IXIXIXIXIXIXIXIXIXIXIXIXIXIXIXIXIXIXIXIXIXIXz 1 g g g g g g g g = # A gXSXtX'.OXXX'.].oXoXoXXXXXoXoXoXoXoXoXoXoXoXoXoXoXoXoXoXXXXXXXoX'.*X*XXXoX].2X3XG.u.X.o.w.6.6.6.6.6.6.6.6.6.6.6.6.6.6.6.6.+.w.:.+.%.o.k.R.5X1XoXXXXXXX*X'.XXoXoXoXoXoXoXoXoXoXoXoXoXoXoXoXoXoXoXoXoXoXoXoXoXoXoXoXoXoXoXoXoXoXoXoXoXoXoXoXoXoXoXoXoXoXoXoXoXoXoXoXoXoXoXoXoXoXoXoXoXoXoXXXXX*X'.'.oX<X1X3XH.<.| %.3.3.7.6.6.w.:.| o.y.R.5X<XoX].].XXXXXXXXXXXXoXoXoXoXoXXXXXXXXXXXXXoXrX6X:Xn.-.X.:.:.:.:.7.6.:.:.7.7.6.$.6.6.6.6.6.6.6.6.6.6.6.6.6.6.6.6.6.6.6.6.6.6.6.6.6.6.6.6.6.6.6.6.6.6.6.6.6.6.6.6.6.6.6.6.6.6.6.6.6.6.6.6.6.6.6.6.6.6.6.6.6.6.6.6.6.6.6.6.6.6.6.6.6.6.6.6.6.6.6.6.6.6.6.6.6.6.6.6.6.6.6.6.6.6.6.6.6.6.6.6.6.6.6.6.6.6.6.6.6.6.6.6.6.6.6.6.6.6.6.6.6.6.6.6.6.6.6.6.$.6.7.6.6.+.O.O.+.+.+.O.#.=.#.%.$.o.^ ` m.,XAXrXoXoX0XqXwXwXwXwX6X!.g./  .#.%.$.%.%.O.O.#.[ } l.:XyX1X'.<XoX'.XX<X<XXXXXoXoXoXoXoXoX].].XXXXXXXX1XZXdXC + , h p 1 g 1 1 g 1 g z IXIXIXIXIXIXIXIXIXIXIXIXIXIXIXIXIXIXIXIXIX",
"IXIXIXIXIXIXIXIXIXIXIXIXIXIXIXIXIXIXIXIXIXIXz 1 g g g g g g g g = # A gXSXtX'.OXXX'.].oXoXoXXXXXoXoXoXoXoXoXoXoXoXoXoXoXoXoXoXXXXXXXoX'.*X*XXXoX].2X3XG.u.X.o.w.6.6.6.6.6.6.6.6.6.6.6.6.6.6.6.6.:.w.:.+.%.o.k.R.5X1XoXoXXXXX*X'.XXoXoXoXoXoXoXoXoXoXoXoXoXoXoXoXoXoXoXoXoXoXoXoXoXoXoXoXoXoXoXoXoXoXoXoXoXoXoXoXoXoXoXoXoXoXoXoXoXoXoXoXoXoXoXoXoXoXoXoXoXoXoXXXXX*X'.'.XX<X1X3XH.<.| %.:.:.7.6.6.w.:.| o.y.E.6X<XoX].'.XXXXXXXXXXXXoXoXoXoXoXXXXXXXXX'.'.oXrX6X:Xn.-.X.:.:.:.:.6.6.:.:.7.7.6.6.6.6.6.6.6.6.6.6.6.6.6.6.6.6.6.6.6.6.6.6.6.6.6.6.6.6.6.6.6.6.6.6.6.6.6.6.6.6.6.6.6.6.6.6.6.6.6.6.6.6.6.6.6.6.6.6.6.6.6.6.6.6.6.6.6.6.6.6.6.6.6.6.6.6.6.6.6.6.6.6.6.6.6.6.6.6.6.6.6.6.6.6.6.6.6.6.6.6.6.6.6.6.6.6.6.6.6.6.6.6.6.6.6.6.6.6.6.6.6.6.6.6.6.6.6.6.6.6.6.6.7.6.6.+.$.w.7.7.7.7.w.w.7.7.t.6.X.,.A.;X2X`._._.[.[.[.'.'.'.2X!.v.;.w.r.:.:.7.6.7.w.@. .+.x.:XyX1X'.<X<X'.XX<X<XoXoXoXoXoXoXoXoX].].XXXXXXXX1XZXdXC + , g p 1 1 1 1 g 1 g z IXIXIXIXIXIXIXIXIXIXIXIXIXIXIXIXIXIXIXIXIX",
"IXIXIXIXIXIXIXIXIXIXIXIXIXIXIXIXIXIXIXIXIXIXz 1 g g g g g g y g = # A gXSXtX'.OXXX'.].oXoXoXXXXXoXoXoXoXoXoXoXoXoXoXoXoXoXoXoXXXXXXXoX'.*X*XXXoX].2X3XG.u.X.o.w.6.6.6.6.6.6.6.6.6.6.6.6.6.6.6.6.:.w.:.+.%.o.k.R.5X1XoXoXXXXX*X'.XXoXoXoXoXoXoXoXoXoXoXoXoXoXoXoXoXoXoXoXoXoXoXoXoXoXoXoXoXoXoXoXoXoXoXoXoXoXoXoXoXoXoXoXoXoXoXoXoXoXoXoXoXoXoXoXoXoXoXoXoXoXoXXXXX*X'.'.XX<X1X3XH.<.o.%.3.3.7.6.6.w.:.| o.y.R.6X<XoX].'.XXXXXXXXXXXXoXoXoXoXoXXXXXXX'.'.'.oXrX6X:Xn.-.X.:.:.:.:.6.6.:.:.7.7.6.6.6.6.6.6.6.6.6.6.6.6.6.6.6.6.6.6.6.6.6.6.6.6.6.6.6.6.6.6.6.6.6.6.6.6.6.6.6.6.6.6.6.6.6.6.6.6.6.6.6.6.6.6.6.6.6.6.6.6.6.6.6.6.6.6.6.6.6.6.6.6.6.6.6.6.6.6.6.6.6.6.6.6.6.6.6.6.6.6.6.6.6.6.6.6.6.6.6.6.6.6.6.6.6.6.6.6.6.6.6.6.6.6.6.6.6.6.6.6.6.6.6.6.6.6.6.6.6.6.6.6.6.:.:.6.w.w.7.7.7.7.6.7.0.0.7.+.X.,.A.,XuX[.<X,X*X*X<X<X<X<XuX Xv.,.7.7.:.-.:.:.:.:.:.} +.x.>XyX1X'.oX<X'.XX<X<XXXXXoXoXoXoXoXoXoX].XXXXXXXX1XZXdXC + , g p 1 g 1 1 g 1 g z IXIXIXIXIXIXIXIXIXIXIXIXIXIXIXIXIXIXIXIXIX",
"IXIXIXIXIXIXIXIXIXIXIXIXIXIXIXIXIXIXIXIXIXIXz 1 g d g g e e y y = # A dXSXtX'.OXoX].].oXoXoXXXXXoXoXoXoXoXoXoXoXoXoXoXoXoXoXoX<XXXXXoX'.*X*XXXoX].6X3XJ.u.X.o.w.6.6.6.6.6.6.6.6.6.6.6.6.6.6.6.6.+.w.:.+.%.o.k.R.5X1XoXoXXXXX*X'.XXoXoXoXoXoXoXoXoXoXoXoXoXoXoXoXoXoXoXoXoXoXoXoXoXoXoXoXoXoXoXoXoXoXoXoXoXoXoXoXoXoXoXoXoXoXoXoXoXoXoXoXoXoXoXoXoXoXoXoXoXoXoXXXXX*X].'.XX<X1X3XH.<.o.%.3.3.7.6.6.w.:.| o.y.Y.6X<XoX].'.'.XXXXXXXXXXoXoXoXoXXXXX'.'.'.'.'.oXrX6X:Xn.-.X.3.:.:.3.6.6.:.:.7.7.6.6.6.6.6.6.6.6.6.6.6.6.6.6.6.6.6.6.6.6.6.6.6.6.6.6.6.6.6.6.6.6.6.6.6.6.6.6.6.6.6.6.6.6.6.6.6.6.6.6.6.6.6.6.6.6.6.6.6.6.6.6.6.6.6.6.6.6.6.6.6.6.6.6.6.6.6.6.6.6.6.6.6.6.6.6.6.6.6.6.6.6.6.6.6.6.6.6.6.6.6.6.6.6.6.6.6.6.6.6.6.6.6.6.6.6.6.6.6.6.6.6.6.6.6.6.6.6.6.6.6.6.7.7.:.:.3.w.+.:.:.:.+.+.:.:.+.O.{ :.A.,XZXeX+XOX<X<X<X<X<X<X6X/.x.` ;.0.:.3.@.@.+.:.:.| ;.x.>XyX1X'.oX<X'.XX<X<XXXXXoXoXoXoXoXoX].].oXoXXXXX1XZXdXC + , g 4 1 g 1 1 g 1 g z IXIXIXIXIXIXIXIXIXIXIXIXIXIXIXIXIXIXIXIXIX",
"IXIXIXIXIXIXIXIXIXIXIXIXIXIXIXIXIXIXIXIXIXIXz 1 d d g e e 0 0 d = # A gXSXtX[.<XXXoXoXoXoXoX'.'.oXoXoXoXoXoXoXoXoXoXoXoXoXoXoXXXXXXXXX'.*X*X*XXX].uX3XJ.u.X.o.7.6.6.6.6.6.6.6.6.6.6.6.6.6.6.6.6.:.6.+.+.+.o.k.R.5X1XoXXXXX<X<XXXXXoXoXoXoXoXoXoXoXoXoXoXoXoXXXXXoXoXoXoXoXoXoXoXoXoXoXoXoXoXoXoXoXoXoXoXoXoXoXoXoXoXoXoXoXoXoXoXoXoXoXoXoXoXoXoXoXoXoXoXoXoXoXXXXXXXXX'.oX<X+XNXH.<.| +.3.3.w.$.+.w.3.| | y.E.6X<XoX'.XXXXXXXXXXXXXXoXoXoXoXXXXXXXXXXXXXXXoXrX6X:Xm.-.X.6.6.:.w.6.$.:.6.6.6.6.6.6.6.6.6.6.6.6.6.6.6.6.6.6.6.6.6.6.6.6.6.6.6.6.6.6.6.6.6.6.6.6.6.6.6.6.6.6.6.6.6.6.6.6.6.6.6.6.6.6.6.6.6.6.6.6.6.6.6.6.6.6.6.6.6.6.6.6.6.6.6.6.6.6.6.6.6.6.6.6.6.6.6.6.6.6.6.6.6.6.6.6.6.6.6.6.6.6.6.6.6.6.6.6.6.6.6.6.6.6.6.6.6.6.6.6.6.6.6.6.6.6.6.6.6.6.6.6.6.6.6.7.7.7.:.+.O.6.6.6.6.6.6.7.6.6.+.{ -.m.|.iXwX+X+XXXXXXXXXXXXXCX/.x.;.0.6.w.t.&.&.+.:.6.| 0.B.>XyX1X'.oXoXXXXXXXXXXXXXoXoXoXoXoXXX].].oXoXXX'.2XZXI.C + , g p g g 1 1 g 1 1 z IXIXIXIXIXIXIXIXIXIXIXIXIXIXIXIXIXIXIXIXIX",
"IXIXIXIXIXIXIXIXIXIXIXIXIXIXIXIXIXIXIXIXIXIXz 1 g g g g g g d g , + C gXZX-X*XaXXXOXOXXXXX'.*X*XXXXXXXXXXXXXXXXXXXXXXXXXXXXXXXXX4X4X<X<XoX=X*X*X[.yX3XY.y.| o.7.6.:.:.:.:.:.6.6.6.6.6.6.6.6.6.6.;.:.@.@.+.| k.^.3XoX'.'.'.XX<X4XoXoXoXoX<XoXoXoXoXoX<X<XXXXXXXXXXXXXXXXXXXXXXXXXXXXXXXXXXXXXXXXXXXXXXXXXXXXXXXXXXXoXoXoXoXXXoXoXXXXXXXXXXXXXXXXXoXoXoXoXXXoXoX+X+XXXXXXXoX+X+X>XF.<.| &.w.+.+... .@.t.+.o.h.R.MX].].oXOXOX3X<XXXXXoXXXXXXXXXXXXXXXXXXXoX+X+X+X4X.XV.,.O.9.9.7.6.&.&.6.6.$.$.6.7.6.6.6.6.6.6.6.6.6.6.6.6.6.6.6.6.6.6.6.6.6.6.7.7.6.6.6.6.6.6.6.6.:.:.:.:.:.:.6.6.6.6.6.6.6.6.6.6.6.6.6.6.6.6.6.6.7.7.7.6.6.7.7.7.6.6.6.6.6.6.6.6.6.6.:.:.:.:.:.6.:.6.6.6.6.6.6.6.6.6.6.6.6.6.6.6.6.6.6.6.6.6.6.6.6.6.6.6.6.6.6.6.6.6.6.6.6.6.6.6.6.6.6.6.6.6.:.6.6.6.6.6.6.6.6.6.6.7.7.7.6.6.6.7.0.o.[ ,.S.>XZXwX].*X].].<X<XoX+XZX/.x.>.o.%.#.%.&.6.:.7.w.} 0.V.mXoXoXoXoXoXoXoXoXXXXXXXXXoXoXXXXXXX*X*XXXXX=X*XtXFXhXC . > h < 1 1 1 1 g 1 g x IXIXIXIXIXIXIXIXIXIXIXIXIXIXIXIXIXIXIXIXIX",
"IXIXIXIXIXIXIXIXIXIXIXIXIXIXIXIXIXIXIXIXIXIXz 1 g g g g g g d d , + A nXZX-X9X*XXXXXXXXX'.'.[.'.'.XXXXXXXXXXXXXXXXXXXXXXXXXXXXXXXXXXXX'.].].'.*X[.1XOXJ.5.} o.9.6.:.:.:.:.:.6.6.:.:.$.$.$.6.6.6.;.:.&.#.O.| k.^.>XXX[.[.`._.XXXXXXXXXXXXXXXXXXXXXXXXXXXXXXXXXXXXXXXXXXXXXXXXXXXXXXXXXXXXXXXXXXXXXXXXXXXXXXXXXXXXXXXXXXXXXXXXXXXXXXXXXXXXXXXXXXXXXXXXXXXXXXXXXX+X@XXX_._.oXoX+X>XF.2.} +.6.6.+.+...3.&.+.( h.Y.MX'.].XXXX|.|.XX'.XXXXXXXXXXXXXXXXXXXXXXXXoX+X+X+X.Xm.| [ $.9.9.+.#.#.$.6.$.$.6.6.:.+.$.+.$.+.$.+.6.6.6.6.6.6.6.6.:.:.:.:.:.:.6.6.:.:.:.:.:.:.:.:.:.:.:.:.:.:.:.:.6.6.6.6.6.6.6.6.$.$.$.$.$.$.$.$.6.6.6.6.6.6.6.6.6.6.$.$.$.$.:.:.6.6.:.:.:.:.:.:.:.:.:.:.:.:.:.:.6.6.6.6.6.6.6.6.6.6.6.6.6.6.6.6.6.6.6.6.6.6.6.6.6.6.6.6.6.6.6.6.+.+.:.:.+.+.+.+.:.:.:.:.6.6.6.6.6.6.6.6.6.6.6.6.9.$.[ ,.A.>XyX0X[.[.[.'._._.XX@XCX).z.-.} O.&.*.%.+.;.,.@.[ ;.B.>XXXXXXXXXXXXXXXXXXXXXXXXXXXXXXXXXXX'.'.'.'.[.[.[.CXI.m . > h u y g 1 1 g 1 g x IXIXIXIXIXIXIXIXIXIXIXIXIXIXIXIXIXIXIXIXIX",
"IXIXIXIXIXIXIXIXIXIXIXIXIXIXIXIXIXIXIXIXIXIXz 1 g g g g g g g y - o A nXSX-X9X9X'.XXXXXX'.[.[.'.[.'.'.'.'.'.'.'.'.'.'.'.'.'.'.XXXXXX'.'.].].'._.'.4X>XJ.4.[ =.&.$.$.$.$.$.$.$.$.+.+.+.+.+.$.$.6.;.6.%.O. .( f.~.3XXX'.[.[.'.XXoXXX'.'.'.'.'.'.'.'.'.'.'._._.'.'.'.'.'.'.'.'.'.'.'.'.'.'.'.'.'.'.'.'.'.'.'.'.'.'.'.'.'.'.'.'.'.'.'.'.'.'.'.'.'.'.'.'.'.'.'.'.'.'.'.'._._.'.oX+X>XF.2./ o.9.9.9.+.,.>.9._ ) h.Y.MX'.].'.XX|.|.'.[.[.'.'.'.'.'.'.'.'.'.'.'.oXoXoX<X/.m.| [ $.7.:.O.@.@.:.:.&.$.:.:.+.+.+.+.+.+.+.+.+.+.+.+.+.+.+.+.+.+.+.+.+.+.+.+.+.+.+.+.+.+.+.+.+.+.+.+.+.+.+.+.+.+.+.+.$.$.$.$.+.+.+.+.+.+.+.+.+.+.+.+.+.+.+.$.$.$.+.+.+.+.+.+.$.$.$.$.+.+.+.+.+.+.+.+.+.+.+.+.+.+.+.+.+.+.+.+.+.+.+.+.+.+.+.+.+.+.+.+.+.+.+.+.$.$.$.$.+.+.+.+.+.+.+.+.+.+.+.+.@.@.+.+.+.+.+.+.+.+.+.+.+.+.+.$.9.%.[ ..A.:XCX+X[.[.[.[._._.XXXXCX).b.,.| O.&.t.+.:.-.-.#.[ ;.x.:X'.'.'.XXXX'.'.'.'.'.'.'.'.'.XXXXXX[.[.'.'.[.[.[.yXI.C . > h a g g 1 1 g 1 g x IXIXIXIXIXIXIXIXIXIXIXIXIXIXIXIXIXIXIXIXIX",
"IXIXIXIXIXIXIXIXIXIXIXIXIXIXIXIXIXIXIXIXIXIXz 1 1 g g g g g g p ; o E nXHXtX-X-X2X4X6X6X4X1X1X2X1X1X1X1X1X1X1X1X6X2X6X2X6X1X1X1X1X4X4X1XrXrX1X1XCXDXNXK.u.#.O.&.&.t.t.t.w.w.w.w.t.t.t.t.t.t.t.w.6.w.&.@.O.| k.(.MXCXyX1X2X1XyXuX1X1X1X1X1X1X1X1X1X1X1X1X1X1X1X1X1X1X1X1X1X1X1X1X1X2X1X1X1X1X1X1X1X1X1X1X1X1X1X1X2X2X2X2X2X2X2X2X1X2X1X1X1X1X1X1X2X2X1X1X1X1X1X1X1X1X7X7XtXyXyXBXL.5.} $.9.t.t.6.w.t.9.o.` l.~.BX2XyX4X6X2X2X2X2X2X1X1X1X1X1X2X2X1X1X1X1XyXuXuX6XmXF.-. .6.t.t.3.@.@.w.w.w.w.w.3.w.w.w.3.3.3.3.3.3.3.w.w.w.w.w.w.w.w.w.w.w.w.w.w.3.@.@.3.@.@.w.w.3.3.3.3.3.3.3.3.w.w.w.w.w.w.w.w.w.w.w.w.w.w.w.w.w.w.w.w.w.w.w.t.t.t.t.t.t.t.t.t.w.w.w.w.w.w.w.w.w.w.w.w.w.w.w.w.w.w.w.w.w.w.w.w.w.w.w.w.w.w.w.w.w.w.w.w.w.w.w.w.w.w.w.w.w.w.w.w.w.3.3.3.3.3.3.3.3.3.w.w.w.w.w.w.w.w.w.w.w.w.w.t.t.%.{ ..F.mXZXyX1X1XyX1X2X2X4X6XJX/.C.2.-.:.t.r.t.t.>.>.3.#.:.C.mXuXyXuXyXuXuXuX1X2X1X2X4X1X4X4X1X1X2X2X1X1X2X2XpXHXhXA + = s h g g 1 1 g 1 1 z IXIXIXIXIXIXIXIXIXIXIXIXIXIXIXIXIXIXIXIXIX",
"IXIXIXIXIXIXIXIXIXIXIXIXIXIXIXIXIXIXIXIXIXIXz 1 0 0 g g g g g g o $ G nXHXpXtXtXpXAXAXAXAXAXAXAXaXaXaXaXaXaXaXaXAXpXAXpXAXAXAXAXaXaXaXpXpXpXaXaXFXHXBX^.Z.4.3.w.r.r.r.r.r.r.r.r.r.r.r.r.r.r.r.r.w.t.w.&.3.,.v.$XDXAXAXpXpXAXAXAXpXpXpXaXpXpXpXpXAXpXAXpXAXpXAXpXaXaXaXaXaXaXaXaXaXaXaXpXpXpXpXpXaXaXaXaXaXaXaXaXAXAXAXAXAXAXAXAXAXpXAXpXAXpXAXpXAXaXAXpXpXpXpXpXpXaXaXaXaXpXDXBXL.u...w.r.r.r.t.e.e.t.&.7.D.%XBXDXaXAXAXAXpXpXpXpXpXAXpXAXaXAXaXaXaXAXpXAXAXAXDXBXL.4.@.t.r.r.r.e.e.e.r.r.r.e.e.e.e.e.e.e.e.e.e.e.e.e.e.e.e.e.e.r.r.r.r.r.r.r.r.t.t.t.t.t.t.e.e.e.e.e.e.e.e.e.e.r.r.r.r.r.r.r.r.r.r.r.r.r.r.r.r.e.e.e.e.r.e.e.e.r.r.r.r.r.r.r.r.r.r.r.r.r.r.r.r.r.r.r.r.r.r.r.r.r.r.r.r.r.r.r.r.e.e.e.e.e.e.e.e.e.e.e.e.e.e.e.e.r.r.r.r.r.r.r.e.e.r.r.e.e.e.e.e.e.e.r.r.r.r.r.r.r.r.r.r.e.e.e.e.t.3.#.4.L.BXSXAXAXAXAXAXAXAXAXAXHX$XD.u.>.w.t.t.r.u.u.4.e.@.4.C.BXpXAXpXAXAXAXpXAXpXAXpXAXpXAXpXaXaXaXaXpXpXpXCXHXHXjXE # - s h g g 1 1 g 1 1 z IXIXIXIXIXIXIXIXIXIXIXIXIXIXIXIXIXIXIXIXIX",
"IXIXIXIXIXIXIXIXIXIXIXIXIXIXIXIXIXIXIXIXIXIXz 1 0 0 g g g g e e 1 8 E kXnX#X#X#X#XlXnXlXlXnXnXnX{.{.lX{.lX#X{.{.lX#XlX#XlX#XlX#X{.{.{.{.{.lXlXlXzXxXnXV.h.' ' ' ' ' ' i.i.i.i.8.' ' ' ' ' ' ' ' ' ' ' 8.8.] h.).lXzX#X#X{.#XzXzXlX#XlX{.lX#XlX#XzXlXlXlXlXlXzXlX{.{.lX{.{.{.{.#X{.{.{.{.{.{.{.{.{.{.lX{.{.#X{.#XlXlXzXlXzXlXzXlXlX#XlXlXlX#XlX#XlX#XlX#XlX#XlX#X{.#X.X.X#XzXlXlXV.q.] 8.i.' ' ' 0.0.8.' ' B.L.VX.X#X#XlXlX#X#X#X#X#XlX#XlX#XlX#X{.{.{.{.zX#XzXlXVXV.' _ i.i.i.i.8.8.' i.i.i.' ' ' ' ' 0.' ' ' ' ' ' ' ' ' ' 8.8.' ' ' ' ' ' ' ' ' i.' ' ' ' i.' ' ' ' ' ' ' 8.8.' i.i.i.i.i.i.i.' ' ' ' ' ' ' ' ' ' ' ' ' ' ' ' ' ' ' ' ' ' ' ' i.i.i.i.i.i.i.i.i.i.i.i.i.i.i.i.i.i.i.i.i.i.i.i.' ' ' ' ' ' ' ' ' ' ' ' ' ' ' ' i.i.i.i.i.i.i.' ' ' ' ' ' ' ' ' 8.i.i.i.i.i.i.i.' ' ' ' ' ' ' ' i.' ' 8.V.VXxXnXzXzXzXzXlXlXzXzXxX).B.8.' ' ' ' ' i.' ] 0.' ] B.lX{.lX{.lX#XlX{.lX#XlX#XlX#XlX#X{.#X#X#XnXnXnXnXbXbXkXE % , y g g g 1 1 g 1 g x IXIXIXIXIXIXIXIXIXIXIXIXIXIXIXIXIXIXIXIXIX",
"IXIXIXIXIXIXIXIXIXIXIXIXIXIXIXIXIXIXIXIXIXIXz 1 0 e g g g 1 1 d h 1 c Y T I I P I I I I I I Y Y K K K K K K K K K K K K K K K K I I L L I K L L K Y Y P b b b b b b b b b b b b n n n n n n n n b b b M M v n P Y R I D L L I I K K I K I K I K I I I I I I I I K K K K K K K K K K K K K K K K K K K K K K K K I K I K I K I K I I I I I I I K K K I K I K I I I I K L I R R Y P n v V V b n n n n V b n b P T I I I K K K I I I I I I I K I I L L K I I I I I Y B v b V b b b b b b b b b b b b b b b b b b b b b b b b b b b b b b b b b b b b b b b b b b b b b b b b b b b b b b b b b b b b b b b V V V b b b b b b b b n n n n n n n n n b b b b b b b b V V V V V V V V b b b b b b b b b b V V b b V V b b V V b b b b b b b V b b b b b b b b b b b b b b b b b b b b b n b n n n n n V b v M P Y R G I K I I K L I I Y P N b M V b b b b n n b n n B K I I I I K I L K K K K K K K K I I I I Y Y Y I I R P r > 1 e e 1 g 1 1 g 1 g x IXIXIXIXIXIXIXIXIXIXIXIXIXIXIXIXIXIXIXIXIX",
"IXIXIXIXIXIXIXIXIXIXIXIXIXIXIXIXIXIXIXIXIXIXz 1 0 e g g g y 1 y a = > r r 8 $ + & 7 7 7 7 7 8 8 $ $ 7 7 $ $ $ $ $ $ $ $ $ $ $ $ $ $ $ $ $ $ $ $ $ 8 t & @ @ w q w 9 w w w w 9 9 q q q 9 9 9 9 q q w @ w w @ @ r & 6 $ $ $ $ 9 7 $ 7 7 7 9 9 7 7 9 7 7 7 7 7 7 7 $ $ $ $ $ $ $ $ $ $ $ $ $ $ $ $ $ $ $ $ $ $ $ $ $ $ $ $ $ $ $ $ 9 9 9 9 9 9 9 9 $ 7 7 9 7 7 7 $ * $ $ $ $ 6 6 6 r + @ q q & & & 9 9 q @ @ @ 8 t $ $ $ $ $ $ $ $ 8 8 8 9 9 9 7 7 $ $ $ $ $ $ $ $ t $ @ w q q q q w w w w w w w w q q q q q q q q w w w w w w w w q q q q q q q q w w w w % % w w q q q q q q q q w w w w w w w w q q q q q q q q q q q q q q q q q 9 9 9 q q 9 9 9 9 w w w w w w q q q q q q q q w w w w w w w w q q q q q q q q q q q q q q q q w w w w w w w w q q q q q q q q q q q q w w w w q q q q q q w q q w @ @ q r 7 + $ 9 $ $ $ $ $ $ t 7 @ @ w w w w q q 8 & q w & r $ $ $ $ $ $ $ $ $ $ $ $ $ $ $ $ $ $ $ & & & & $ 7 t r 8 > 0 r 8 1 1 1 1 g 1 g x IXIXIXIXIXIXIXIXIXIXIXIXIXIXIXIXIXIXIXIXIX",
"IXIXIXIXIXIXIXIXIXIXIXIXIXIXIXIXIXIXIXIXIXIXk g 1 1 1 y 1 1 1 1 1 < 1 > > = = = : : : > > > > > = o = o = = = = > > : : : > > > o o o o o o o o > > > > : : > > > > > > > > > > > > > > > > > 2 3 3 , : : , > 3 3 3 o o o o o : o o o o o o o o = = = = = = = = = = = = = = = = = = = = = = = o = = = = = = = = = = = = = = = o = = o o o = = = = = = = = = = = = : : : o 3 3 3 > > : > > > 3 > > % : : : : > % . . o o o ; ; o = = = = = = : : = o = = = = = o 2 > : : , , , > > > , , : : : > > 2 2 2 2 2 2 2 > > > > > > > > < < < < < < < < > > > > > > > > > > > > > > > > > > > > > > > > < < < < < < < < , , , , , , , > > > > 2 2 2 > > > > > > > > > > > > > > > > > > > > > > > > > > , , , , , , , , , , , , , , , , > > > > > > > > 2 2 2 2 2 2 2 2 > > > > > > > > > > > > > > 2 2 < , : : > o o o : : : : : # > > > > : : : : : : , < < < > > 2 2 o o o o o o o o > > > > > > : > o o o o o o o . * * > 2 1 1 8 e 1 g 1 1 g 1 g z IXIXIXIXIXIXIXIXIXIXIXIXIXIXIXIXIXIXIXIXIX",
"IXIXIXIXIXIXIXIXIXIXIXIXIXIXIXIXIXIXIXIXIXIXk g 1 1 1 d 4 1 1 1 1 1 1 1 y u u u u u y < < < < y y y y y y y y y y y y y u u u u y y u u u u u y p p a 4 y y u p p p p p p p p p p p a p p p p p a a p u y y a p a 5 < y u u u u y u u u u u u u u y u y y y y y y y y y y y y y y y y y y y y y y u y y y y y y y y y y y y y y u u u u u u u u y y y y y y y y u u u u y u a a p u y y u p a 4 1 1 y y y y y 1 1 < < y u u u u u y u y y y y y y y y y y y y p 5 5 y u y a p p p p a a y y u u p p p p p p p p p p a a a a p p p p p p p p p p a a a a p p p p p p p p 4 p 4 4 p p a a p p p p a a a a a a a a a a a a a a a p p p p p 4 p a a p p a a p p p p p p a a p a p p p p p p p p a a a a a a a a a a a a a a a a a p p p p a p a p p p p p p p p p p p p a a a a p p p p p p a p a a a p y y 1 < < < y y u u u y y u 5 4 u y u u u y a a a a u u p p y y y y y y y u u u u u y y y y u u y y y y < < 1 2 1 1 y 1 e e 1 g 1 1 g 1 g z IXIXIXIXIXIXIXIXIXIXIXIXIXIXIXIXIXIXIXIXIX",
"IXIXIXIXIXIXIXIXIXIXIXIXIXIXIXIXIXIXIXIXIXIXk g 1 1 d d 4 4 1 1 1 e 0 e g g g h d d g g e e e e h h h h h h h h p g p g p p p p g g g g h h h h a 4 4 e g d g g p a a a a a a a a a a a p p p p h g g d d d g g h h g h h f f h g g h g h g a g h h h h h h h h h h h g h h h h h h h h h h h h h h h h h h h h h h h h h h h h h g h g h h h h h h h h h h h h h h g h g h l l h g f f f d g g g d d d d d e 4 g g g g g g g h h h h h h h h h h h h h h h h l a a p a a a a p a a s s s a h g p p p p p p p p h h h a a a g h p p a a p p p p h h p a g g h h 4 4 4 4 p p p p p p p p p p p p a a a a a a a a a a a p a a a a p p p p p a a a a a a a a a a a a p p p p p p p p p p p p p p p a a p p a a a a a a a a a a a p a p p p p p p p p p p a p p p p h a a a a a h h p p p p p p 4 4 e e e 0 e 4 4 p a a a a a g d g a a h g h g h h p a a p y y p p h h h h h h h h g p p p g g g g h h h h g g g g 1 1 y g p g g g 1 g 1 1 g 1 g z IXIXIXIXIXIXIXIXIXIXIXIXIXIXIXIXIXIXIXIXIX",
"IXIXIXIXIXIXIXIXIXIXIXIXIXIXIXIXIXIXIXIXIXIXk g 1 1 d d e 4 1 1 1 1 1 0 e e g g g d g g e e e e e 4 4 4 4 4 4 4 e e e e 4 4 4 p y d y y y p p p 4 4 4 e 0 0 0 f p p p p p p p p u u u u u u u y g e 0 0 0 0 d d g g g g g d g g 4 4 4 4 4 4 4 4 g g e e e g g g 4 4 e e 4 4 4 4 4 4 4 4 4 4 4 4 g g g g e g e e 4 4 4 4 4 4 4 4 e e e e e e e e 4 4 4 4 4 4 4 4 g g g d d g h g p g f f f f d p y y y y y 4 4 4 1 1 1 1 p p 4 4 g g g g e e e e e e 4 4 4 e 4 4 4 p a p p p 4 4 4 p a a a p p 4 4 4 4 4 4 4 4 4 e e 4 4 4 4 4 e 4 4 4 4 4 4 4 4 p e 4 4 4 e p e 1 1 1 1 1 1 1 1 4 4 4 4 4 4 4 4 p p p p p p p p p p p p p p p p u u u u u u u u p p p p p p p p p 4 4 4 4 4 4 4 4 4 4 4 4 4 4 4 p p y y p p p p p p p p p p p p 4 4 4 4 4 4 4 4 4 4 4 4 4 4 4 4 e e 4 4 4 4 p e 1 1 1 1 1 1 1 1 0 0 0 0 e e 4 p a a a a p g d g p p p p p p p p 4 4 4 1 1 1 1 1 p 4 4 4 4 4 4 4 e e e g e e e g p p p y 0 0 0 0 e g g g g p p p 1 g 1 1 g 1 g z IXIXIXIXIXIXIXIXIXIXIXIXIXIXIXIXIXIXIXIXIX",
"IXIXIXIXIXIXIXIXIXIXIXIXIXIXIXIXIXIXIXIXIXIXk g 4 1 1 0 1 1 1 y y y y 1 1 1 0 1 1 y y y 1 1 0 0 1 1 1 1 1 1 1 1 4 4 4 4 4 4 4 1 1 1 y y u u 1 1 4 1 1 1 1 0 0 f y y y y y y y y y y y y y y y y 4 4 4 4 4 4 4 1 y y y y y y y y 1 1 1 1 1 1 1 1 4 1 1 1 1 1 1 1 1 1 1 1 1 1 1 1 1 1 1 1 1 1 1 1 1 1 1 1 1 1 1 1 1 1 1 1 1 1 1 1 1 1 1 1 1 1 1 1 1 1 1 1 1 1 1 1 1 0 0 0 0 0 y 1 y 1 y y y y u a y y y y y y y 1 u u u 1 1 1 1 1 1 1 1 1 1 1 1 1 1 1 1 1 1 1 1 1 4 4 p y y 1 1 2 4 4 4 p p 1 1 1 1 1 1 1 1 1 1 1 1 1 2 2 1 1 1 1 1 1 1 1 1 1 1 1 1 1 1 1 1 1 1 1 1 1 1 1 1 1 1 1 1 1 1 1 1 1 1 1 1 1 1 1 1 1 1 1 1 1 1 1 1 1 1 1 1 y y y y y y y y y 1 y y y y y 0 0 0 0 1 1 1 1 0 0 0 1 1 1 1 1 1 1 1 1 1 1 1 1 1 1 1 1 1 1 1 1 1 1 1 1 1 1 1 1 1 1 1 1 1 1 1 1 1 1 1 1 1 1 1 1 1 1 1 1 1 1 1 1 0 0 0 0 0 1 1 p p p p p y y f d 1 4 4 4 4 4 4 4 1 1 1 1 1 1 1 1 1 1 1 1 1 1 1 1 4 4 1 1 1 1 1 1 1 1 1 1 1 1 1 2 0 0 g g y y y y 1 g 1 1 g 1 g z IXIXIXIXIXIXIXIXIXIXIXIXIXIXIXIXIXIXIXIXIX",
"IXIXIXIXIXIXIXIXIXIXIXIXIXIXIXIXIXIXIXIXIXIXk g 4 1 d d 1 1 1 d d y y y y 1 1 1 e g g g g g g g g g p g p g p g p g p g p g p g 1 0 y y y y p p 1 1 1 1 1 y y y d d d d d d d d y y y y y y y y p a a 4 4 4 4 y y y y y y y y 1 4 1 4 1 4 1 4 1 1 1 1 1 1 1 1 1 p g p g p g p g p g p g p g p g 1 1 1 1 1 1 1 1 p g p g p g p g 1 1 1 1 1 1 1 1 p g p g p g p d 1 1 0 f f y y y 1 1 1 1 1 y p a y d p p p p p p y y y y p 4 4 1 1 1 1 1 1 1 1 1 p g p g g g g g e e p p g 0 0 0 1 1 1 y y 1 1 1 e e e e e e e e 1 1 2 2 1 1 1 1 e e g g g e g e 1 1 1 1 1 1 1 1 0 0 0 0 0 0 0 0 e e 0 0 0 0 0 0 e e e e e e e e 0 0 0 0 0 0 0 0 0 y y y y y y y d d d d d d d d g e g 0 d 0 d 0 d 0 g e d 0 d 0 0 0 0 0 0 0 0 0 0 0 0 0 0 0 0 0 0 0 0 0 0 0 0 0 e e g g e e d 0 1 1 1 1 1 1 1 1 0 0 d 0 0 0 0 0 f f d y 0 d d d p p p p p y d d 1 1 4 4 4 4 4 4 4 1 1 1 1 0 0 0 y p 4 4 4 1 4 1 p g g g g g g g y 4 1 0 0 0 0 0 0 y y y y y y y 1 g 1 1 g 1 g z IXIXIXIXIXIXIXIXIXIXIXIXIXIXIXIXIXIXIXIXIX",
"IXIXIXIXIXIXIXIXIXIXIXIXIXIXIXIXIXIXIXIXIXIXk g 1 1 d 1 1 1 1 1 e e d d y y 1 1 e e e g g p p p g g g g g g g g g d g d g d g g e e e e 0 0 0 0 0 0 0 0 p p p y p e e e e e p p 4 4 e e p p p g y y p p p 4 1 y d d y p 4 4 4 4 g g g g g g g g p y y y y y y y g g g g g g g g g g g g g g g g y y y y p y p y g g g g g g g g y y y y 1 1 1 1 g g g g g g g g 4 4 y y f f y p 4 4 4 0 0 0 4 p g d e 4 e 4 p p g g g g g g g g y y y y y y y y g g g g g g g g d p p a d d 0 0 0 0 p p p p 1 0 g g g g g g g g 4 4 4 4 e e 4 4 g g p g p g p g p p p p p p p p p p p p p p p p p p p p p p p p g g g g g g g g p p p p p g g p p p p p p p p p p p p e e e e p g g p p p p p p p p p g p p p p p p p p p g g p p p g p p p p p p p p p p p p p g g g g g g p g p y p p p p p p p p p p p p p p p p a p d 0 0 0 d g g p p p e 0 f d y p 4 4 4 4 p p p p a a p p p p g g g d g d g d d d d d d d g g g e 0 0 d d y y y y 4 4 4 4 1 g 1 1 g 1 g z IXIXIXIXIXIXIXIXIXIXIXIXIXIXIXIXIXIXIXIXIX",
"IXIXIXIXIXIXIXIXIXIXIXIXIXIXIXIXIXIXIXIXIXIXk g 1 1 1 1 1 1 1 1 0 0 1 y y y y 1 1 1 1 1 1 y y y 1 1 y 1 y 1 y 1 y 1 y 1 y 1 y 1 4 4 1 1 1 1 1 1 0 0 0 1 p p p p 4 1 4 1 4 1 4 1 4 1 4 4 4 1 p y y y 1 1 1 1 1 1 0 0 0 4 4 4 4 4 1 1 y 1 y 1 y 1 y 0 y 0 y 0 y 0 y 1 y 1 y 1 y 1 y 1 y 1 y 1 y 1 y 0 y 0 y 0 y 0 y 1 y 1 y 1 y 1 y 1 y 1 y 1 y 1 y 1 y 1 y 1 y 1 4 4 4 y y y p 4 4 4 4 1 1 1 4 4 1 1 1 4 4 4 4 1 y y y y 1 1 1 1 y 0 y 0 y 0 y 0 y 1 y 1 y 1 y y y y u u y 1 0 0 1 y y y y y 1 1 p p p p g g g g 1 1 1 1 1 1 1 1 p p p p p p p p y y y u y y y y p u y y y y y y y y y y y y y y p g g g p p p p 1 1 1 1 1 1 1 1 y 1 y 1 1 1 1 1 1 1 1 1 1 1 1 1 y y u u u u u u y u y u u u u y 1 1 1 1 1 1 1 1 1 1 1 1 1 1 1 1 y y y y y y y y p p p p p p p p p p p p p p p p p y p y p y a p a a a p y 0 0 0 0 1 1 1 1 1 1 1 0 y y 1 1 1 1 1 y y y y p p p p 1 1 1 1 1 1 1 1 y 1 y 1 y 1 y 1 1 1 1 1 1 1 y y y y y 1 e e e e 1 g 1 1 g 1 g z IXIXIXIXIXIXIXIXIXIXIXIXIXIXIXIXIXIXIXIXIX",
"IXIXIXIXIXIXIXIXIXIXIXIXIXIXIXIXIXIXIXIXIXIXz 1 g g g g g g g g 1 g g g h y > g 4 1 1 1 0 g y y 1 1 1 1 1 1 1 1 0 0 1 1 1 0 0 0 e e 0 1 1 0 0 0 0 0 0 1 4 4 4 4 4 1 4 1 e 0 e 1 4 1 4 1 e 0 4 0 1 1 1 4 4 4 1 1 0 0 0 4 4 4 e 0 0 0 0 0 0 0 0 0 0 0 0 0 0 0 0 0 1 1 1 1 1 1 1 1 1 1 1 1 1 1 1 0 0 0 0 1 4 1 0 1 1 4 4 4 1 1 4 e 1 1 1 1 1 1 1 1 1 4 1 1 1 1 1 1 e e e 1 1 1 e 4 4 4 4 0 4 4 e 4 1 1 4 4 4 4 4 4 0 0 0 4 4 4 0 0 0 0 1 1 1 0 d 0 0 0 0 1 1 4 0 0 1 1 1 1 0 0 0 0 1 1 4 4 0 1 0 0 1 1 1 1 1 1 1 0 0 1 1 1 1 1 0 1 1 1 1 0 0 0 1 y 1 1 0 1 0 1 1 0 1 1 1 1 1 1 1 1 1 0 1 1 1 1 1 1 1 1 1 1 1 1 1 1 1 1 0 0 0 0 1 1 1 1 1 1 1 1 4 e 1 1 0 0 0 0 1 1 e 1 1 1 1 1 1 0 0 1 1 y 1 1 d 1 1 1 1 0 0 0 1 1 1 1 0 1 0 1 1 0 1 1 1 1 0 1 1 0 0 0 1 y 1 1 d 1 4 4 4 4 4 4 4 p 4 0 p 1 4 1 p 4 1 4 4 4 4 1 1 0 0 0 0 4 4 1 0 0 0 0 1 1 1 0 e e 0 0 1 1 4 4 4 p 0 1 1 1 1 0 0 0 0 0 4 4 1 1 0 0 1 1 1 1 1 1 y y y g 1 > 2 g l g g g g g g g g g IXIXIXIXIXIXIXIXIXIXIXIXIXIXIXIXIXIXIXIXIX",
"IXIXIXIXIXIXIXIXIXIXIXIXIXIXIXIXIXIXIXIXIXIXz > 1 1 1 1 1 1 1 1 > 1 1 1 g 1 1 g 4 1 1 1 0 e e 1 1 1 1 1 1 1 1 1 4 4 1 1 1 0 e e 0 0 1 1 1 1 e 1 1 4 1 1 1 1 4 1 4 1 1 1 0 0 0 1 e 1 1 1 1 0 0 0 4 4 4 4 4 4 e 4 1 1 0 1 1 4 1 1 0 0 0 0 0 0 0 0 0 0 0 0 0 0 0 0 1 1 1 1 1 1 1 1 e 0 1 1 1 1 e 0 0 0 1 1 1 1 0 1 4 4 1 4 1 1 e e 1 1 1 1 1 1 1 1 4 4 1 1 1 1 4 4 0 0 1 1 1 1 e 1 4 1 1 1 1 1 e 0 4 4 4 4 e 4 4 4 0 1 0 4 1 1 1 1 4 e 1 1 1 1 e e 0 0 1 1 4 4 0 1 0 1 1 1 1 0 0 0 0 1 e 4 1 1 1 0 0 0 0 0 0 0 0 0 0 0 0 0 0 0 0 0 0 0 0 0 0 0 0 0 0 0 0 0 0 0 0 0 0 0 0 0 0 0 0 0 0 0 0 0 0 0 0 0 0 0 0 0 0 0 0 0 0 0 0 0 0 0 0 0 0 0 0 0 0 0 0 0 0 0 0 0 0 0 0 0 0 0 0 0 0 0 0 0 0 0 0 0 0 0 0 0 0 0 0 0 0 0 0 0 0 0 0 0 0 0 0 0 0 0 0 0 0 0 0 0 0 0 0 0 0 0 0 1 0 e 4 4 4 4 4 4 1 0 1 1 1 1 1 1 1 1 4 e 4 4 4 4 0 0 4 4 1 1 0 1 4 4 1 1 0 0 4 e 0 0 1 1 1 1 1 0 0 1 1 1 4 0 0 0 0 0 4 1 1 1 0 0 1 1 1 1 1 1 1 1 1 1 1 1 1 1 1 > 1 1 1 1 1 1 1 1 IXIXIXIXIXIXIXIXIXIXIXIXIXIXIXIXIXIXIXIXIX",
"IXIXIXIXIXIXIXIXIXIXIXIXIXIXIXIXIXIXIXIXIXIX! g k k k k k k k k k z k 1 1 1 1 k 4 e 1 1 0 1 1 1 1 1 1 1 1 1 1 4 4 1 1 1 1 1 e 1 0 0 1 1 1 1 1 1 1 1 1 1 1 1 1 1 e 0 1 1 1 1 4 1 e e 1 1 1 1 1 0 1 1 1 1 1 1 0 0 1 1 1 1 1 1 1 1 e 1 1 1 1 1 1 1 1 1 1 1 1 1 1 1 1 1 1 1 1 1 4 e e 1 1 1 1 1 e e 0 0 1 1 1 1 1 1 1 1 1 1 1 1 1 1 1 1 1 1 1 1 0 0 1 0 0 1 0 0 1 1 0 0 1 1 1 1 1 1 1 1 1 1 1 1 1 1 1 1 1 1 1 1 1 1 1 1 1 1 1 1 1 1 4 1 1 1 1 1 4 1 0 0 1 1 1 1 1 1 d 0 1 1 4 4 1 1 0 1 1 1 1 1 4 e 1 1 y y 0 1 1 1 1 1 1 1 1 1 1 1 1 1 1 1 1 1 1 1 1 1 1 1 1 1 1 1 1 y 1 1 1 1 1 1 0 0 1 1 1 1 1 1 1 1 1 1 1 1 1 1 1 1 1 1 1 1 1 1 0 1 1 1 1 1 1 1 1 1 1 1 1 1 1 1 1 1 1 1 0 1 1 1 1 1 1 1 1 1 1 1 1 1 1 1 1 1 1 1 1 1 1 1 1 1 1 1 1 1 1 1 1 1 1 1 1 1 1 1 1 1 1 1 0 0 1 1 1 1 1 1 1 1 0 1 1 1 e e 1 0 e e 1 1 1 1 0 0 1 1 1 1 1 1 1 1 1 1 1 1 1 1 0 0 1 4 1 1 1 1 0 0 1 1 4 4 1 1 1 1 4 4 1 1 0 0 1 1 1 1 1 1 g g g g g z x z g 1 k k k k k c k z IXIXIXIXIXIXIXIXIXIXIXIXIXIXIXIXIXIXIXIXIX",
"IXIXIXIXIXIXIXIXIXIXIXIXIXIXIXIXIXIXIXIXIXIXIXIXIXIXIXIXIXIXIXIXIXIXQ z 1 1 1 g 0 0 1 1 y 1 1 1 1 1 1 1 1 1 1 4 4 1 1 1 1 1 1 1 e 1 4 4 1 1 1 1 1 1 1 1 1 1 1 1 0 0 1 1 1 1 4 1 1 e 1 1 1 1 1 1 1 1 1 1 1 1 1 0 1 1 1 1 1 1 1 1 4 1 1 1 1 1 1 1 1 1 1 1 1 1 1 1 1 1 1 1 1 1 1 e 4 4 1 1 1 1 1 e e 0 1 1 1 1 1 1 0 1 1 1 1 1 1 1 1 1 1 1 1 0 0 e e 0 0 1 1 0 0 e e 0 1 1 1 1 1 1 0 1 1 1 1 1 1 1 1 1 1 1 1 1 1 1 1 1 1 1 1 1 1 1 4 1 1 1 1 1 1 1 0 1 1 4 1 1 1 1 e e 1 1 1 1 1 1 1 1 1 1 1 1 e e 1 1 1 1 1 1 1 1 1 1 1 1 1 1 1 1 1 1 1 1 1 1 1 1 1 1 1 1 1 1 1 1 1 y 1 0 0 1 1 1 1 0 1 1 1 1 1 1 1 1 1 1 1 1 1 1 1 1 1 1 1 1 1 1 1 1 1 1 1 1 1 1 1 1 1 1 1 1 1 1 1 1 1 1 1 1 1 1 1 1 1 1 1 1 1 1 1 1 1 1 1 1 1 1 1 1 1 1 1 1 1 1 1 1 1 1 1 1 1 1 1 1 1 1 1 1 1 1 1 1 1 1 1 1 1 1 1 1 1 1 1 1 4 0 0 0 e e 1 1 1 1 1 1 1 1 1 1 1 1 1 1 1 1 1 1 1 1 e 1 4 1 1 1 1 1 4 0 1 1 1 4 1 1 1 1 1 1 1 1 0 0 1 1 1 1 1 1 4 d 1 g x IXIXIXIXIXIXIXIXIXIXIXIXIXIXIXIXIXIXIXIXIXIXIXIXIXIXIXIXIXIXIXIXIXIX",
"IXIXIXIXIXIXIXIXIXIXIXIXIXIXIXIXIXIXIXIXIXIXIXIXIXIXIXIXIXIXIXIXIXIXIX! k g 1 1 d 1 1 1 y y y 1 y y p y y y d g y y y y y y y y y y y y y y y y y y y y y y d d y y y y y y y y y y y y y y y y y y y y y y y y y y y y y y y y p p p p p p p p p p p p p p p p y y p p y y d d y y y y y y y y y y y p y y y y d d y y y y y y y y d y y y p g y y y d y y y y y y y p y y y y d d y y y y y y y d y y y d d d y y y y y y y y y y y y y y y y y y y y y y y y p y y y p p y y y y y y y y y y p p p p p p p p p p p p p p p p p p p p p p p p p p p p p p p y p p p p p p p p p p p p p p p p p p p p p p p p p p p p p p p p p p p p p p p p p p p p p p p p p p p p p p y p p p p p p p p p p p p p p p p p p p p p p p p y p p p p p p p p p p p p p p p d y y y y y y y y y y p p p y d d y y y y y y y y p p p y y y y y y y y y y y y y y y y y y y y y p y y y p y y y y y y y y y y y 1 1 g e 4 1 1 y 1 g ! IXIXIXIXIXIXIXIXIXIXIXIXIXIXIXIXIXIXIXIXIXIXIXIXIXIXIXIXIXIXIXIXIXIX",
"IXIXIXIXIXIXIXIXIXIXIXIXIXIXIXIXIXIXIXIXIXIXIXIXIXIXIXIXIXIXIXIXIXIXIXQ k g 1 > y 1 1 1 1 1 y y y y p p y y d d y y y y y y y y y y y y y y y y y y y y y y d d y y y y y y y y y y y y y y y y y y y y y y y y g d y p y y y y p p p p p p p p p p p p p p p p y y p y y y d d y y y y y y y y y y y y y y y y d d y y y y y d y y g d y y y y y y y d y y y y y y y y y y y y y d y y d y y y d y y y y d d d y g p y y y y y y y y y y y y y y y y p y y y y p y y y y y y y y y y y d y y y p p p p p p p p p p p p p p p p p p p p p p p p p p p p p p p p p p p p p p p p p p p p p p p p p p p p p p p p p p p p p p p p p p p p p p p p p p p p p p p p p p p p p p y p p p p p p p p p p p p p p p p p p p p p p p p p p p p p p p y p p p p p p p p y y y y y y y y y y y y y y y d d y y y y y y d d y y y y y y y y p y y y y y d y y y y y y y y y p y y y p y y y y y y y y y y y 1 1 g g 1 1 1 1 1 g IXIXIXIXIXIXIXIXIXIXIXIXIXIXIXIXIXIXIXIXIXIXIXIXIXIXIXIXIXIXIXIXIXIXIX",
"IXIXIXIXIXIXIXIXIXIXIXIXIXIXIXIXIXIXIXIXIXIXIXIXIXIXIXIXIXIXIXIXIXIXIXW 1 g h 1 4 1 1 1 e 1 0 0 d d d y y y d d y p y y d d y g d y d d y y y y d g d y y y p d p p y y y y d d d y y y y y y y y y d d d d y y d d d d y y y y p p p p p p p p p p p y p p p p y d d d y y y d y y y y d g y y y y d d y y y y d p p y y d d g y d d g y y y y y p d d d y y y y y d d y y y y y y y y d g g d y d y y y y d y d d d d y y y y y p y y d d d g y y d d y y y y y y y y y y d d d d p p y y d y p p p p p p p p p p p p p p p p p p y y p p p p p p p p p p p p p p p p p p p p p p p p p p p p p p p p p p p p p p p y p p p p p p p p p p p p p p p y p p p p p p p p p p p p p p p p p p p p p p y y p p p p p p p p p p p p p p p p p p p p p p p p p p p d d y d d y y y y d y y d y y y d y y y y d d d d d y d d y y y y g d y y y y g g y y d d y y y y d y y y y y d d d d p y y y y y 1 1 1 d 1 1 1 1 1 1 IXIXIXIXIXIXIXIXIXIXIXIXIXIXIXIXIXIXIXIXIXIXIXIXIXIXIXIXIXIXIXIXIXIXIX",
"IXIXIXIXIXIXIXIXIXIXIXIXIXIXIXIXIXIXIXIXIXIXIXIXIXIXIXIXIXIXIXIXIXIXIX! > g k g 4 1 1 1 e e 0 0 0 0 y 1 y 1 d 0 d e y 1 y e g e y 0 y 1 y 1 y 1 g e d 1 y 1 g e g 1 y 1 d 0 d e g 1 y 1 y 1 y 1 y 0 d 0 d 0 d 0 d 0 d 1 y 1 y 1 y 1 p 1 p 1 p 1 p 1 p 1 p 1 p 1 d 0 d 0 y 1 y 1 p 4 d 0 d e g 1 y 0 d 1 y 1 y 1 d 1 y 1 y 0 g e y 1 d e y 1 y 1 y 4 d 0 d 4 p 1 y 0 d 1 y 1 y 1 p e y 1 d 1 g 0 y 0 y 0 y 0 y 0 d 0 d 1 y 1 y 1 d 4 y 1 y e g e d 0 d 1 y 1 y 1 d 1 y 1 y 0 d 0 d 0 y 1 y 1 y 1 y 1 p 0 p 1 p 1 p 1 p 1 p 1 p 0 p 1 p 1 p 1 p 1 p 1 p 0 p 1 p 1 p 0 p 1 p 1 p 1 p 1 p 1 p 1 p 1 p 1 p 1 p 0 p 0 p 1 p 1 p 1 p 1 p 1 p 1 p 1 p 0 p 1 p 1 p 1 p 1 p 1 p 1 p 1 p 1 p 1 p 1 p 1 p 0 p 1 p 1 p 1 p 1 p 1 p 0 p 1 p 1 p 1 p 0 p 1 p 1 p 1 p 1 p 1 p 0 d 0 d 0 y 0 y 0 d 0 d 0 y 1 y 1 d 0 y 0 y 0 d 0 d 0 d 0 y 1 y 1 d 0 y 1 y 0 d e d 0 d 0 y 1 y 1 d 1 y 1 y 1 d 0 d 0 d 1 y 1 y 1 1 1 1 d 1 1 1 1 1 1 IXIXIXIXIXIXIXIXIXIXIXIXIXIXIXIXIXIXIXIXIXIXIXIXIXIXIXIXIXIXIXIXIXIXIX",
"IXIXIXIXIXIXIXIXIXIXIXIXIXIXIXIXIXIXIXIXIXIXIXIXIXIXIXIXIXIXIXIXIXIXIXW 1 g g 1 0 0 0 0 4 4 1 1 1 1 1 1 1 1 1 1 1 1 1 1 1 1 1 1 1 1 1 1 1 1 1 1 1 1 1 1 1 1 1 1 1 1 1 1 1 1 1 1 1 1 1 1 1 1 1 1 1 1 0 0 1 1 1 1 1 1 1 1 1 1 1 1 1 1 1 1 1 1 1 1 1 1 1 1 1 1 1 1 g e g e g e g e 1 1 1 1 1 1 1 1 g e g e g e g e 1 1 1 1 1 1 1 1 g e g e g e g e 1 1 1 1 1 1 1 1 g e g e g e g e 1 1 1 1 1 1 1 1 d 0 d 0 d 0 g e 1 1 1 1 1 1 1 1 1 1 1 1 1 1 1 1 1 1 1 1 1 1 1 1 1 1 1 1 1 1 1 1 1 1 1 1 1 1 1 1 1 1 1 1 1 0 1 1 1 1 1 1 1 1 1 1 1 1 1 1 1 1 1 1 1 1 1 1 1 1 1 1 1 1 1 1 1 1 1 1 1 1 1 1 1 1 1 1 1 1 1 1 1 1 1 1 1 1 1 1 1 1 1 1 1 1 1 1 1 1 1 1 1 1 1 1 1 1 1 1 1 1 1 1 1 1 1 1 1 1 1 1 1 1 1 1 1 1 1 1 1 1 1 1 1 1 1 1 1 1 1 1 1 1 1 1 1 0 1 1 1 1 1 1 1 1 1 1 d 0 d 0 g e g e g e g e g e g e 0 0 0 0 d 0 g e 1 1 1 1 1 1 1 1 g e g e g e g e g e g e g e g e 1 1 1 1 1 1 1 1 g e y 1 1 1 1 1 d 0 d 1 4 p 1 d 1 g IXIXIXIXIXIXIXIXIXIXIXIXIXIXIXIXIXIXIXIXIXIXIXIXIXIXIXIXIXIXIXIXIXIXIX",
"IXIXIXIXIXIXIXIXIXIXIXIXIXIXIXIXIXIXIXIXIXIXIXIXIXIXIXIXIXIXIXIXIXIXIXW 1 g g 1 1 1 0 0 p p 1 1 e e e e e e e e 0 0 1 1 1 1 1 1 e e e e e e e e 1 1 1 1 1 1 1 1 0 0 1 1 1 1 1 1 e e e e e e e e 0 0 0 0 0 0 1 1 1 1 1 1 1 4 4 4 1 0 0 0 0 1 0 0 0 0 0 0 0 1 0 0 e e e e e e e e g g g g e e g g e e e e e e e e 0 e e e e e e e e e e e e e e e e e e e e e e e e e e e e e e e 0 e e e e e e e 0 0 0 0 0 0 e e 1 1 1 1 1 4 4 4 0 0 1 0 1 1 1 1 e e e e e e 0 e e e 1 1 1 1 1 1 1 1 1 1 1 1 1 1 0 0 0 0 0 0 0 0 0 0 0 0 0 0 0 0 0 0 0 0 0 0 0 0 0 0 0 0 0 0 0 0 0 0 0 0 0 0 0 0 0 0 0 0 0 0 0 0 0 0 0 0 0 0 0 0 0 0 0 0 0 1 0 0 0 0 0 0 0 0 0 0 0 0 0 0 0 1 0 0 0 0 0 0 0 0 0 0 1 1 1 1 1 1 1 1 0 0 0 0 0 0 0 0 0 0 0 0 0 0 0 0 0 0 0 0 0 0 0 0 0 0 0 0 0 0 0 0 e e e e e e e e e e e e e e e e 0 0 0 0 0 0 e e e e e e e e e e e e e e e e e e e e e e e e e e e e e e e e e e e e e e e e e e d 0 0 1 4 1 1 0 1 g IXIXIXIXIXIXIXIXIXIXIXIXIXIXIXIXIXIXIXIXIXIXIXIXIXIXIXIXIXIXIXIXIXIXIX",
"IXIXIXIXIXIXIXIXIXIXIXIXIXIXIXIXIXIXIXIXIXIXIXIXIXIXIXIXIXIXIXIXIXIXIXW 1 g g 1 y 1 1 y 1 y y 1 d g g g g g g g 1 1 1 1 1 1 1 1 d g g g g g g g 1 1 1 1 1 1 1 1 1 1 1 1 1 1 1 1 g g g g g g g g 1 1 1 1 1 1 1 1 1 1 1 1 1 4 4 1 1 1 1 1 1 1 1 1 1 1 1 1 1 1 1 1 1 1 1 1 1 1 1 1 g g g g g g g g 1 1 1 1 1 1 1 1 d g g g g g g g 1 1 1 1 1 1 1 1 g g g g g g g g 1 1 1 1 1 1 1 1 d g g g g g g g 1 1 1 1 1 1 1 1 1 1 1 1 1 4 4 1 1 1 1 1 1 1 1 1 g g e e g g g g 1 1 1 1 1 1 1 1 1 1 1 1 1 1 1 1 1 1 1 1 1 1 1 1 1 1 1 1 1 1 1 1 1 1 1 1 1 1 1 1 1 1 1 1 1 1 1 1 1 1 1 1 1 1 1 1 1 1 1 1 1 1 1 1 1 1 1 1 1 1 1 1 1 1 1 1 1 1 1 1 1 1 1 1 1 1 1 1 1 1 1 1 1 1 1 1 1 1 1 1 1 1 1 1 1 1 1 1 1 1 1 1 1 1 1 1 1 1 1 1 g g g g g g g g 1 1 1 1 1 1 1 1 1 1 1 1 1 1 1 1 1 1 4 4 4 4 4 4 1 1 1 1 1 1 1 1 0 0 0 1 1 1 1 1 p p p p p p p p 1 1 1 1 1 1 1 1 1 1 1 1 1 1 1 1 g g g g g g g g 1 1 g g g g g g d p 1 1 4 1 y 0 1 g IXIXIXIXIXIXIXIXIXIXIXIXIXIXIXIXIXIXIXIXIXIXIXIXIXIXIXIXIXIXIXIXIXIXIX",
"IXIXIXIXIXIXIXIXIXIXIXIXIXIXIXIXIXIXIXIXIXIXIXIXIXIXIXIXIXIXIXIXIXIXIXW 1 g g 1 1 0 1 y 1 1 y 1 1 1 1 1 1 1 1 1 d 0 y 1 y 1 y 1 1 1 1 1 1 1 1 1 d 0 y 1 y 1 y 1 d 0 y 1 y 1 y 1 1 1 1 1 1 1 1 1 y 0 y 0 y 1 y y 1 1 1 1 4 4 4 4 1 1 1 1 1 1 1 1 1 1 1 1 1 1 1 1 1 1 1 1 1 1 1 1 y 1 y 1 y 1 y 1 1 1 1 1 1 1 1 1 1 1 1 1 1 1 1 1 1 1 1 1 1 1 1 1 1 1 1 1 1 1 1 1 1 1 1 1 1 1 1 1 1 1 1 1 1 1 1 1 1 1 1 1 1 1 y 1 1 1 1 1 4 4 4 4 1 1 1 1 y 1 y 1 1 1 1 1 1 1 1 1 d 0 y 1 y 1 y 1 p p p g y 1 y 1 1 1 1 1 1 1 1 1 1 1 1 1 1 1 1 1 1 1 1 1 1 1 1 1 1 1 1 1 1 1 1 1 1 1 1 1 1 1 1 1 1 1 1 1 1 1 1 1 1 1 1 1 1 1 1 1 1 1 1 1 1 1 1 1 1 1 1 1 1 1 1 1 1 1 1 1 1 1 1 1 1 1 1 1 1 1 1 1 p d p g p g p g 1 1 1 1 1 1 1 1 y 1 y 1 y 1 y 1 1 1 1 1 1 1 1 1 1 1 1 1 1 1 1 1 y 1 4 1 y 1 y 1 1 1 1 1 1 1 1 1 d 0 y 0 y 1 y 1 y 1 y 1 p 4 p 4 1 1 1 1 1 1 1 1 1 1 1 1 1 1 y 1 1 1 1 1 1 1 1 1 y g g g g 1 y 1 4 4 1 1 1 1 1 1 1 g IXIXIXIXIXIXIXIXIXIXIXIXIXIXIXIXIXIXIXIXIXIXIXIXIXIXIXIXIXIXIXIXIXIXIX",
"IXIXIXIXIXIXIXIXIXIXIXIXIXIXIXIXIXIXIXIXIXIXIXIXIXIXIXIXIXIXIXIXIXIXIXW 1 g g 1 1 4 1 p 4 1 1 1 g g p g p g p g g g g g g g g g p g p g p g p g g g g g g g g g g g g g g g g g p g p g p g p g g g g g g g g g p p p p a p a p p p p p p p p p p p p p p p p p p g p g p g p g p g p g p g p g p g p g p g p g p g p g p g p g p g p d p g p g p g p g p g p g p g p g p g p g p g p g p g p g p g p g p g p p p p p p a p a p p y p g p g p g p g p g p g p g g g g g g g g g g g g g g g g g p p p p p p p p p p p p p p p p p p p p p p p p p p p p p p p p p p p p p p p p p p p p p p p p p p p p p p p p p p p p p p p p p p p p p p p p p p p p p p p p p p p p p p p p p g p p p p p p p p p p p p p p p p p p p p p p p p p p p p p p p p p p p p p p p p p p p p p p p p p g g g d d g g g g g g g g p p p p p p p p p g p g p g p g p g p g p g p g p g p g p g p g h h g g g g y y 1 1 1 1 1 1 1 1 1 g IXIXIXIXIXIXIXIXIXIXIXIXIXIXIXIXIXIXIXIXIXIXIXIXIXIXIXIXIXIXIXIXIXIXIX",
"IXIXIXIXIXIXIXIXIXIXIXIXIXIXIXIXIXIXIXIXIXIXIXIXIXIXIXIXIXIXIXIXIXIXIXW 1 g g 1 0 0 y 1 1 1 1 y g g h g h h h g g g g g g g g g h g h g h h h h g g g g g g g g g g g g g g g g h g h g h g h g g g g g g g p g h h h h a a a a a h a h a h a h a h a h a h a h p g g g g g g g g g g g g g g g g g g g g g g g h g h g h g h g g g g g g g g g h g h g h g h g g g g g g g g g h g h g h g h g g g g g g g p g h h h h a a a h g g g p p y y y h g h g h g h g g g g g g g g g g g g g g p g g h h a h a h a a a a a h a h a h a h a h a a a h a h a h a h a h a a a h a h a h a h a h a h a h a h a h a h a h a h a h a h a h a h a h a h a h a h a h a h a h a h a h a h a h p p p p p p p p a h a a a a a h a p a p a p a p a h a h a h a a a a a h a h a a a a a a a a a a p g g g g g g g g g h h h h h h p p p p a a a p p g g g g g g g g g g g g g g g h g h g h g h g h g g g p p g g y 1 1 1 1 1 1 1 1 g IXIXIXIXIXIXIXIXIXIXIXIXIXIXIXIXIXIXIXIXIXIXIXIXIXIXIXIXIXIXIXIXIXIXIX",
"IXIXIXIXIXIXIXIXIXIXIXIXIXIXIXIXIXIXIXIXIXIXIXIXIXIXIXIXIXIXIXIXIXIXIXW 1 g g 1 1 1 1 0 y 1 1 y < < y < y < y < , < , , , , , , y < y < y < y < , , , , , , < , , < , , , , , , y < y < y < y < , , , , < < < < u u p p p p a p p p p p a p p p p p p p a p p p < < < < u < u < < < < < < < < < u < u < < < < < y < y < y < y < < < < < < < , < y < y < y < y < u < u < < < < < y < y < < < y < < < < < < < < < u u p p p p a p y u y < < , , , y < y < y < y < , < , , , , , , , , , , , , , < p p p p p p p p a p p p p p p p p p p p a p p p p p p p p p p p a p p p p p p p p p a p p p p p p p p p a p a p p p p p a p p p p p p p a p a p p p p p a p p p p p p p p p p p a < a < a < a < p p p p p p p p p p p p p p p p p p p p p p p p a p p p p p p p p p p 1 a u u u < < < < < < < < , , u y u u a p u u p p p p p p < < < < u < < < < < < < < < < < y < y < y < y < u , , , < u a h d 0 1 1 1 1 1 1 1 g IXIXIXIXIXIXIXIXIXIXIXIXIXIXIXIXIXIXIXIXIXIXIXIXIXIXIXIXIXIXIXIXIXIXIX",
"IXIXIXIXIXIXIXIXIXIXIXIXIXIXIXIXIXIXIXIXIXIXIXIXIXIXIXIXIXIXIXIXIXIXIXW 1 g g 1 y 1 0 0 1 y y y o O O O O O O O O o o o o o . . O O O O O O O O o o . . o o o . . . o o o o . . O O O O O O O O . . . . . . o o : : > > > > > > > > > > > > > > > > > > > > > : : : o o o o o o O O O O O O O O o o o o o o o o O O O O O O O O o o o o o o o o O O O O O O O O o o o o o o o o O O O O O O O O o o o o o o o o : > > > > > > > > > : : o . . . O O O O O O . O . o o o o o . . O o o . . o O O > > > > > > > > > > > > > > > > > > > > > > > > > > > > > > > > > > > > > > > > > > > > > > > > > > > > > > > > > > > > > > > > > > > > > > > > > > > > > > > > > > > > > > > > > > > > > > > > > > > > > > > > > > > > > > > > > > > > > > > > > > > > > > > > > > > > > : > > o o o o o o o o O . . o : : > > > > > > > > > > o = o o o o o o o o o o o o o o O O O O O O O O O O O . o > u h d 1 1 1 1 1 1 1 1 g IXIXIXIXIXIXIXIXIXIXIXIXIXIXIXIXIXIXIXIXIXIXIXIXIXIXIXIXIXIXIXIXIXIXIX",
"IXIXIXIXIXIXIXIXIXIXIXIXIXIXIXIXIXIXIXIXIXIXIXIXIXIXIXIXIXIXIXIXIXIXIXW 1 y h 1 1 1 1 e y 1 < ,   k r 7 t 7 $ 7 t t 7 7 7 t 7 7 7 7 7 7 7 7 7 7 7 7 7 7 7 7 7 7 7 7 7 7 7 7 7 7 7 7 7 7 7 7 7 7 $ 7 7 7 7 t t @ w w w q q q q q w w w w w w w w q w q q q q q w w w r t 7 $ 7 7 7 7 9 9 7 7 7 7 7 7 7 7 7 7 7 7 7 7 7 7 7 7 7 7 7 7 7 7 7 7 7 7 7 7 7 7 7 7 7 7 7 7 7 7 7 7 7 7 7 7 7 7 7 7 7 7 t 7 7 t t t q w w w w q w q q q 0 w @ $ t t t $ 7 9 7 7 7 7 6 6 7 7 7 7 7 7 7 7 # 7 t 7 7 t q @ w q q q q q q q q q q q q q q q q q q q q q q q w w w w w w w w q q q q q q q q q q q q q q q q q q q q q q q q q q q q q q q q q q q q q q q q q w q q q q w q q q q q q q q q q q q q q q q q q q q q q q q q q q q w w q w w w w q q q q q w q q q q q q q w w w 9 q w @ $ t t t 7 7 7 8 r r 9 7 t r q @ @ q q q q q q q q w @ q r r 7 7 9 7 7 7 7 7 8 7 7 7 7 7 7 7 7 8 8 8 q 7 7 7 t * = s y y y y 1 1 y 1 1 1 W IXIXIXIXIXIXIXIXIXIXIXIXIXIXIXIXIXIXIXIXIXIXIXIXIXIXIXIXIXIXIXIXIXIX",
"IXIXIXIXIXIXIXIXIXIXIXIXIXIXIXIXIXIXIXIXIXIXIXIXIXIXIXIXIXIXIXIXIXIXIXW 1 y h 1 1 1 1 e y 1 < > E T N.U T T U N.T T U U U U U U T T T U T U T T T T T U T T T T U U U U U U U U U U U U U U U U I N.N.U R T Y B M M M N N M N N N M M M M M M M M M M M M M M M b V L U U I U N.N.N.N.T T U N.N.N.T U U T T T T T U T T T T T U U U U U U U U U U U U U U U U U U U U U U U U U T T T U T U T N.N.N.T T R U B M M M M M M M N N N b n B U N.R U T N.N.N.T T T T T T T T T T N.T I T N.U R N.L B b M M N N M M M M M M M M M M M M M M M M M M M M M M M M M M M N M M M M M M M M M M M M M M M M M M M M M M M M M M N M M M M M M M M M M M M N N N N M M M M M M M M M M M M M M M M M M M M M M M M M M M M M M M N M M M M V V V V V V M N M M M M M M N M M M M N V b B K T R U U U U T N.U U N.N.P b b M M M M M N M M M v B K T U U U U U U U T T T U U U U T T T T T T T N.N.N.T E 1 y y y 1 1 1 0 y y 1 1 W IXIXIXIXIXIXIXIXIXIXIXIXIXIXIXIXIXIXIXIXIXIXIXIXIXIXIXIXIXIXIXIXIXIX",
"IXIXIXIXIXIXIXIXIXIXIXIXIXIXIXIXIXIXIXIXIXIXIXIXIXIXIXIXIXIXIXIXIXIXIXW 1 y h 1 1 1 g g y < , $ N.nXZX@XzXzX#XcXzXzXzXzXvXvXvXvXvXvXvXvXvXvXvXvXvXvXvXvXvXvXvXvXzXzXvXvXzXzXzXzXzXzXzXzXzXzXzXzXzXbXcXzXzXvX).V.] 0.0.0.0.0.0.0.8.8.8.8.8.8.8.8.8.0.8.8.0.8.8.8.' B.).#XzXzXvXcXvXvXvXvXvXvXvXvXvXvXvXvXvXvXvXvXvXvXvXvXvXvXvXvXzXzXzXzXzXzXzXzXzXzXzXzXzXzXzXzXzXvXvXvXvXvXvXvXvXvXvXvXvXvXvXvXNXvXvXvXvX).B.8.0.0.0.0.0.0.0.0.8.0.8.B.).cXcX#XxXxXvXvXvXvXvXvXvXvXvXvXvXvXvXvXnXcXNX+X+XvX).V.] 8.8.8.8.8.8.8.8.8.8.8.8.8.8.8.8.8.8.8.8.8.8.8.8.8.8.8.8.8.8.8.8.8.8.8.8.8.8.8.8.8.8.8.8.8.8.8.8.8.8.8.8.8.8.8.8.8.8.8.8.8.8.8.8.8.8.8.8.8.8.8.8.8.8.8.8.8.8.8.8.8.8.8.8.8.8.8.8.8.8.8.8.8.8.8.8.8.8.8.8.8.8.8.8.8.8.8.8.8.8.8.8.8.a.8.8.8.8.8.8.8.8.8.8.8.8.8.8.0.8.a.i.' B.).vXvXvX#X@X@XvXvXvX@XvXlXH.q.` 0.0.0.8.8.8.8.8.8.] B.).#X@X@XzXvXzXzXzXvXzXzXzXzXvXzXzXzXzX+X+XOXOXOXNXKXxXI t : 1 1 1 1 0 0 0 1 1 4 W IXIXIXIXIXIXIXIXIXIXIXIXIXIXIXIXIXIXIXIXIXIXIXIXIXIXIXIXIXIXIXIXIXIX",
"IXIXIXIXIXIXIXIXIXIXIXIXIXIXIXIXIXIXIXIXIXIXIXIXIXIXIXIXIXIXIXIXIXIXIX! 1 y h 1 1 1 g g y < , $ N.NXHXpXpXuXuXAXAXAXpXpXpXpXpXpXpXpXpXpXpXpXpXpXpXpXpXpXpXpXpXpXpXpXpXpXpXpXpXpXpXpXpXpXpXpXpXpXZXGXGXAXAXDX$XF.5.4.4.4.e.e.e.e.e.e.e.e.e.e.e.e.e.e.e.e.e.e.e.t.,.c.Q.aXGXGXDXGXpXpXAXpXpXpXaXaXpXpXAXpXAXpXAXpXpXpXpXpXpXpXpXpXAXpXAXpXAXpXAXpXpXpXpXpXpXpXpXpXAXAXAXAXAXAXAXAXpXpXpXpXpXpXpXpXGXAXDXFXDX;XD.4.4.4.4.e.e.e.e.e.e.3.4.D.,XGXGXpXAXAXAXaXaXaX8X8XpXpXAXAXpXpXpXAXuXGXAXpXpXpX/.A.4.w.e.e.e.e.e.t.e.e.e.e.e.e.e.e.e.e.e.e.e.e.e.e.e.e.e.e.e.e.e.e.e.e.r.e.r.e.r.e.r.e.r.e.r.e.r.e.e.e.e.e.e.e.e.e.e.e.e.e.e.e.e.e.e.e.e.e.e.e.e.e.e.e.e.e.e.e.e.e.e.e.e.e.e.e.e.e.e.e.e.e.e.e.e.e.e.e.e.e.e.e.e.e.e.e.e.e.e.e.e.e.e.e.e.e.t.e.e.e.r.e.r.e.r.e.r.e.e.w.e.r.&.w.C.$XDXAXAXpXpXpXpXAXAXpXGXBXR.y...@.e.e.r.r.r.r.r.e...Z.Q.8XAXpXpXpXpXpXaXAXAXAXAXAXAXAXAXpXpXaXaXaXaXaXGXHXKXU 7   1 1 1 1 e e e 1 1 4 W IXIXIXIXIXIXIXIXIXIXIXIXIXIXIXIXIXIXIXIXIXIXIXIXIXIXIXIXIXIXIXIXIXIX",
"IXIXIXIXIXIXIXIXIXIXIXIXIXIXIXIXIXIXIXIXIXIXIXIXIXIXIXIXIXIXIXIXIXIXIX! 1 y g 1 1 0 g g y 1 , $ J zXHXtX4X4X<XuX4X4X1X1X1X1X1X1X<X<X<X<X<X<X<X<X1X1X1X1X1X1X1X1X1X1X1X1X1X1X1X1X<X<X<X<X<X<X<X<XoXyX2X2XuXMX~.v.,.:.3.@.&.&.*.*.w.w.w.w.w.w.w.w.3.@.w.@.w.3.w.:.( k.W.8XDXuX4X<X<X<X4X<X1X1X<X<X1X1X<X1X<X1X1X1X<X<X<X<X<X<X<X<X4X2X4X2X4X2X4X2X<X1X<X<X<X<X<X<X4X2X4X2XuX2XuX2X<X<X<X<X<X<X<X<X1XoXrXAXAX;XC.-.:.:.@.@.&.&.&.&.#.O.@.C.$XAXpXrXwX+X<X<X<X<X*X*X1X1X1X1X1X1X7X1XoX4X2X2XuX6XE.z.,.+.+.3.w.3.6.3.w.3.w.3.w.3.w.3.w.3.w.3.w.3.w.3.w.3.w.3.w.3.w.w.w.w.w.w.w.w.w.w.w.w.w.w.w.w.w.w.w.3.w.3.w.3.w.3.w.3.w.3.w.3.w.3.w.3.w.3.w.3.w.3.w.3.w.3.w.3.w.3.w.3.w.3.w.3.w.3.w.3.w.3.w.3.w.3.w.3.w.3.w.3.w.3.w.3.w.3.w.3.w.3.@.@.3.3.3.3.3.3.t.t.t.t.t.t.t.t.@.@.3.:.X.| x.%XMXuX4X4X1X1XyXyX1XyXpXMXK.1.| @.3.3.w.&.&.w.w.3.[ u.R.5XaXrX1XoX1X1X7X5X4X4X1X1X1X1X1X1X2X=X=X-X-X-X-XHXbXK % X y 1 e 0 e e 1 1 1 1 W IXIXIXIXIXIXIXIXIXIXIXIXIXIXIXIXIXIXIXIXIXIXIXIXIXIXIXIXIXIXIXIXIXIX",
"IXIXIXIXIXIXIXIXIXIXIXIXIXIXIXIXIXIXIXIXIXIXIXIXIXIXIXIXIXIXIXIXIXIXIXW 1 y g 1 1 1 g g y < , # F zXHX].XXOX'.'._._._.`._._.`.`.XXXXXXXXXXXXXXXX'.'.'.'.'.'.XXXX'.'.'.'.'.'.'.'.'.'.'.'.'.'.'.'.XXXX'.'.4XMX^.k.;.o.+.$.$.%.$.$.+.+.+.+.+.+.+.+.+.+.+.+.+.+.+.+./ j.W.5X6XXX|.`.'.'.XXXX].'.'.'._._._._._._.'.'.XXXXXXXXXXXXXXXX'.'.'.'.'.'.'.'.'.'.'.'.'.'.'.'.'._._._.'.'.'.'.XXXXXXXXXXXXXX'.`.`.[.1XuXQ.x.( ....O.+.O.%.%.%.%.O.+.x.Q.2X2X[.].].'.'.'.'.*X*X'.'.'.'.'._._.|.@XXX_._.1X6XY.f.|  .O.+.:.:.:.:.:.:.+.+.:.:.:.:.:.+.+.+.+.+.+.+.+.+.+.+.+.+.+.+.:.:.:.:.:.:.:.:.:.:.:.:.:.:.:.:.:.+.:.:.:.:.:.:.:.:.:.:.:.:.:.:.:.:.:.:.:.:.:.:.+.+.+.+.+.+.+.+.+.+.:.:.:.:.:.:.:.:.:.:.:.:.:.:.:.:.:.:.:.:.:.:.+.+.+.+.+.+.+.+.+.+.+.+.+.+.:.:.+.+.:.:.:.:.:.+.@...+.+.X.( z.~.3XoXXX'.[.[.'.XX_.'.rX3XH.<.| $.:.:.6.$.+.+.:.:.[ u.K.,X1X'.'.`.'._._._.XXXX'.'.'.'.XXXX'.'._._.`.9X[.DXbXL & , y 1 0 0 1 4 1 1 1 1 W IXIXIXIXIXIXIXIXIXIXIXIXIXIXIXIXIXIXIXIXIXIXIXIXIXIXIXIXIXIXIXIXIXIX",
"IXIXIXIXIXIXIXIXIXIXIXIXIXIXIXIXIXIXIXIXIXIXIXIXIXIXIXIXIXIXIXIXIXIXIXW 1 y g 1 1 e e g y < , # J vXHX[.XX4XXX[.XX'.'.'.'.'.'.'.<X<X<X<X<X<X<X<X'.'.'.'.'.'.'.XX'.'.'.'.'.'.'.'.'.'.'.'.'.'.'.'.XX<X_._.uXMX^.k.;.O.+.+.%.$.6.6.+.+.+.+.+.+.+.+.+.+.+.+.+.+.+.+./ y.R.,X5XXX_.'.].].XXoX].].'.*X'.'.'.'.'.'.'.'.<X<X<X<X<X<X<X<X'.'.'.'.'.'.'.'.'.'.'.'.'.'.'.'.'.'.'.'.'.'.'.'.<X<X<X<X<X<X<X*X'.`.`.<X6XQ.Z.} +.+.+.+.$.$.9.9.6.o.>.x.!.2X=X[.].].*X*X].].].].'.'.XXXX'.*X_.|.XXXX_.`.1XMXE.g.|  .O.+.:.:.:.:.:.:.:.:.:.:.:.:.:.+.@.@.+.@.+.+.@.@.@.@.+.+.+.+.:.:.:.:.:.:.:.:.:.:.:.:.:.:.:.:.:.+.:.:.:.:.:.:.:.:.:.:.:.:.:.:.:.:.:.:.:.:.:.:.:.:.+.@.+.+.+.+.@.+.:.:.:.:.:.:.:.:.:.:.:.:.:.:.:.:.:.:.:.:.:.:.:.:.:.+.+.+.@.:.:.:.:.:.:.:.:.:.:.+.+.+.+.+.+.+.3...+.:.O.| g.~.7XoXoX'.[.'.&X<X_.<XrX3XH.>.X.&.:.6.6.$.&.+.:.:.( j.Y.|.<X'.XXXXXX_.&X_.XXXX'.'.'.*XXXXXXXOXXXXX_.9X&XDXxXF $ 2 1 1 1 0 1 y y y 1 1 W IXIXIXIXIXIXIXIXIXIXIXIXIXIXIXIXIXIXIXIXIXIXIXIXIXIXIXIXIXIXIXIXIXIX",
"IXIXIXIXIXIXIXIXIXIXIXIXIXIXIXIXIXIXIXIXIXIXIXIXIXIXIXIXIXIXIXIXIXIXIX! 1 y g 2 1 e e g 1 < , # H vXFX[.@X6XXX`.oX<X<X<X<X<X<X<X].*XXX*XXX*XXX*X<X*XXX*XXX*XXX<X'.'.'.'.XX'.'.'.XX*XXX*XXX*XXX<X1X<X_.`.uXMX^.k.;.+.+.+.$.$.6.6.6.:.:.:.:.:.:.+.+.+.+.+.+.+.+.+./ y.K.,X6X4XoX<X].].XXXX].].*X*X<X<X<X<X<X<X<X<XXX*XXX*XXX*XXX*X<X<X<X<X<X<X<X<X<X*XXX*XXX*XXX*XXX*XXX*XXX*XXX*XoX*XoX*XXX*XXX*X2X'.'.4X6XQ.Z.| :.:.:.6.6.6.0.0.0.;.>.x.!.2XtX[.].].*X*XXXoXoXXX'.*X<X<X*X*X*X<X4X<X`.`.1XMX^.k.| O.O.+.:.:.:.:.:.:.:.:.:.:.:.:.:.:.:.3.3.3.:.:.w.w.w.w.w.w.w.w.:.:.:.:.:.:.:.:.:.:.:.:.:.:.:.:.:.+.:.:.:.:.:.:.:.:.:.:.:.:.:.:.:.:.:.:.:.:.:.:.6.w.w.w.w.w.w.w.:.+.:.:.:.:.:.:.:.:.:.:.:.:.:.:.:.:.:.:.:.:.:.:.:.w.w.w.w.w.w.w.:.:.:.:.:.:.:.:.:.:.:.:.:.:.:.:.:...+.6.O.| g.W.6XrXwXwX].*X<X,X&X7XuX,XF.,.[ #.6.6.9.&.&.@.:.>.( j.T.|.<X1X4X4X1X<X<X<X1X+X1X1X*X<X<XOXOX+XOX<X<X`.-XGXvXG + : 1 1 1 1 y y y y 1 1 W IXIXIXIXIXIXIXIXIXIXIXIXIXIXIXIXIXIXIXIXIXIXIXIXIXIXIXIXIXIXIXIXIXIX",
"IXIXIXIXIXIXIXIXIXIXIXIXIXIXIXIXIXIXIXIXIXIXIXIXIXIXIXIXIXIXIXIXIXIXIXW 1 1 g 1 1 e 1 0 g < = $ H zXFX].XXoX[.<XoXXX].*X].*X].*X].*X].*X].*X].*X].*X].*X].*X].*X'.*XXX*X].*X].*X].*X].*X].*X].'.oX'.'.'.<XMX~.k.-.O.+.&.&.&.$.$.6.6.6.6.6.6.6.6.6.6.6.6.6.6.$.$.} 5.Y.5X4XoXoX[.].].XX'.].].*X*X*X*X].*X].*X].*X].*X].*X].*X].*X].*X].*X].*X].*X].*X].*X].*X].*X].*X].*X].*X].*X].*X].*X].*X].].].].+XyXuX/.x.( o.:.:.6.6.6.0.0.0.0.;.x.$X6X=X[.XXXX<X<X<XOX3X<X*X'.'.*X*X*X*X*XXXoX*X&X1X6XE.k.| O.$.w.6.6.6.6.6.6.6.6.6.7.7.7.6.6.6.6.6.6.6.6.6.6.6.6.6.6.6.6.6.:.6.:.6.:.6.:.6.:.6.:.6.:.6.6.6.6.6.6.6.6.6.6.6.6.6.6.7.7.6.:.7.6.6.6.6.6.6.6.6.6.6.6.6.6.6.6.6.6.6.6.6.6.6.6.6.6.6.6.6.6.6.7.7.6.6.6.6.6.6.6.6.6.6.6.6.6.6.6.6.$.$.$.$.$.6.6.6.6.+.:.6.7.7.;.:.w.t.7.%.| k.~.4XwXwXwX].'.<X&X&X&X2X>XH.>.[ #.w.w.*.&.*.@.3.>.-.h.T.4X1X].XX'.XX*X*X*XoXoX].].*X*XXXXX+XOXOXOXXX`.-XGXxXD $ ; y 1 1 1 y d 1 1 1 1 W IXIXIXIXIXIXIXIXIXIXIXIXIXIXIXIXIXIXIXIXIXIXIXIXIXIXIXIXIXIXIXIXIXIX",
"IXIXIXIXIXIXIXIXIXIXIXIXIXIXIXIXIXIXIXIXIXIXIXIXIXIXIXIXIXIXIXIXIXIXIXW < 1 g 1 1 e 1 1 g < - $ H zXFX].XXoX[.<XoXoX].].].].].].].].].].].].].].].].].].].].].].XX'.'.'.].].].].].].].].].].].oXoXXX'.XX4XMX(.k.-.O.+.+.&.6.6.6.6.6.6.6.6.6.6.6.6.6.6.6.6.6.$.$.} 1.W.2X4XoXoX[.].].XXXX].].*X*X*X].].].].].].].].].].].].].].].].].].].].].].].].].].].].].].].].].].].].].].].].].].].].].].].oX@X+XCXyX/.x.( o.:.6.6.6.:.7.7.9.%.;.x.$X6X=X'.oXOX<X<XOX3X3X3X'.].'.'.*X*X*X*XXXoX*X_.1X6XE.k.| O.$.w.6.6.6.6.6.6.6.6.6.7.7.7.6.6.6.6.6.6.6.6.6.6.6.6.6.6.6.6.6.6.6.6.6.6.6.6.6.6.6.6.6.6.6.6.6.6.6.6.6.6.6.6.6.6.6.6.7.7.6.6.7.6.7.6.6.6.6.6.6.6.6.6.6.6.6.6.6.6.6.6.6.6.6.6.6.6.7.6.7.7.6.6.7.6.7.6.6.6.6.6.6.6.6.6.6.6.6.6.$.6.$.$.$.$.6.6.6.6.6.7.7.7.7.:.:.w.6.6.%.;.v.$X5XeXeX+XoX].<X<X&X*X2X,XF.,.[ O.+.:.$.%.@.@.:.:.| 1.T.3X<X].oX'.oX*X*X*XoXoX].].'.*X'.XX+X+X+XOXXX`.=XFXbXD % - y 1 1 1 d 1 1 1 1 1 W IXIXIXIXIXIXIXIXIXIXIXIXIXIXIXIXIXIXIXIXIXIXIXIXIXIXIXIXIXIXIXIXIXIX",
"IXIXIXIXIXIXIXIXIXIXIXIXIXIXIXIXIXIXIXIXIXIXIXIXIXIXIXIXIXIXIXIXIXIXIXW < 1 g 1 1 e 1 1 h < - $ H zXHX].@X+X'.oXoXoX].].oXoXoX].].].oXoXoX].oX].oX].oX].oX].oX].oX].oX].oX].oX].oX].oX].oX].oXoXoX'.'.'.+XMX(.z.-.+.+.:.:.>.>.>.6.:.6.:.6.:.6.:.$.+.6.+.6.+.$.$.| y.W.6X4X+X+X].].].XXXX].=X*X*X].].oX].oX].oX].oX].oX].oX].oX].oX].oXoXoX].oX].oX].oX].oX].oX].oX].oX].oX].oX].oX].oX].oX].oXoXoXXX+XMX6X(.x./ O.+.$.+.+.+.:.6.$.+.o.x.$X6X<X'.oXOXOX<XOXOXOXOXoXoXoXoX].].'.XX+XoX*X_.1X6X^.k.| O.$.w.6.:.6.:.6.:.6.:.6.:.7.:.6.:.6.:.6.:.6.:.6.:.6.:.6.:.6.:.:.:.:.:.:.:.:.:.:.:.:.:.:.:.:.:.:.:.6.:.6.:.6.:.6.:.6.:.6.:.6.:.6.:.6.:.6.:.6.:.6.:.6.+.$.+.6.+.6.:.6.:.6.:.6.:.6.:.6.:.6.:.6.:.6.:.6.:.6.:.6.:.6.:.6.:.6.:.6.6.6.7.7.7.6.6.6.6.+.:.7.7.7.7.7.6.@.#.+.+.$.;.k.~.5X<XOXXX'.*X<X<X`.'.yXXXF.` / w.:.:.6.$.+.+.3.3. .u.K.>X1X].+XoXoX'.*X<XoXoX].].].].].].oXoXoXXX'.[.-XFXbXD > - y y 4 4 0 0 1 1 1 1 W IXIXIXIXIXIXIXIXIXIXIXIXIXIXIXIXIXIXIXIXIXIXIXIXIXIXIXIXIXIXIXIXIXIX",
"IXIXIXIXIXIXIXIXIXIXIXIXIXIXIXIXIXIXIXIXIXIXIXIXIXIXIXIXIXIXIXIXIXIXIXW < 1 g 1 1 e 1 1 h y - $ H zXHX].+X+X'.oXoXoXoXoXoXoXoXoXoXoXoXoXoXoXoXoXoXoXoXoXoXoXoXoXoXoXoXoXoXoXoXoXoXoXoXoXoXoXoXoXoX'.[.'.+XCX(.z.-.+.+.:.:.>.>.>.7.6.6.6.6.6.6.6.6.6.6.6.6.6.$.6.o.y.W.6XyX+X+X].].].XXXXoXoX<X<XoXoXoXoXoXoXoXoXoXoXoXoXoXoXoXoXoXoXoXoXoXoXoXoXoXoXoXoXoXoXoXoXoXoXoXoXoXoXoXoXoXoXoXoXoXoXoXoXXX'.+X6X6X~.l.} ..+.+.+.+.+.:.:.+.O.o.x.$X6X*X'.oX+XXXOXOXOXOXOXoXoXoXoXoX].XXoX+X+XXX'.1XMX^.k.| O.$.6.6.6.6.6.6.6.6.6.:.6.7.7.6.6.6.6.6.6.6.6.6.6.6.6.6.6.6.6.6.6.6.6.6.6.6.6.6.6.6.6.6.6.6.6.6.6.6.6.6.6.6.6.6.6.6.6.6.6.6.6.6.6.6.6.6.6.6.6.6.6.6.6.6.6.6.6.6.6.6.6.6.6.6.6.6.6.6.6.6.6.7.6.6.6.6.6.6.6.6.6.6.6.6.6.6.6.6.6.7.7.7.6.6.6.6.6.6.6.+.+.6.w.w.w.@.#.@.$.$.o.g.W.,X<XXX'.[.'.'.'.`.'.iX3XF.2.( w.w.6.9.t.w.w.w.w.[ 4.L.5X6XoX+XXXoXXX<X<XoXoXoX].].].].].].oXoXoX'.[.-XFXbXD % = y 1 4 g e 0 1 1 1 1 W IXIXIXIXIXIXIXIXIXIXIXIXIXIXIXIXIXIXIXIXIXIXIXIXIXIXIXIXIXIXIXIXIXIX",
"IXIXIXIXIXIXIXIXIXIXIXIXIXIXIXIXIXIXIXIXIXIXIXIXIXIXIXIXIXIXIXIXIXIXIXW 1 1 g 1 1 e 1 1 h < - $ H xXHXoX+X+X'.<XoXoXoXoXoXoXoXoXoXoXoXoXoXoXoXoXoXoXoXoXoXoXoXoXoXoXoXoXoXoXoXoXoXoXoXoXoXoXoXoXoX[.[.[.oXMX~.z.-...@.@.@.:.:.:.7.7.7.7.7.7.6.6.7.7.6.6.6.6.6.6.o.y.Y.6X4X+X+X'.oXXXXXXXoXoXoXXXoXoXoXoXoXoXoXoXoXoXoXoXoXoXoXoXoXoXoXoXoXoXoXoXoXoXoXoXoXoXoXoXoXoXoXoXoXoXoXoXoXoXoXoXoXoXoXXX*X'.XX4X6XQ.l.} ..+.:.+.+.+.:.:.:...-.x.$X6X*X[.oX+XXXXXoX+X+XoXoXoXoXXXoXoXXXXX+X+X'.'.1XMX^.k.| +.6.7.7.7.7.7.7.7.6.6.7.7.7.7.7.7.7.7.7.7.7.7.7.7.7.7.7.7.7.7.7.7.7.7.7.7.7.7.7.7.7.7.7.7.7.7.7.7.7.7.7.7.7.7.7.7.7.7.7.7.7.7.7.7.7.7.7.7.7.7.7.7.7.7.7.7.7.7.7.7.7.7.7.7.7.7.7.7.7.7.7.7.7.7.7.7.7.7.7.7.7.7.7.7.6.6.7.6.6.6.0.0.0.6.6.$.$.&.&.O.[ [ O.#.#.O.O.+.+.o.X.( g.~.6XrXrXrX=X=X=X1XoXCXFXMXF.;.^ { O.%.%.%.%.%.%.%.^ ,.G.>X4XoX+X@XoXoX<XXXoXoXoXXXoX].].].].].oXoX'.[.-XGXxXF $ ; y y p 4 0 1 4 y 1 1 W IXIXIXIXIXIXIXIXIXIXIXIXIXIXIXIXIXIXIXIXIXIXIXIXIXIXIXIXIXIXIXIXIXIX",
"IXIXIXIXIXIXIXIXIXIXIXIXIXIXIXIXIXIXIXIXIXIXIXIXIXIXIXIXIXIXIXIXIXIXIXW 1 1 g 1 1 e 1 0 h < - $ H zXHX].XXoX'.<XoXoXoXoXoXoXoXoXoXoXoXoXoXoXoXoXoXoXoXoXoXoXoXoXoXoXoXoXoXoXoXoXoXoXoXoXoXoXoXoXoX[.[.[.oXMX(.k.-.O.@.@.@.:.:.:.7.7.7.7.7.7.6.7.7.9.6.6.6.6.6.6.} q.W.6X4X+X+X'.].'.<X<XoXoXoXoXoXoXoXoXoXoXoXoXoXoXoXoXoXoXoXoXoXoXoXoXoXoXoXoXoXoXoXoXoXoXoXoXoXoXoXoXoXoXoXoXoXoXoXoXoXoXoX'.*X'.XX4X6XQ.x.| ....:.:.+.+.:.:.:...-.x.$X6X=X'.oX+XXXXXoXoXoXoXoXXXXXXXoX'.<XXXXXoXXX'.1XMX^.k.| +.6.7.7.7.7.7.7.7.7.6.6.6.7.7.7.7.7.7.7.7.7.7.7.7.7.7.7.7.7.7.7.7.7.7.7.7.7.7.7.7.7.7.7.7.7.7.7.7.7.7.7.7.7.7.7.7.7.7.7.6.7.7.7.7.7.7.7.7.7.7.7.7.7.7.6.7.7.7.7.7.7.7.7.7.7.7.7.7.7.7.7.6.7.7.7.7.7.7.7.7.7.7.7.7.6.7.6.6.7.7.6.6.6.6.6.$.$.&.O. .[ [ } } [ ^ | -.( ( ) ) f.~.DXAXCXCXuXuXuXCXMXDXDX>XF.2.^ ^ / / / / ) ) / / ) 2.S.,X<XXXoXXXoXoXoXoXoXoXXXXXXXoX].].].].oXXXXX[.-XGXxXF $ ; d d 1 1 1 d 1 4 1 1 W IXIXIXIXIXIXIXIXIXIXIXIXIXIXIXIXIXIXIXIXIXIXIXIXIXIXIXIXIXIXIXIXIXIX",
"IXIXIXIXIXIXIXIXIXIXIXIXIXIXIXIXIXIXIXIXIXIXIXIXIXIXIXIXIXIXIXIXIXIXIXW 1 1 g 1 1 e 1 0 h y - $ H zXFX*XXXXX[.=X].].*X*XXXXXXXXX'.'.'.'.].<X'.'.'.'.'.'.'.'.'.'.'.'.'.'.].].].'.'.'.'.'.].].].'.<X[.[.].wXMX(.z.;.O.%.%.$.6.9.6.7.6.6.6.6.6.6.6.6.6.6.$.$.$.$.$.} 1.Y.5X4X].oX[.*X*X<X<X].].oXoX].'.'.'.'.'.'.'.].=X'.'.'.'.'.'.'.'.'.'.].<X'.'.'.'.'.'.'.'.'.'.'.'.'.'.].].'.'.'.'.'.'.].].].*X].[.oXyX6XQ.x.( o.:.:.+.+.+.+.6.:.o.;.x.$XuX<X'.+X+XXX<X<X<X<X<X<XXXXXXX'.*X*XXX'.oX*X'.1X5XR.k.| O.$.6.6.6.6.6.6.6.$.$.$.6.6.6.6.6.6.6.6.6.6.6.6.6.6.6.6.6.6.6.:.:.:.:.:.:.:.:.:.:.:.:.:.:.:.:.6.6.6.6.6.6.6.6.6.6.6.6.6.6.6.6.6.6.6.6.6.6.6.6.6.6.6.6.$.$.6.6.6.7.6.6.6.6.6.6.6.6.6.6.6.$.6.6.6.6.6.6.6.6.6.6.6.6.6.6.6.6.$.$.@.@.+.+.+.:.:.:.-.>.y.j.j.h.h.f.g.1.1.j.j.q.z.Y. X X/.(.Q.(.(.(.Q.!.!.E.F.l.y.y.1.1.h.h.h.f.5.1.h.v.).4X<X'.<XXXoXoXoXoX+XoX<X<XOXOXXX].=X].oXXXXX`.=XFXxXD * = y 1 1 1 1 1 1 1 1 1 W IXIXIXIXIXIXIXIXIXIXIXIXIXIXIXIXIXIXIXIXIXIXIXIXIXIXIXIXIXIXIXIXIXIX",
"IXIXIXIXIXIXIXIXIXIXIXIXIXIXIXIXIXIXIXIXIXIXIXIXIXIXIXIXIXIXIXIXIXIXIXW 1 1 g 1 1 e 1 0 h < - $ H zXFX*X'.XX'.=X].].*X*XXXXXXXXX'.*X'.=X].=X'.*X'.*X'.*X'.*X'.*X'.*X'.*X].=X'.*X'.*X'.*X].=X'.'.<X'.'.].wXMX(.k.;.O.%.%.$.6.9.6.6.:.:.:.:.+.+.+.:.+.+.+.+.+.+.+.} 1.W.5X4XoXoX[.*X*X<X<X].].oXoX].*X'.*X'.*X'.=X].=X'.*X'.*X'.*X'.*X'.=X].=X'.*X'.*X'.*X'.*X'.*X'.*X'.*X].=X'.*X'.*X'.*X].=X'.].].[.oXyXuXQ.x.( ;.:.:.$.$.+.$.6.$.+.;.x. XuXoX].+X+X<X<X<X<X<X<X<XXXXX<X].].XXXX'.<X*X'.2X2XR.k.| O.+.w.:.+.:.:.:.+.+.+.+.+.:.:.:.+.:.+.:.+.:.+.:.+.:.+.:.:.:.:.:.:.:.:.:.+.:.+.:.:.:.:.:.+.:.:.:.:.:.:.:.:.:.:.:.+.:.:.+.+.+.+.:.:.:.:.:.+.:.+.:.+.:.+.+.+.:.:.:.:.:.:.:.:.:.:.:.+.:.:.+.+.+.+.:.:.:.:.:.+.:.+.:.+.:.:.:.:.:.+.@.@.@.+.:.:.:.:.5.C.L.^.^.Y.Y.^.K.K.G.^.VXL.A.G.m.v.z.z.k.k.z.v.v.b.v.m.F.H.K.K.R.R.R.E.Y.Y.W.R.J.Y.|.CX1X'.<X<XXXoXoX].oXoX<X<XOXOXXX*X].].XXXXXX_.=XHXxXD % - y 1 1 1 1 1 1 1 1 1 W IXIXIXIXIXIXIXIXIXIXIXIXIXIXIXIXIXIXIXIXIXIXIXIXIXIXIXIXIXIXIXIXIXIX",
"IXIXIXIXIXIXIXIXIXIXIXIXIXIXIXIXIXIXIXIXIXIXIXIXIXIXIXIXIXIXIXIXIXIXIX! 1 g g 1 e g 1 1 h y - $ H lXFX=XXX<X[.*XXXXXoXoXoXoXoXoXoX].oX].oX].oX].oX].oX].oX].oX].oX].oX].oX].oX].oX].oX].oX].oXoXXX'.XX].wX5X~.k.-.O.+.6.6.6.6.6.6.6.6.6.6.6.6.6.6.6.6.$.6.$.6.6.} 1.W.2X4XoXXX'.].].XX<XXX].oXoXoX].oX].oX].oX].oX].oX].oX].oX].oX].oX].oX].oX].oX].oX].oX].oX].oX].oX].oX].oX].oX].oX].oX].oX].].[.XX6X6XQ.x.( :.:.:.$.$.&.6.6.$.o.;.x./.6X<XoX+X+X<X<X<X<X<XXXoXoXXXXX].].oXoX<X'.XX'.=X6X^.j.| O.$.&.6.6.6.6.6.6.6.6.6.6.6.6.6.6.6.6.6.6.6.6.6.6.6.6.6.6.6.6.6.:.6.:.6.:.6.:.6.:.6.:.6.:.6.6.6.6.6.6.6.6.6.6.6.6.6.6.6.6.6.6.6.6.6.6.6.6.6.6.6.6.6.6.6.6.6.6.6.6.6.6.6.6.6.6.6.6.6.6.6.6.6.6.6.6.6.6.6.6.6.6.6.6.6.6.6.6.6.+.@.@.+.6.7.:.+.| <.L.BXCX3X3X5X>X7X5X5XNXBXBXR.k.( ( | o.o.o.` ` ` ` ) ` S.mXDX8X3XNX5X4X7X7X3X3XNX3X4XeXwX+XoXXX*X'.].].oXoXXXXXXXXXoXoX].].XXXXXX[.-XFXxXD & - y 0 0 d 1 1 1 1 e e IXIXIXIXIXIXIXIXIXIXIXIXIXIXIXIXIXIXIXIXIXIXIXIXIXIXIXIXIXIXIXIXIXIXIX",
"IXIXIXIXIXIXIXIXIXIXIXIXIXIXIXIXIXIXIXIXIXIXIXIXIXIXIXIXIXIXIXIXIXIXIX! 1 g g 1 e g 1 1 g y = $ H lXFX=XXX<X'.*XXXXXoXoXoXoXoXoXoXoXoXoXoXoXoXoXoXoXoXoXoXoXoXoXoXoXoXoXoXoXoXoXoXoXoXoXoXoXoXoXXX'.XX].0X4X^.k.| O.+.:.7.6.6.:.6.6.6.6.6.6.6.6.6.6.6.6.6.6.6.6.} 1.T.5X4X+XXX'.].].XX<XXX].oXoXoXoXoXoXoXoXoXoXoXoXoXoXoXoXoXoXoXoXoXoXoXoXoXoXoXoXoXoXoXoXoXoXoXoXoXoXoXoXoXoXoXoXoXoXoXoXoX].'.[.+X6X6XQ.x.( :.:.:.$.$.$.6.6.$.O.;.x./.uX<XoXoX+X<X<XOXOXXXXXoXoXoXXXoXoXoXXX<X'.XXXX0X2X^.j.| O.$.w.6.6.6.6.6.6.6.6.6.6.7.7.6.6.6.6.6.6.6.6.6.6.6.6.6.6.6.6.6.6.6.6.6.6.6.6.6.6.6.6.6.6.6.6.6.6.6.6.6.6.6.6.6.6.6.6.6.6.6.6.6.6.6.6.6.6.6.6.6.6.6.6.6.6.6.6.6.6.6.6.6.6.6.6.6.6.6.6.6.6.6.6.6.6.6.6.6.6.6.6.6.6.6.6.6.6.6.:.@.@.$.7.7.7.$.| <.K.6XiXrX1X1X<X2X1X4X+XiXCXR.j.}  .O.%.*.%.$.6.o.X./ ;.A.7XpXtX4X4XeXrX=X=XwXeX1X<X+XwXwXoXoX'.'.'.'.].oXoXoXXXXXXXoXoXoX].XXXXXX[.-XGXxXF % - y 1 g g 1 1 1 1 p e IXIXIXIXIXIXIXIXIXIXIXIXIXIXIXIXIXIXIXIXIXIXIXIXIXIXIXIXIXIXIXIXIXIXIX",
"IXIXIXIXIXIXIXIXIXIXIXIXIXIXIXIXIXIXIXIXIXIXIXIXIXIXIXIXIXIXIXIXIXIXIX! 1 g g 1 0 g 1 1 g < = $ H lXFX=XXX<X'.*XXXXXoXoXoXoXoXoXoXoXoXoXoXoXoXoXoXoXoXoXoXoXoXoXoXoXoXoXoXoXoXoXoXoXoXoXoXoXoXoXXX'.XX].0X4X^.k.| O.+.:.6.6.6.:.6.6.6.6.6.6.6.6.6.6.6.6.6.6.$.$.} q.T.5X4X+XXX'.].].XX<XXX].oXoXoXoXoXoXoXoXoXoXoXoXoXoXoXoXoXoXoXoXoXoXoXoXoXoXoXoXoXoXoXoXoXoXoXoXoXoXoXoXoXoXoXoXoXoXoXoXoX].'.'.+X6X6XQ.x.( :.:.:.$.$.$.6.6.$.o.-.x./.uX<XoXoX+X<X<XXXOXXXXXoXoXXXXXoXoXoXXX<X'.XXXX0X2X^.j.| O.$.w.6.6.6.6.6.6.6.6.6.6.7.6.6.6.6.6.6.6.6.6.6.6.6.6.6.6.6.6.6.6.6.6.6.6.6.6.6.6.6.6.6.6.6.6.6.6.6.6.6.6.6.6.6.6.6.6.6.6.6.6.6.6.6.6.6.6.6.6.6.6.6.6.6.6.6.6.6.6.6.6.6.6.6.6.6.6.6.6.6.6.6.6.6.6.6.6.6.6.6.6.6.6.6.6.6.6.6.:.@.@.6.7.7.6.$.| 2.K.6XiXwXwX1XoX4X4X+X+XCXMXR.g.| ..:.6.&.&.:.:.+.O.{ -.A.>XpXrX+XvX+X<X*X*X<X+X<X<XoXoXoXoXXX'.<X*X'.].oXoXoXoXXXXXoXoXoXoXXXXXXX[.-XGXxXF % - y 1 p p 1 1 y y y 1 IXIXIXIXIXIXIXIXIXIXIXIXIXIXIXIXIXIXIXIXIXIXIXIXIXIXIXIXIXIXIXIXIXIXIX",
"IXIXIXIXIXIXIXIXIXIXIXIXIXIXIXIXIXIXIXIXIXIXIXIXIXIXIXIXIXIXIXIXIXIXIX! 1 g g 1 1 g 1 1 g < = $ H lXFX=XXX<X'.*XXXXXoXoXoXoXoXoXoXoXoXoXoXoXoXoXoXoXoXoXoXoXoXoXoXoXoXoXoXoXoXoXoXoXoXoXoXoXoXoXXX'.XX].0X4X^.k.| O.+.:.6.6.6.:.6.6.6.6.6.6.6.6.6.6.6.6.6.6.6.$.| q.T.5X4X+XXX'.].].XX<XXX].oXoXoXoXoXoXoXoXoXoXoXoXoXoXoXoXoXoXoXoXoXoXoXoXoXoXoXoXoXoXoXoXoXoXoXoXoXoXoXoXoXoXoXoXoXoXoXoXoX].'.[.+X6X6XQ.x.( :.:.:.$.$.$.6.6.$.O.-.x./.6X<XoXoX+X<X<XOXOXXXXXoXoXXXXXoXoXoXXX<X'.XX'.0X2X^.j.| O.$.w.6.6.6.6.6.6.6.6.6.6.6.6.6.6.6.6.6.6.6.6.6.6.6.6.6.6.6.6.6.6.6.6.6.6.6.6.6.6.6.6.6.6.6.6.6.6.6.6.6.6.6.6.6.6.6.6.6.6.6.6.6.6.6.6.6.6.6.6.6.6.6.6.6.6.6.6.6.6.6.6.6.6.6.6.6.6.6.6.6.6.6.6.6.6.6.6.6.6.6.6.6.6.6.6.6.6.6.:.@.+.6.7.:.:.+.| 2.G.6XiX0XoX+XXXoX+XOX+XyXMXK.g.| O.:.6.&.&.3.3.@.#.{ ..A.,XuXoX+XOXOXXX&X&X<XXXXX'.'.XX'.XXXXXXXXXXoXoXoXoXoXoXXXXXoXoXoXoXXXXXXX[.-XGXxXF % - y 1 1 1 1 1 1 y y 1 IXIXIXIXIXIXIXIXIXIXIXIXIXIXIXIXIXIXIXIXIXIXIXIXIXIXIXIXIXIXIXIXIXIXIX",
"IXIXIXIXIXIXIXIXIXIXIXIXIXIXIXIXIXIXIXIXIXIXIXIXIXIXIXIXIXIXIXIXIXIXIX! 1 g g 1 1 g 1 1 g < = $ D lXFX=XXX<X'.*XXXXXoXoXoXoXoXoXoXoXoXoXoXoXoXoXoXoXoXoXoXoXoXoXoXoXoXoXoXoXoXoXoXoXoXoXoXoXoXoXXX'.XX].].4X^.k.| O.+.:.6.6.6.:.6.6.6.6.6.6.6.6.6.6.6.6.6.6.$.$.| y.T.6X4XoXXX'.].].XX<XXX].oXoXoXoXoXoXoXoXoXoXoXoXoXoXoXoXoXoXoXoXoXoXoXoXoXoXoXoXoXoXoXoXoXoXoXoXoXoXoXoXoXoXoXoXoXoXoXoXoX].'.[.+X6X6XQ.x.( :.:.:.$.$.$.6.6.$.+.;.x./.uX<XoXoXOX<X<XOXXXXXXXoXXXXXXXoXoXoXXX<X'.XXXX0X2X^.j.| O.$.w.6.6.6.6.6.:.6.6.6.6.6.:.6.6.6.6.6.6.6.6.6.6.6.6.6.6.6.6.6.6.6.6.6.6.6.6.6.6.6.6.6.6.6.6.6.6.6.6.6.6.6.6.6.6.6.6.6.6.6.6.6.6.6.6.6.6.6.6.6.6.6.6.6.6.6.6.6.6.6.6.6.6.6.6.6.6.6.6.6.6.6.6.6.6.6.6.6.6.6.6.6.6.6.6.6.6.6.:.:.:.:.6.:.:.+.| 2.G.4XiX0X].oX'.'.oX'.'.rX2XK.g.| +.7.0.9.$.:.3.@.#.{ ..A.,XyX@X+X+XOXXX&X&XXXXX'.'.'.'.'.'.XXXXXXoXoXoXoXoXoXoXXXXXoXoXoXoXoXXXXX[.-XGXxXF % - y 1 1 1 1 1 g g 1 1 IXIXIXIXIXIXIXIXIXIXIXIXIXIXIXIXIXIXIXIXIXIXIXIXIXIXIXIXIXIXIXIXIXIXIX",
"IXIXIXIXIXIXIXIXIXIXIXIXIXIXIXIXIXIXIXIXIXIXIXIXIXIXIXIXIXIXIXIXIXIXIX! 1 g g 1 1 g 1 1 g < = $ D lXFX=XXX<X'.*XXXXXoXoXoXoXoXoXoXoXoXoXoXoXoXoXoXoXoXoXoXoXoXoXoXoXoXoXoXoXoXoXoXoXoXoXoXoXoXXXXX'.XX].=X2X^.k.| O.+.:.6.6.6.:.6.6.6.6.6.6.6.6.6.6.6.6.6.6.$.$.| y.T.6X4XoXXX'.].].XX<XXX].oXoXoXoXoXoXoXoXoXoXoXoXoXoXoXoXoXoXoXoXoXoXoXoXoXoXoXoXoXoXoXoXoXoXoXoXoXoXoXoXoXoXoXoXoXoXoXoXoX].'.'.+X6X6XQ.x.( :.:.:.$.$.$.6.6.$.O.;.x./.uX<XoXoXOX<X<XOXXXXXXXoXXXXXXXoXoXoXXX<X'.XXXX0X2X^.j.| O.$.w.6.6.6.6.6.:.:.6.6.6.6.:.6.6.6.6.6.6.6.6.6.6.6.6.6.6.6.6.6.6.6.6.6.6.6.6.6.6.6.6.6.6.6.6.6.6.6.6.6.6.6.6.6.6.6.6.6.6.6.6.6.6.6.6.6.6.6.6.6.6.6.6.6.6.6.6.6.6.6.6.6.6.6.6.6.6.6.6.6.6.6.6.6.6.6.6.6.6.6.6.6.6.6.6.6.6.6.:.:.:.:.6.@.+.+.| 2.G.4XiX].].XX'.[.].].].rX2XK.g.| +.0.9.9.$.:.3.w.#.{ ..A.>XiXwX+X+XOXXX*X*XoX+X].[.'.*X&X&XXXXXoXoXoXoXoXoXoXoXXXXXoXoXoXoXXXXXXX[.-XGXxXF % - y 1 y y 1 1 e e 1 1 IXIXIXIXIXIXIXIXIXIXIXIXIXIXIXIXIXIXIXIXIXIXIXIXIXIXIXIXIXIXIXIXIXIXIX",
"IXIXIXIXIXIXIXIXIXIXIXIXIXIXIXIXIXIXIXIXIXIXIXIXIXIXIXIXIXIXIXIXIXIXIX! 1 g g 1 1 e 1 1 g < = $ D lXFX=XXX<X'.*XXXXXoXoXoXoXoXoXoXoXoXoXoXoXoXoXoXoXoXoXoXoXoXoXoXoXoXoXoXoXoXoXoXoXoXoXoXoXoXXXXX'.XX].=X2X^.k.| O.+.:.6.6.6.:.6.6.6.6.6.6.6.6.6.6.$.$.6.6.6.$.} q.T.6X4XoXXX'.].].XX<XXX].oXoXoXoXoXoXoXoXoXoXoXoXoXoXoXoXoXoXoXoXoXoXoXoXoXoXoXoXoXoXoXoXoXoXoXoXoXoXoXoXoXoXoXoXoXoXoXoXoX].'.[.+X6X6XQ.x.( :.:.:.$.$.&.6.6.$.+.;.x./.uX<XoX+XOX<X<XXXOXXXXXoXXXXXXXoXoXXXXX<X_.XXXX0X2X^.j.| O.$.w.6.6.6.6.6.6.6.6.6.6.7.7.6.6.6.6.6.6.6.6.6.6.6.6.6.6.6.6.6.6.6.6.6.6.6.6.6.6.6.6.6.6.6.6.6.6.6.6.6.6.6.6.6.6.6.6.6.6.6.6.6.6.6.6.6.6.6.6.6.6.6.6.6.6.6.6.6.6.6.6.6.6.6.6.6.6.6.6.6.6.6.6.6.6.6.6.6.6.6.6.6.6.6.6.6.6.6.6.:.7.6.6.@.@.O.| 2.G.2XsX].'.*X_.'.].].[.rX6XR.g.| %.9.9.$.$.@.@.w.+.{ ..A.>XiX0XoXXXXXXX*X].oXwX].].'.*X*X<XXXXXoXoXoXoXoXoXoX'.XXXXoXoXoXoXXXXXXX`.-XGXxXF % - y 1 0 p 1 1 1 0 1 1 IXIXIXIXIXIXIXIXIXIXIXIXIXIXIXIXIXIXIXIXIXIXIXIXIXIXIXIXIXIXIXIXIXIXIX",
"IXIXIXIXIXIXIXIXIXIXIXIXIXIXIXIXIXIXIXIXIXIXIXIXIXIXIXIXIXIXIXIXIXIXIX! 1 g g 1 1 g 1 1 g < = $ D lXFX=XXX<X'.*XXXXXoXoXoXoXoXoXoXoXoXoXoXoXoXoXoXoXoXoXoXoXoXoXoXoXoXoXoXoXoXoXoXoXoXoXoXoXoXXXXX'.XX].=X2X^.k.| O.+.:.6.6.6.:.6.6.6.6.6.6.6.6.6.6.$.$.6.6.6.6.} q.T.6X4XoXXX'.].].XX<XXX].oXoXoXoXoXoXoXoXoXoXoXoXoXoXoXoXoXoXoXoXoXoXoXoXoXoXoXoXoXoXoXoXoXoXoXoXoXoXoXoXoXoXoXoXoXoXoXoXoX].'.[.+X6X6XQ.x.( :.:.:.$.$.&.6.6.$.+.;.x./.uX<XoX+XOX<X<XXXOXXXXXoXXXXXXXoXoXXXXX<X_.XXXX0X2X^.j.| O.$.w.6.6.6.6.6.6.6.6.6.6.7.7.6.6.6.6.6.6.6.6.6.6.6.6.6.6.6.6.6.6.6.6.6.6.6.6.6.6.6.6.6.6.6.6.6.6.6.6.6.6.6.6.6.6.6.6.6.6.6.6.6.6.6.6.6.6.6.6.6.6.6.6.6.6.6.6.6.6.6.6.6.6.6.6.6.6.6.6.6.6.6.6.6.6.6.6.6.6.6.6.6.6.6.6.6.6.6.6.6.7.6.$.@.@.+.| 2.G.7XsX].'.*X_._.XX].].rX6XR.g.| %.$.9.$.$.+.:.w.$.{ -.A.>XiX0X].XX*X*X-X].oXoX].].'.*X*X*X<XXXoXoXoXoXoXoXoX=XXXXXoXoXoXoXXXXXXX`.-XGXxXF % - y 1 0 p 1 1 0 0 1 1 IXIXIXIXIXIXIXIXIXIXIXIXIXIXIXIXIXIXIXIXIXIXIXIXIXIXIXIXIXIXIXIXIXIXIX",
"IXIXIXIXIXIXIXIXIXIXIXIXIXIXIXIXIXIXIXIXIXIXIXIXIXIXIXIXIXIXIXIXIXIXIXW < g g 1 1 g 1 1 g < = $ D lXFX=XXX<X'.'.XXXXoXoXoXoXoXoXoXoXoXoXoXoXoXoXoXoXoXoXoXoXoXoXoXoXoXoXoXoXoXoXoXoXoXoXoXoXoXXXXXXXXXoX].2X~.k.| +.+.:.6.6.6.+.6.6.6.6.6.6.6.6.6.6.6.$.6.6.6.6.| y.T.6X6XoXoX'.].].XX<XXX].oXoXoXoXoXoXoXoXoXoXoXoXoXoXoXoXoXoXoXoXoXoXoXoXoXoXoXoXoXoXoXoXoXoXoXoXoXoXoXoXoXoXoXoXoXoXoXoXoX].'.[.+X6X6XQ.x.( o.+.6.w.$.$.6.w.$.O.;.x. XuX<X'.oXOX<X<XXXOXXXXXoXXXXXXXoXoXoXXXXX<XXX'.rX6XR.j.| O.$.w.6.6.6.6.6.6.6.6.6.6.6.7.6.6.6.6.6.6.6.6.6.6.6.6.6.6.6.6.6.6.6.6.6.6.6.6.6.6.6.6.6.6.6.6.6.6.6.6.6.6.6.6.6.6.6.6.6.6.6.6.6.6.6.6.6.6.6.6.6.6.6.6.6.6.6.6.6.6.6.6.6.6.6.6.6.6.6.6.6.6.6.6.6.6.6.6.6.6.6.6.6.6.6.6.6.6.6.6.7.7.6.$.+.+...| 2.K.6XsX].[.'.`.<X3X[.9XoXMXW.f.:.$.*.d.9.w.6.6.0.9.X.,.A.mXiX[.[._.`.&X`.`.[.'.oXoX].<X1X1XXXXX+X+X+XoXoXoX'.'.XXXXoXoX].].XXXXXX[.-XGXxXD % - y 1 e e y 1 1 1 1 1 IXIXIXIXIXIXIXIXIXIXIXIXIXIXIXIXIXIXIXIXIXIXIXIXIXIXIXIXIXIXIXIXIXIXIX",
"IXIXIXIXIXIXIXIXIXIXIXIXIXIXIXIXIXIXIXIXIXIXIXIXIXIXIXIXIXIXIXIXIXIXIXW < g g 1 1 g 1 1 g < = $ D lXFX=XXX<X'.*XXXXXoXoXoXoXoXoXoXoXoXoXoXoXoXoXoXoXoXoXoXoXoXoXoXoXoXoXoXoXoXoXoXoXoXoXoXoXoXXXXXXXXXoX].2X~.k.| +.+.:.6.6.6.+.6.6.6.6.6.6.6.6.6.6.6.$.6.6.6.6.| y.E.6X6XoXoX'.].].XX<XXX].oXoXoXoXoXoXoXoXoXoXoXoXoXoXoXoXoXoXoXoXoXoXoXoXoXoXoXoXoXoXoXoXoXoXoXoXoXoXoXoXoXoXoXoXoXoXoXoXoX].'.[.+X6X6XQ.x.( o.+.6.w.$.$.6.w.$.+.;.x. XuX<X'.oXOX<X<XOXOXXXXXoXXXXXXXoXoXoXXXXX<XXX'.rX6XR.j.| O.$.w.6.6.6.6.6.6.6.6.6.6.7.6.6.6.6.6.6.6.6.6.6.6.6.6.6.6.6.6.6.6.6.6.6.6.6.6.6.6.6.6.6.6.6.6.6.6.6.6.6.6.6.6.6.6.6.6.6.6.6.6.6.6.6.6.6.6.6.6.6.6.6.6.6.6.6.6.6.6.6.6.6.6.6.6.6.6.6.6.6.6.6.6.6.6.6.6.6.6.6.6.6.6.6.6.6.6.6.6.7.6.6.$.@.+.+.-.2.G.6XiX1X<X<X*X<X3X<X].iXDXR.f.-.o.%.*.$.$.+.o.0.%./ ` m.>XCX].=X*X*X*X*X*X<XoX4X4XXX'.'.'.].XX+XoX+XoXoXoX'.*X<XXXoXoX].].XXXXXX[.-XGXxXD % - y 1 0 e y 1 1 1 1 1 IXIXIXIXIXIXIXIXIXIXIXIXIXIXIXIXIXIXIXIXIXIXIXIXIXIXIXIXIXIXIXIXIXIXIX",
"IXIXIXIXIXIXIXIXIXIXIXIXIXIXIXIXIXIXIXIXIXIXIXIXIXIXIXIXIXIXIXIXIXIXIXW < g g 1 1 g 1 1 g < = $ H lXFX=XXX<X'.*XXXXXoXoXoXoXoXoXoXoXoXoXoXoXoXoXoXoXoXoXoXoXoXoXoXoXoXoXoXoXoXoXoXoXoXoXoXoXoXXX<XXXXXXX=X2X~.k.| +.+.:.6.6.6.+.6.6.6.6.6.6.6.6.6.6.$.$.6.6.6.6.| y.E.6X4XoXoX'.].].oX<XXX].oXoXoXoXoXoXoXoXoXoXoXoXoXoXoXoXoXoXoXoXoXoXoXoXoXoXoXoXoXoXoXoXoXoXoXoXoXoXoXoXoXoXoXoXoXoXoXoXoX].'.[.+X6X6XQ.x.( o.+.6.w.$.$.6.w.$.+.-.x. XuX<X'.oXOX<X<XOXOXXXXXoXXXXXXXoXoXoXXXXX<XXX'.rX6XR.j.| O.$.w.6.6.6.6.6.6.6.6.6.6.7.7.6.6.6.6.6.6.6.6.6.6.6.6.6.6.6.6.6.6.6.6.6.6.6.6.6.6.6.6.6.6.6.6.6.6.6.6.6.6.6.6.6.6.6.6.6.6.6.6.6.6.6.6.6.6.6.6.6.6.6.6.6.6.6.6.6.6.6.6.6.6.6.6.6.6.6.6.6.6.6.6.6.6.6.6.6.6.6.6.6.6.6.6.6.6.6.6.6.9.$.&.@...:.;.1.L.MXAXCXyXuX4X<X6XiXpXFXJXE.b.` / X.X.X.X.X.X.o.( / ` n.:XDXiXyXrXrXrXiXrXiXCXMXMX4XXX'.[.'.oXoXoXoX+XoXoX*X*X<XXXoXoXoXoXXXXXXX`.-XGXxXD % - y 1 0 e y y 4 1 1 1 IXIXIXIXIXIXIXIXIXIXIXIXIXIXIXIXIXIXIXIXIXIXIXIXIXIXIXIXIXIXIXIXIXIXIX",
"IXIXIXIXIXIXIXIXIXIXIXIXIXIXIXIXIXIXIXIXIXIXIXIXIXIXIXIXIXIXIXIXIXIXIXW < g g 1 1 g 1 1 g < = $ D lXFX=XXX<X'.*XXXXXoXoXoXoXoXoXoXoXoXoXoXoXoXoXoXoXoXoXoXoXoXoXoXoXoXoXoXoXoXoXoXoXoXoXoXoXoXXX<X|.XXXX=X2X~.k.| +.+.:.6.6.6.+.6.6.6.6.6.6.6.6.6.6.$.$.6.6.6.6.| y.E.6X4XoXoX'.].].oX<XXX].oXoXoXoXoXoXoXoXoXoXoXoXoXoXoXoXoXoXoXoXoXoXoXoXoXoXoXoXoXoXoXoXoXoXoXoXoXoXoXoXoXoXoXoXoXoXoXoXoX].'.[.+X6X6XQ.x.( o.+.6.w.$.$.6.w.$.+.;.x. XuX<X'.OXOX<X<XOXOXXXXXoXXXXXXXoXoXoXXXXX<XXX'.rX6XR.j.| O.$.w.6.6.6.6.6.6.6.6.6.6.7.6.6.6.6.6.6.6.6.6.6.6.6.6.6.6.6.6.6.6.6.6.6.6.6.6.6.6.6.6.6.6.6.6.6.6.6.6.6.6.6.6.6.6.6.6.6.6.6.6.6.6.6.6.6.6.6.6.6.6.6.6.6.6.6.6.6.6.6.6.6.6.6.6.6.6.6.6.6.6.6.6.6.6.6.6.6.6.6.6.6.6.6.6.6.6.6.6.6.$.$.&.+.+.:.;.y.L.mXMX>X>X3X>X>X,X3X5XMXmXT.n.2.,.;.;.-.-.;.;.>.,.,.1.A.(.mXMX3X<X<X+X3X3X3X3X:XmX3X4XoX].'.'.XXoXoX+XoXoX*X*X<XXXoXoX].oXXXXXXX`.-XGXxXD % - y 1 0 d y y 1 4 1 1 IXIXIXIXIXIXIXIXIXIXIXIXIXIXIXIXIXIXIXIXIXIXIXIXIXIXIXIXIXIXIXIXIXIXIX",
"IXIXIXIXIXIXIXIXIXIXIXIXIXIXIXIXIXIXIXIXIXIXIXIXIXIXIXIXIXIXIXIXIXIXIXW 1 g g 1 1 g 1 1 g < = $ D lXFX=XXX<X'.*XXXXXoXoXoXoXoXoXoXoXoXoXoXoXoXoXoXoXoXoXoXoXoXoXoXoXoXoXoXoXoXoXoXoXoXoXoXoXoXXX<X|.XX'.=X2X~.k.| O.+.:.6.6.6.+.6.6.6.6.6.6.6.6.6.6.6.6.$.$.$.$.o.y.E.6X4XoXoX'.].].XX<XXX].oXoXoXoXoXoXoXoXoXoXoXoXoXoXoXoXoXoXoXoXoXoXoXoXoXoXoXoXoXoXoXoXoXoXoXoXoXoXoXoXoXoXoXoXoXoXoXoXoX].'.[.+X6X6XQ.x.( o.+.6.w.$.$.6.w.$.O.;.x. XuX<XXXOXOX<X<XOXOXXXXXoXXXXXXXoXoXoXXX'.<XXX'.rX6XR.j.| O.$.w.6.6.6.6.6.6.6.6.6.:.:.:.6.6.6.6.6.6.6.6.6.6.6.6.6.6.6.6.6.6.6.6.6.6.6.6.6.6.6.6.6.6.6.6.6.6.6.6.6.6.6.6.6.6.6.6.6.6.6.6.6.6.6.6.6.6.6.6.6.6.6.6.6.6.6.6.6.6.6.6.6.6.6.6.6.6.6.6.6.6.6.6.6.6.6.6.6.6.6.6.6.6.6.6.6.6.6.6.$.&.$.&.:.:.:.;.u.D.L.T.J.J.J.J.H.F.F.H.H.H.G.S.A.A.A.A.A.A.A.M.A.A.n.A.F.F.F.L.G.J.J.G.H.F.F.F.A.K..X3X+X].'.'.<X<X+X+XoXoX*X*X<XXXoXoX].oXXXXXXX[.-XGXxXF % - y 1 1 1 0 0 1 e 1 1 IXIXIXIXIXIXIXIXIXIXIXIXIXIXIXIXIXIXIXIXIXIXIXIXIXIXIXIXIXIXIXIXIXIXIX",
"IXIXIXIXIXIXIXIXIXIXIXIXIXIXIXIXIXIXIXIXIXIXIXIXIXIXIXIXIXIXIXIXIXIXIXW < g l 1 1 g 1 1 g < = $ D lXFX=XXX<X'.*XXXXXoXoXoXoXoXoXoXoXoXoXoXoXoXoXoXoXoXoXoXoXoXoXoXoXoXoXoXoXoXoXoXoXoXoXoXoXoXXX<X_.XX'.=X2X~.k.| O.+.:.6.6.6.+.6.6.6.6.6.6.6.6.6.6.$.$.$.$.6.$.o.y.E.6X4XoXoX'.].].XX<XXX].oXoXoXoXoXoXoXoXoXoXoXoXoXoXoXoXoXoXoXoXoXoXoXoXoXoXoXoXoXoXoXoXoXoXoXoXoXoXoXoXoXoXoXoXoXoXoXoXoX].'.[.+X6X6XQ.x.( o.+.6.w.$.$.6.w.$.O.;.x. XuX<XXXOXOX<X<XXXXXXXXXoXXXXXXXoXoXoXXX'.<XXX'.rX6XR.j.| O.$.w.6.6.6.6.6.6.6.6.6.6.:.:.6.6.6.6.6.6.6.6.6.6.6.6.6.6.6.6.6.6.6.6.6.6.6.6.6.6.6.6.6.6.6.6.6.6.6.6.6.6.6.6.6.6.6.6.6.6.6.6.6.6.6.6.6.6.6.6.6.6.6.6.6.6.6.6.6.6.6.6.6.6.6.6.6.6.6.6.6.6.6.6.6.6.6.6.6.6.6.6.6.6.6.6.6.6.6.6.$.$.$.w.:.:.6.6.o.7.1.f.2.1.1.1.q.>.>.<.<.1.v.R.$X:X;X;X;X;X;X:X;X;X$X(.F.1.,.5.<.<.<.<.2.>.>.>.` b.T.|.rXrX=X*X<X<XoXwXwXoX'.*X<XXXoXoX].oXXXXXXX[.-XGXxXD % - y y 4 1 y y 0 1 1 1 IXIXIXIXIXIXIXIXIXIXIXIXIXIXIXIXIXIXIXIXIXIXIXIXIXIXIXIXIXIXIXIXIXIXIX",
"IXIXIXIXIXIXIXIXIXIXIXIXIXIXIXIXIXIXIXIXIXIXIXIXIXIXIXIXIXIXIXIXIXIXIXW 1 g g 1 1 g 1 d g < = $ H lXFX=XXX<X'.*XXXXXoXoXoXoXoXoXoXoXoXoXoXoXoXoXoXoXoXoXoXoXoXoXoXoXoXoXoXoXoXoXoXoXoXoXoXoXoXXX<X|.XX'.=X2X~.k.| O.+.:.6.6.6.+.6.6.6.6.6.6.6.6.6.6.6.6.6.$.6.6.o.y.E.6X6XoXoX'.].].XX<XXX].oXoXoXoXoXoXoXoXoXoXoXoXoXoXoXoXoXoXoXoXoXoXoXoXoXoXoXoXoXoXoXoXoXoXoXoXoXoXoXoXoXoXoXoXoXoXoXoXoX].XX'.+X6X6XQ.x.( o.+.6.w.$.$.6.w.$.O.;.x. XuX<XXXoXOX<X<XXXXXXXXXoXoXXXXXoXoXoXXX'.<XXX'.rX6XR.j.| O.$.w.6.6.6.6.6.6.6.6.6.6.:.6.6.6.6.6.6.6.6.6.6.6.6.6.6.6.6.6.6.6.6.6.6.6.6.6.6.6.6.6.6.6.6.6.6.6.6.6.6.6.6.6.6.6.6.6.6.6.6.6.6.6.6.6.6.6.6.6.6.6.6.6.6.6.6.6.6.6.6.6.6.6.6.6.6.6.6.6.6.6.6.6.6.6.6.6.6.6.6.6.6.6.6.6.6.6.6.6.6.6.6.6.:.:.$.*.=.O.| | } ..| | | / } ../ ) k.~.MXMXMX6XuXuXyXCXyXyXCXmXF.` ^ O.X.X.o.( ( | | | ) 1.K.>XyXoX*X*X&X<XoXwXwXoXoX*X<XXXoXoX].].XXXXXX[.-XGXxXF & - y y 4 4 1 1 1 1 1 1 IXIXIXIXIXIXIXIXIXIXIXIXIXIXIXIXIXIXIXIXIXIXIXIXIXIXIXIXIXIXIXIXIXIXIX",
"IXIXIXIXIXIXIXIXIXIXIXIXIXIXIXIXIXIXIXIXIXIXIXIXIXIXIXIXIXIXIXIXIXIXIXW < g l 1 1 g 1 0 g < = $ H lXFX=XXXoX'.*XXXXXoXoXoXoXoXoXoXoXoXoXoXoXoXoXoXoXoXoXoXoXoXoXoXoXoXoXoXoXoXoXoXoXoXoXoXoXoXXXXXXXXX'.=X2X~.k.| +.+.:.6.6.6.:.6.6.6.6.6.6.6.6.6.6.6.6.6.6.6.6.| y.E.6X6XoXoX'.].].XXXXXX].oXoXoXoXoXoXoXoXoXoXoXoXoXoXoXoXoXoXoXoXoXoXoXoXoXoXoXoXoXoXoXoXoXoXoXoXoXoXoXoXoXoXoXoXoXoXoXoXoX].'.'.+X6X6XQ.x.( o.+.6.w.$.$.6.w.$.O.;.x. XuX<X'.oXXX<X<XXXXXXXXXoXoXoXoXoXoXoXXX'.<XXX'.rX6XR.j.| O.$.6.6.6.6.6.6.6.6.6.6.6.7.7.6.6.6.6.6.6.6.6.6.6.6.6.6.6.6.6.6.6.6.6.6.6.6.6.6.6.6.6.6.6.6.6.6.6.6.6.6.6.6.6.6.6.6.6.6.6.6.6.6.6.6.6.6.6.6.6.6.6.6.6.6.6.6.6.6.6.6.6.6.6.6.6.6.6.6.6.6.6.6.6.6.6.6.6.6.6.6.6.6.6.6.6.6.6.6.6.6.6.6.6.:.:.$.*.*.*.O. .#.*.&.+.+.O.@.&.[ ) k.$X6X1X1XoX].].oXwX[.0XiXMXH.` ^ d.%.%.$.$.$.$.$.+./ j.R.NXyXoX'._.&X<XoXwXwXoXoX*XXXXXoXoX].].XXXXXX'.-XGXxXD % - y 1 1 1 1 1 1 1 1 1 IXIXIXIXIXIXIXIXIXIXIXIXIXIXIXIXIXIXIXIXIXIXIXIXIXIXIXIXIXIXIXIXIXIXIX",
"IXIXIXIXIXIXIXIXIXIXIXIXIXIXIXIXIXIXIXIXIXIXIXIXIXIXIXIXIXIXIXIXIXIXIXW 1 y g 1 1 g 1 1 g < = $ H zXFX*X'.oX[.].oXoXoXoXoXoXoXoXoXoXoXoXoXoXoXoXoXoXoXoXoXoXoXoXoXoXoXoXoXoXoXoXoXoXoXoXoXoXoXoXXXXX<X<X1X6X~.k.-.O.O.:.6.6.6.:.6.6.6.6.6.6.6.6.6.6.6.6.$.$.$.$.} q.T.6X4XoXoX'.].].XXXXXX].oXoXoXoXoXoXoXoXoXoXoXoXoXoXoXoXoXoXoXoXoXoXoXoXoXoXoXoXoXoXoXoXoXoXoXoXoXoXoXoXoXoXoXoXoXoXoXoXoX].'.[.+X6X6XQ.x.( :.:.:.$.$.$.6.6.$.O.-.x. XuX<X].oXoX<X<XOXOXXXXXoXXXXXXXoXoXoXXXXX<XXX'.rX6XR.j.| O.$.6.6.6.6.6.6.6.6.6.6.6.7.6.6.6.6.6.6.6.6.6.6.6.6.6.6.6.6.6.6.6.6.6.6.6.6.6.6.6.6.6.6.6.6.6.6.6.6.6.6.6.6.6.6.6.6.6.6.6.6.6.6.6.6.6.6.6.6.6.6.6.6.6.6.6.6.6.6.6.6.6.6.6.6.6.6.6.6.6.6.6.6.6.6.6.6.6.6.6.6.6.6.6.6.6.6.6.6.6.6.6.7.7.:.:.6.$.%.&.%.%.&.*.9.9.:.:.6.6.X.| v.~.6XwXXX'.XXXXXX].[.0XiX3XF.,._ d.*.9.6.7.0.9.$.$.} 1.Y.5XrX].<X&X<XoX+XwX+XoXXX*XXXXXoXoXoXoX=XXXXX_.-XGXxXD & - y 1 1 e g y 1 1 1 e IXIXIXIXIXIXIXIXIXIXIXIXIXIXIXIXIXIXIXIXIXIXIXIXIXIXIXIXIXIXIXIXIXIXIX",
"IXIXIXIXIXIXIXIXIXIXIXIXIXIXIXIXIXIXIXIXIXIXIXIXIXIXIXIXIXIXIXIXIXIXIX! 1 y g 1 1 g 1 1 g < = $ H zXFX].'.oX[.].oXoXoXoXoXoXoXoXoXoXoXoXoXoXoXoXoXoXoXoXoXoXoXoXoXoXoXoXoXoXoXoXoXoXoXoXoXoXoXoXXXXX<X<X1X5X~.k.-.O.+.+.6.6.6.:.6.6.6.6.6.6.6.6.6.6.6.6.6.$.$.$.} q.T.6X4XoXoX'.].].XXXXXX].oXoXoXoXoXoXoXoXoXoXoXoXoXoXoXoXoXoXoXoXoXoXoXoXoXoXoXoXoXoXoXoXoXoXoXoXoXoXoXoXoXoXoXoXoXoXoXoXoX].'.[.+X6X6XQ.x.( :.:.:.$.$.$.6.6.$.O.-.x. XuX<X].oXoX<X<XOXOXXXXXoXXXXXXXoXoXoXXXXX<XXX'.rX6XR.j.| O.$.6.6.6.6.6.6.6.6.6.6.6.7.7.6.6.6.6.6.6.6.6.6.6.6.6.6.6.6.6.6.6.6.6.6.6.6.6.6.6.6.6.6.6.6.6.6.6.6.6.6.6.6.6.6.6.6.6.6.6.6.6.6.6.6.6.6.6.6.6.6.6.6.6.6.6.6.6.6.6.6.6.6.6.6.6.6.6.6.6.6.6.6.6.6.6.6.6.6.6.6.6.6.6.6.6.6.6.6.6.6.6.7.7.:.:.7.6.6.$.%.%.$.6.0.7.:.:.6.9.O.| v.(.yXwXXX|.XX<X'.].[.].iX>XF.,._ *.9.6.:.:.7.0.6.$.} 5.T.5XrX].<X<X<XoX+XwXoXoX'.].XXXXoXoXoXoX=XXXXX_.-XGXxXD & - y 1 4 e y y 1 1 1 e IXIXIXIXIXIXIXIXIXIXIXIXIXIXIXIXIXIXIXIXIXIXIXIXIXIXIXIXIXIXIXIXIXIXIX",
"IXIXIXIXIXIXIXIXIXIXIXIXIXIXIXIXIXIXIXIXIXIXIXIXIXIXIXIXIXIXIXIXIXIXIXW 1 y g 1 1 g 1 1 g < = $ H zXFX].'.oX[.].oXoXoXoXoXoXoXoXoXoXoXoXoXoXoXoXoXoXoXoXoXoXoXoXoXoXoXoXoXoXoXoXoXoXoXoXoXoXoXoXXXXX<X<X1X5X~.k.-.O.O.+.6.6.6.:.6.6.6.6.6.6.6.6.6.6.6.6.6.6.$.$.} q.T.6X4XoXoX'.].].XXXXXX].oXoXoXoXoXoXoXoXoXoXoXoXoXoXoXoXoXoXoXoXoXoXoXoXoXoXoXoXoXoXoXoXoXoXoXoXoXoXoXoXoXoXoXoXoXoXoXoXoX].'.[.+X6X6XQ.x.( :.:.6.$.$.$.6.6.$.O.-.x. XuX<X'.oXXX<X<XOXOXXXXXoXXXXXXXoXoXoXXXXX<XXX'.rX6XR.j.| O.+.6.6.6.6.6.6.6.6.6.6.6.7.7.:.:.:.:.6.6.6.6.6.6.6.6.6.6.6.6.6.6.6.6.6.6.6.6.6.6.6.6.6.6.6.6.6.6.6.6.6.6.6.6.6.6.6.6.6.6.6.6.6.6.6.6.6.6.6.6.6.6.6.6.6.6.6.6.6.6.6.6.6.6.6.6.6.6.6.6.6.6.6.6.6.6.6.6.6.6.6.6.6.6.6.6.6.6.6.6.6.6.6.6.:.:.:.:.:.+.+.+.:.:.:.:.:.+.6.9.O.-.v.!.yXwXXX_.'.<X].].'.oXuX5XF.,.[ %.$.:.3.:.:.7.6.$.} 5.Y.5XrX].<X<X<XoXoX+XoXXX'.].'.oXoXoXoXoX'.XXXX_.-XGXxXD & - y 1 1 1 1 1 1 1 1 1 IXIXIXIXIXIXIXIXIXIXIXIXIXIXIXIXIXIXIXIXIXIXIXIXIXIXIXIXIXIXIXIXIXIXIX",
"IXIXIXIXIXIXIXIXIXIXIXIXIXIXIXIXIXIXIXIXIXIXIXIXIXIXIXIXIXIXIXIXIXIXIXW 1 y g 1 1 g 1 1 h y = $ H zXFX=X'.oX[.].oXoXoXoXoXoXoXoXoXoXoXoXoXoXoXoXoXoXoXoXoXoXoXoXoXoXoXoXoXoXoXoXoXoXoXoXoXoXoXoXXXXX<X<X1X5X~.k.-.O.O.+.6.6.6.:.6.6.6.6.6.6.6.6.6.6.6.6.6.6.6.6.| q.T.6X4XoXoX'.].].XXXXXX].oXoXoXoXoXoXoXoXoXoXoXoXoXoXoXoXoXoXoXoXoXoXoXoXoXoXoXoXoXoXoXoXoXoXoXoXoXoXoXoXoXoXoXoXoXoXoXoXoX].'.[.+X6X6XQ.x.( :.6.6.$.$.$.6.6.$.O.-.x. XuX<X'.oXXX<X<XOXOXXXXXoXXXXXXXoXoXoXXXXX<XXX'.rX2XR.j.| O.+.6.6.6.6.6.6.6.6.6.6.6.7.7.:.:.:.:.6.6.6.6.6.6.6.6.6.6.6.6.6.6.6.6.6.6.6.6.6.6.6.6.6.6.6.6.6.6.6.6.6.6.6.6.6.6.6.6.6.6.6.6.6.6.6.6.6.6.6.6.6.6.6.6.6.6.6.6.6.6.6.6.6.6.6.6.6.6.6.6.6.6.6.6.6.6.6.6.6.6.6.6.6.6.6.6.6.6.6.6.6.6.6.6.:.:.:.:.:.+.+.+.3.:.:.:.:.+.$.9.X.-.v.!.yXwXXX_.&X<X].oXXXoXuX5XF.,.[ #.+.3.3.3.:.:.6.$.} u.Y.6XrX].<X<X<XoXoXoXoXXX].].XXXXoXoXoXoX'.XXXX_.-XGXxXD & - y 1 1 1 1 1 1 1 1 1 IXIXIXIXIXIXIXIXIXIXIXIXIXIXIXIXIXIXIXIXIXIXIXIXIXIXIXIXIXIXIXIXIXIXIX",
"IXIXIXIXIXIXIXIXIXIXIXIXIXIXIXIXIXIXIXIXIXIXIXIXIXIXIXIXIXIXIXIXIXIXIXW 1 y g 1 1 e 1 1 g < = $ H zXFX].XXoX[.].oXoXoXoXoXoXoXoXoXoXoXoXoXoXoXoXoXoXoXoXoXoXoXoXoXoXoXoXoXoXoXoXoXoXoXoXoXoXoXoXXXXX<X<X1X5X~.k.-.O.+.+.6.6.6.:.6.6.6.6.6.6.6.6.6.6.6.6.6.6.6.6.} q.T.6X4XoXXX'.].].oXXXoX].oXoXoXoXoXoXoXoXoXoXoXoXoXoXoXoXoXoXoXoXoXoXoXoXoXoXoXoXoXoXoXoXoXoXoXoXoXoXoXoXoXoXoXoXoXoXoXoXoX].'.[.+X6X6XQ.x.( :.:.:.$.$.&.6.6.$.+.-.x. XuX<X'.oXXX<X<XOXOXXX'.oXoXoXXXoXoXoXXXXX<XXX'.rX6XR.j.| O.$.6.6.6.6.6.6.6.6.6.6.6.7.7.6.6.6.6.6.6.6.6.6.6.6.6.6.6.6.6.6.6.6.6.6.6.6.6.6.6.6.6.6.6.6.6.6.6.6.6.6.6.6.6.6.6.6.6.6.6.6.6.6.6.6.6.6.6.6.6.6.6.6.6.6.6.6.6.6.6.6.6.6.6.6.6.6.6.6.6.6.6.6.6.6.6.6.6.6.6.6.6.6.6.6.6.6.6.6.6.6.$.6.6.6.:.:.+.+.+.@.@.@.@.....:.+.6.w.| -.v.!.6X1X<X&X<X<X+X+XXXoXyX3XF.2.} @.:.,.3...@.@.+.$.} u.R.5X1XoX<X|.<X'.].oXXXXXoX].XXXXoXoXoXoX'.XXXX_.-XGXxXD & - p e g y d g e e 1 1 IXIXIXIXIXIXIXIXIXIXIXIXIXIXIXIXIXIXIXIXIXIXIXIXIXIXIXIXIXIXIXIXIXIXIX",
"IXIXIXIXIXIXIXIXIXIXIXIXIXIXIXIXIXIXIXIXIXIXIXIXIXIXIXIXIXIXIXIXIXIXIXW 1 d g 1 1 e 1 1 g < = $ H zXFX].XXoX[.'.oXoXoXoXoXoXoXoXoXoXoXoXoXoXoXoXoXoXoXoXoXoXoXoXoXoXoXoXoXoXoXoXoXoXoXoXoXoXoXoXXXXX<X<X1X5X~.k.-.O.+.+.6.6.6.:.6.6.6.6.6.6.6.6.6.6.6.6.6.6.6.6.} q.T.6X4XoXXX'.].].oX<XXX].oXoXoXoXoXoXoXoXoXoXoXoXoXoXoXoXoXoXoXoXoXoXoXoXoXoXoXoXoXoXoXoXoXoXoXoXoXoXoXoXoXoXoXoXoXoXoXoXoX].'.[.+X6X6XQ.x.( :.:.:.$.$.$.6.6.$.+.-.x. XuX<X'.oXXX<X<XOXOXXX'.oXoXoXoXoXoXoXXXXX<XXX'.rX6XR.j.| O.$.6.6.6.6.6.6.6.6.6.6.6.7.7.6.6.6.6.6.6.6.6.6.6.6.6.6.6.6.6.6.6.6.6.6.6.6.6.6.6.6.6.6.6.6.6.6.6.6.6.6.6.6.6.6.6.6.6.6.6.6.6.6.6.6.6.6.6.6.6.6.6.6.6.6.6.6.6.6.6.6.6.6.6.6.6.6.6.6.6.6.6.6.6.6.6.6.6.6.6.6.6.6.6.6.6.6.6.6.6.6.6.6.6.7.6.6.6.+.+.+.+.+.@.@.@.:.:.$.&.} -.v.(.MXrXXX|.<X<XoX+X'.oXyX3XH.2.} $.:.:.:.@.@.&.$.$.X.u.R.5X4XoXXX|.<X*X].].XXXXoX].oXXXoXoXoXoX'.XXXX_.-XGXxXD & - y 1 d y y g e 1 1 1 IXIXIXIXIXIXIXIXIXIXIXIXIXIXIXIXIXIXIXIXIXIXIXIXIXIXIXIXIXIXIXIXIXIXIX",
"IXIXIXIXIXIXIXIXIXIXIXIXIXIXIXIXIXIXIXIXIXIXIXIXIXIXIXIXIXIXIXIXIXIXIX! 1 y l 1 1 e 1 1 g < = $ H zXFX].'.oX[.].oXoXoXoXoXoXoXoXoXoXoXoXoXoXoXoXoXoXoXoXoXoXoXoXoXoXoXoXoXoXoXoXoXoXoXoXoXoXoXoXXX'.<X<X2X6X~.k.-.O.+.+.6.6.6.:.6.6.6.6.6.6.6.6.6.6.6.6.$.$.6.6.} q.T.6X4XXXXX'.].].XX<XXX].oXoXoXoXoXoXoXoXoXoXoXoXoXoXoXoXoXoXoXoXoXoXoXoXoXoXoXoXoXoXoXoXoXoXoXoXoXoXoXoXoXoXoXoXoXoXoXoXoX].'.[.+X6X6XQ.x.( :.:.:.$.$.$.6.6.$.O.-.x. XuX<X'.oXXX<X<XOXOXXX'.oXoXXXXXoXoXoXXXXX<XXX'.rX6XR.j.| O.$.6.6.6.6.6.6.6.:.:.6.6.7.7.6.6.6.6.6.6.6.6.6.6.6.6.6.6.6.6.6.6.6.6.6.6.6.6.6.6.6.6.6.6.6.6.6.6.6.6.6.6.6.6.6.6.6.6.6.6.6.6.6.6.6.6.6.6.6.6.6.6.6.6.6.6.6.6.6.6.6.6.6.6.6.6.6.6.6.6.6.6.6.6.6.6.6.6.6.6.6.6.6.6.6.6.6.6.6.7.:.>.7.7.7.7.7.6.6.6.6.6.6.$.%.$.6.:.&.&. .| v.(.MXeXoXXXXX<XoXoX[.*XuX>XH.2./ $.9.0.6.%.*.&.6.7.| q.R.5XrXoXXXXX*X*X*X'.XXXXoXoXoXXXoXoXoXoX'.XXXX_.-XGXxXD & - y 1 1 1 1 1 1 1 1 1 IXIXIXIXIXIXIXIXIXIXIXIXIXIXIXIXIXIXIXIXIXIXIXIXIXIXIXIXIXIXIXIXIXIXIX",
"IXIXIXIXIXIXIXIXIXIXIXIXIXIXIXIXIXIXIXIXIXIXIXIXIXIXIXIXIXIXIXIXIXIXIX! 1 y l 1 1 g 1 1 g < = $ H zXFX'.'.oX[.].oXoXoXoXoXoXoXoXoXoXoXoXoXoXoXoXoXoXoXoXoXoXoXoXoXoXoXoXoXoXoXoXoXoXoXoXoXoXoXoXXX'.<X<X2X6X~.k.-.O.+.+.6.6.6.:.6.6.6.6.6.6.6.6.6.6.6.6.$.$.$.$.} q.T.6X4XXXXX'.].].XX<XXX].oXoXoXoXoXoXoXoXoXoXoXoXoXoXoXoXoXoXoXoXoXoXoXoXoXoXoXoXoXoXoXoXoXoXoXoXoXoXoXoXoXoXoXoXoXoXoXoXoX].'.[.+X6X6XQ.x.( :.:.:.$.$.$.6.6.$.O.-.x. XuX<X'.XXXX<X<XOXXXXX'.oXXXXXXXoXoXoXXXXX<XXX'.rX6XR.j.| O.$.6.6.6.6.6.6.6.:.+.:.:.7.7.6.6.6.6.6.6.6.6.6.6.6.6.6.6.6.6.6.6.6.6.6.6.6.6.6.6.6.6.6.6.6.6.6.6.6.6.6.6.6.6.6.6.6.6.6.6.6.6.6.6.6.6.6.6.6.6.6.6.6.6.6.6.6.6.6.6.6.6.6.6.6.6.6.6.6.6.6.6.6.6.6.6.6.6.6.6.6.6.6.6.6.6.6.6.6.:.:.>.:.7.7.7.6.6.6.7.7.0.0.6.%.$.7.6.&.&. .| z.~.NX4XoX'.'.XXoXoX[.=XuXmXH.2.( $.9.9.$.%.*.&.6.7.( 1.Y.5X4XoXoXXX*X*X*X*XXXXXoXoXoXXXoXoXoXoX'.XXXX_.-XGXxXD & - y 1 1 1 1 1 1 1 1 1 IXIXIXIXIXIXIXIXIXIXIXIXIXIXIXIXIXIXIXIXIXIXIXIXIXIXIXIXIXIXIXIXIXIXIX",
"IXIXIXIXIXIXIXIXIXIXIXIXIXIXIXIXIXIXIXIXIXIXIXIXIXIXIXIXIXIXIXIXIXIXIXW < 1 g 1 1 g 1 g g < = $ H zXFX].'.XX[.].oXoXoXoXoXoXoXoXoXoXoXoXoXoXoXoXoXoXoXoXoXoXoXoXoXoXoXoXoXoXoXoXoXoXoXoXoXoXoXoXXXXXXX*X=X5X~.k.-.+.+.+.6.6.6.:.6.6.6.6.6.6.6.6.6.6.$.$.$.6.6.6.} 1.T.6X4XoXoX'.].].XX<XXX].oXoXoXoXoXoXoXoXoXoXoXoXoXoXoXoXoXoXoXoXoXoXoXoXoXoXoXoXoXoXoXoXoXoXoXoXoXoXoXoXoXoXoXoXoXoXoXoXoX].'.[.+X6X6XQ.x.( o.+.6.w.$.$.6.w.$.| ;.x./.6XyX[.XXXX<X<XOXXXXX'.oXXXXXXXoXoXoXXX'.<XXX'.rX2XR.j.| O.$.6.6.6.6.6.6.6.6.6.:.:.:.6.6.6.6.6.6.6.6.6.6.6.6.6.6.6.6.6.6.6.6.6.6.6.6.6.6.6.6.6.6.6.6.6.6.6.6.6.6.6.6.6.6.6.6.6.6.6.6.6.6.6.6.6.6.6.6.6.6.6.6.6.6.6.6.6.6.6.6.6.6.6.6.6.6.6.6.6.6.6.6.6.6.6.6.6.6.6.6.6.6.6.6.6.6.6.6.:.+.+.+.$.%.%.%.O.+.:.;.( ) | X./ ) / O.#.[ ) g.$XBXCXCXuXuXuXuXyXyXZXSXNXF.` ) } / } [ { [ [ } ( ) 1.J.|.yXrXXX_.*X*X*X*XXXXXoXoXoXXXoXoXoXoX'.XX|.XX-XAXbXD # - y 1 1 1 1 1 1 1 1 1 IXIXIXIXIXIXIXIXIXIXIXIXIXIXIXIXIXIXIXIXIXIXIXIXIXIXIXIXIXIXIXIXIXIXIX",
"IXIXIXIXIXIXIXIXIXIXIXIXIXIXIXIXIXIXIXIXIXIXIXIXIXIXIXIXIXIXIXIXIXIXIXW < 1 g 1 1 g 1 g g < = $ H zXFX].'.XX[.'.oXoXoXoXoXoXoXoXoXoXoXoXoXoXoXoXoXoXoXoXoXoXoXoXoXoXoXoXoXoXoXoXoXoXoXoXoXoXoXoXXXXXXX*X=X5X~.k.-.+.+.+.6.6.6.:.6.6.6.6.6.6.6.6.6.6.$.6.$.$.6.6.} <.T.6X4XoXoX'.].].XX<XXX].oXoXoXoXoXoXoXoXoXoXoXoXoXoXoXoXoXoXoXoXoXoXoXoXoXoXoXoXoXoXoXoXoXoXoXoXoXoXoXoXoXoXoXoXoXoXoXoXoX].'.[.+X6X6XQ.x.( o.+.6.w.$.$.6.w.$.| ;.x./.6X4X[.oXXX*X<XXXXXXX*X].XXXXXXoXoXoXXX'.<XXX'.rX2XR.j.| O.$.6.6.6.6.6.6.6.6.6.:.:.:.6.6.6.6.6.6.6.6.6.6.6.6.6.6.6.6.6.6.6.6.6.6.6.6.6.6.6.6.6.6.6.6.6.6.6.6.6.6.6.6.6.6.6.6.6.6.6.6.6.6.6.6.6.6.6.6.6.6.6.6.6.6.6.6.6.6.6.6.6.6.6.6.6.6.6.6.6.6.6.6.6.6.6.6.6.6.6.6.6.6.6.6.6.6.6.6.:.+.@.+.%.&.&.O.O.| <.y.1.1.y.y.u.q.q.u.u.2.2.z.R.(././. X X X.X.X.X.X X(.F.f.2.5.<.<.<.4.4.4.1.1.1.v.T.|.4X+XXXXX<X*X*X*XXXoXoXoXXXXXoXoXoXoX'.XX|.XX-XAXbXD # - y 1 1 1 e 0 1 1 1 1 IXIXIXIXIXIXIXIXIXIXIXIXIXIXIXIXIXIXIXIXIXIXIXIXIXIXIXIXIXIXIXIXIXIXIX",
"IXIXIXIXIXIXIXIXIXIXIXIXIXIXIXIXIXIXIXIXIXIXIXIXIXIXIXIXIXIXIXIXIXIXIXW < 1 g 1 1 g 1 p g < = $ H zXFX].XXXX[.].oXoXoXoXoXoXoXoXoXoXoXoXoXoXoXoXoXoXoXoXoXoXoXoXoXoXoXoXoXoXoXoXoXoXoXoXoXoXoXoXXXXXXX*X=X5X~.k.-.+.+.+.6.6.6.:.6.6.6.6.6.6.6.6.6.6.6.6.6.6.6.6.} <.T.6X4XXX<X'.].].XX<XXX].oXoXoXoXoXoXoXoXoXoXoXoXoXoXoXoXoXoXoXoXoXoXoXoXoXoXoXoXoXoXoXoXoXoXoXoXoXoXoXoXoXoXoXoXoXoXoXoXoX].XX'.+X6X6XQ.x.( o.+.6.w.$.$.6.w.$...;.x./.6XyX[.oXXX*X<XXXXX'.*X].XXXXXXoXoXoXXX'.<XXX'.rX6XR.j.| O.$.6.6.6.6.6.6.6.6.6.:.:.6.6.6.6.6.6.6.6.6.6.6.6.6.6.6.6.6.6.6.6.6.6.6.6.6.6.6.6.6.6.6.6.6.6.6.6.6.6.6.6.6.6.6.6.6.6.6.6.6.6.6.6.6.6.6.6.6.6.6.6.6.6.6.6.6.6.6.6.6.6.6.6.6.6.6.6.6.6.6.6.6.6.6.6.6.6.6.6.6.6.6.6.6.6.6.6.6.6.+.+.+.6.6.$.+...2.x.G.T.J.J.J.J.J.J.K.K.J.J.M.M.c.c.C.C.C.C.C.c.C.v.c.F.F.F.G.G.J.J.J.J.G.G.J.J.F.R./.<X<XoXXXXX<X'.*X].oXoXoXoXXXXXoXoXoXoX'.XX|.XX=XAXbXH # , y 1 p g g y 1 1 1 1 IXIXIXIXIXIXIXIXIXIXIXIXIXIXIXIXIXIXIXIXIXIXIXIXIXIXIXIXIXIXIXIXIXIXIX",
"IXIXIXIXIXIXIXIXIXIXIXIXIXIXIXIXIXIXIXIXIXIXIXIXIXIXIXIXIXIXIXIXIXIXIXW < 1 g 1 1 g 1 p g < = $ H zXFX].XXoX[.].oXoXoXoXoXoXoXoXoXoXoXoXoXoXoXoXoXoXoXoXoXoXoXoXoXoXoXoXoXoXoXoXoXoXoXoXoXoXoXoXXXXXXX*X=X5X~.k.-.+.+.+.6.6.6.:.6.6.6.6.6.6.6.6.6.6.6.6.6.6.6.6.} <.Y.6X4XXX<X'.].].XX<XXX].oXoXoXoXoXoXoXoXoXoXoXoXoXoXoXoXoXoXoXoXoXoXoXoXoXoXoXoXoXoXoXoXoXoXoXoXoXoXoXoXoXoXoXoXoXoXoXoXoX].'.'.+X6X6XQ.x.( ;.+.6.w.$.$.6.w.$...;.x./.6XyX[.oX'.*X*XXXXX'.*X].XXXXXXoXoXoXXXXX<XXX'.rX6XR.j.| O.$.6.6.6.6.6.6.6.6.6.:.:.6.7.6.6.6.6.6.6.6.6.6.6.6.6.6.6.6.6.6.6.6.6.6.6.6.6.6.6.6.6.6.6.6.6.6.6.6.6.6.6.6.6.6.6.6.6.6.6.6.6.6.6.6.6.6.6.6.6.6.6.6.6.6.6.6.6.6.6.6.6.6.6.6.6.6.6.6.6.6.6.6.6.6.6.6.6.6.6.6.6.6.6.6.6.6.6.6.6.:.:.:.6.6.6.:.,.f.G.>XMX3X<X5X5X,X3X>X,X5XNXE.v.` -.-.,.-.-.-.-.-.( ( <.F.$XmX7X7X3X3X3X5X5X3XNX$X:X,X*X'.'.XXOX<X'.].].oXoXoX<XXXXXoXoXoXoX'.XX|.XX=XAXbXH # , y 1 y g y y 1 1 1 1 IXIXIXIXIXIXIXIXIXIXIXIXIXIXIXIXIXIXIXIXIXIXIXIXIXIXIXIXIXIXIXIXIXIXIX",
"IXIXIXIXIXIXIXIXIXIXIXIXIXIXIXIXIXIXIXIXIXIXIXIXIXIXIXIXIXIXIXIXIXIXIXW < 1 g 1 1 e 1 1 g < = $ H zXFX].'.oX[.].oXoXoXoXoXoXoXoXoXoXoXoXoXoXoXoXoXoXoXoXoXoXoXoXoXoXoXoXoXoXoXoXoXoXoXoXoXoXoXoXXXXXXX*X=X5X~.k.-.+.+.+.6.6.6.:.6.6.6.6.6.6.6.6.6.6.6.6.6.$.$.$.} <.Y.5X4XXX<X'.].].XX<XXX].oXoXoXoXoXoXoXoXoXoXoXoXoXoXoXoXoXoXoXoXoXoXoXoXoXoXoXoXoXoXoXoXoXoXoXoXoXoXoXoXoXoXoXoXoXoXoXoXoX].'.[.+X6X6XQ.x.( ;.+.6.w.$.$.6.w.$...,.x./.uXyX[.oX'.*X*XOXXX'.*X].oXoXXXoXoXXXXXXX<XXX'.rX6XR.j.| O.$.6.6.6.6.6.6.6.6.6.6.6.7.7.6.6.6.6.6.6.6.6.6.6.6.6.6.6.6.6.6.6.6.6.6.6.6.6.6.6.6.6.6.6.6.6.6.6.6.6.6.6.6.6.6.6.6.6.6.6.6.6.6.6.6.6.6.6.6.6.6.6.6.6.6.6.6.6.6.6.6.6.6.6.6.6.6.6.6.6.6.6.6.6.6.6.6.6.6.6.6.6.6.6.6.6.6.6.6.6.6.:.:.6.6.6.:.,.f.K.MXGXiXiX6X6X2X2X2X2XAXSX~.f.( / } } } } ) /  .^ ^ ` F.mXAXiXiXiXiXiXuXuXuXCXMX5X<X*X'.'.OX3XXXXX].oXoXoX<X<X<XXXoXoXoXoX'.XX|.XX=XAXbXD * - y 1 1 4 1 1 1 1 1 1 IXIXIXIXIXIXIXIXIXIXIXIXIXIXIXIXIXIXIXIXIXIXIXIXIXIXIXIXIXIXIXIXIXIXIX",
"IXIXIXIXIXIXIXIXIXIXIXIXIXIXIXIXIXIXIXIXIXIXIXIXIXIXIXIXIXIXIXIXIXIXIXW < 1 g 1 1 e 1 1 g < = $ H zXFX].'.oX[.].oXoXoXoXoXoXoXoXoXoXoXoXoXoXoXoXoXoXoXoXoXoXoXoXoXoXoXoXoXoXoXoXoXoXoXoXoXoXoXoXXXXXXX*X=X5X~.k.-.+.+.+.6.6.6.:.6.6.6.6.6.6.6.6.6.6.6.6.6.$.$.$.} 5.Y.5X4XXX<X'.].].XX<XXX].oXoXoXoXoXoXoXoXoXoXoXoXoXoXoXoXoXoXoXoXoXoXoXoXoXoXoXoXoXoXoXoXoXoXoXoXoXoXoXoXoXoXoXoXoXoXoXoXoX].'.[.+X6X6XQ.x.( o.+.6.w.$.$.6.w.$...,.x./.uXyX[.oX'.*X*XOXXX'.*X].oXoXXXoXoXXXXXXX<XXX'.rX6XR.j.| O.$.6.6.6.6.6.6.6.6.6.6.6.7.7.6.6.6.6.6.6.6.6.6.6.6.6.6.6.6.6.6.6.6.6.6.6.6.6.6.6.6.6.6.6.6.6.6.6.6.6.6.6.6.6.6.6.6.6.6.6.6.6.6.6.6.6.6.6.6.6.6.6.6.6.6.6.6.6.6.6.6.6.6.6.6.6.6.6.6.6.6.6.6.6.6.6.6.6.6.6.6.6.6.6.6.6.6.6.6.6.6.:.:.6.6.6.+.-.2.S.5XpXrX].=X*X_.*X-X[.iXZXY.1.-.O.+.6.6.6.9.$.t.O.^ ` V.mXiXqXqX0XwXwX].'.].].4X7X*X&X'.'.<X3XXXoX].].oXoX<X<X<XXXoXoXoXoX'.XX|.XX=XAXbXD # - y 1 1 1 d 1 1 1 1 1 IXIXIXIXIXIXIXIXIXIXIXIXIXIXIXIXIXIXIXIXIXIXIXIXIXIXIXIXIXIXIXIXIXIXIX",
"IXIXIXIXIXIXIXIXIXIXIXIXIXIXIXIXIXIXIXIXIXIXIXIXIXIXIXIXIXIXIXIXIXIXIXW < 1 g 1 1 e 1 1 g < = $ H zXFX].'.oX[.].oXoXoXoXoXoXoXoXoXoXoXoXoXoXoXoXoXoXoXoXoXoXoXoXoXoXoXoXoXoXoXoXoXoXoXoXoXoXoXoXXXXXXX*X=X5X~.k.-.+.+.+.6.6.6.:.6.6.6.6.6.6.6.6.6.6.6.6.6.6.$.$.} u.W.6X4XXX<X'.].].XX<XXX].oXoXoXoXoXoXoXoXoXoXoXoXoXoXoXoXoXoXoXoXoXoXoXoXoXoXoXoXoXoXoXoXoXoXoXoXoXoXoXoXoXoXoXoXoXoXoXoXoX].'.[.+X6X6XQ.x.( o.+.6.w.$.$.6.w.$.| ;.x.Q.uXyX[.oXXX<X*XOXXXXX*X].oXXXXXoXoXXXXXXX<XXX'.rX6XR.j.| O.$.6.6.6.6.6.6.6.6.6.6.6.7.7.6.6.6.6.6.6.6.6.6.6.6.6.6.6.6.6.6.6.6.6.6.6.6.6.6.6.6.6.6.6.6.6.6.6.6.6.6.6.6.6.6.6.6.6.6.6.6.6.6.6.6.6.6.6.6.6.6.6.6.6.6.6.6.6.6.6.6.6.6.6.6.6.6.6.6.6.6.6.6.6.6.6.6.6.6.6.6.6.6.6.6.6.6.6.6.6.:.:.:.6.$.$.+...2.S.>XuXoX[._.&X`._.`.[.yXNXY.j.+.&.w.w.t.e.t.t.e.t.+.;.V.mXuX[.[.'.@X'.`._.`.[.oX'.[.-X*X<XOXOXXXoX].].oXoXXX*X<XXXoXoXoXoX=X<XXXXX=XAXbXD # - y 1 1 1 g g 1 1 1 1 IXIXIXIXIXIXIXIXIXIXIXIXIXIXIXIXIXIXIXIXIXIXIXIXIXIXIXIXIXIXIXIXIXIXIX",
"IXIXIXIXIXIXIXIXIXIXIXIXIXIXIXIXIXIXIXIXIXIXIXIXIXIXIXIXIXIXIXIXIXIXIXW < 1 g 1 1 e 1 1 g < = $ H zXFX].'.oX[.].oXoXoXoXoXoXoXoXoXoXoXoXoXoXoXoXoXoXoXoXoXoXoXoXoXoXoXoXoXoXoXoXoXoXoXoXoXoXoXoXXXXXXX*X=X5X~.k.-.+.+.:.6.6.6.:.6.6.6.6.6.6.6.6.6.6.6.6.6.6.6.6.} 5.W.6X4XXX<X'.].].XX<XXX].oXoXoXoXoXoXoXoXoXoXoXoXoXoXoXoXoXoXoXoXoXoXoXoXoXoXoXoXoXoXoXoXoXoXoXoXoXoXoXoXoXoXoXoXoXoXoXoXoX].'.[.+X4X6XQ.x.( o.+.6.w.$.$.6.w.$.o.;.x.Q.uXyX[.XXXX*X*XXXXX<X*X].XXXXXXoXoXXXXXXX<XXX'.rX6XR.j.| O.$.6.6.6.6.6.6.6.6.6.6.6.7.7.6.6.6.6.6.6.6.6.6.6.6.6.6.6.6.6.6.6.6.6.6.6.6.6.6.6.6.6.6.6.6.6.6.6.6.6.6.6.6.6.6.6.6.6.6.6.6.6.6.6.6.6.6.6.6.6.6.6.6.6.6.6.6.6.6.6.6.6.6.6.6.6.6.6.6.6.6.6.6.6.6.6.6.6.6.6.6.6.6.6.6.6.6.6.6.:.:.:.+.$.$.$.+...2.G.>XCX+XXX3X3X'.'.[.'.rXNX^.x.} O.O.:.:.+.+.+.:.w.$.>.V.mXZXrXXXXXXX<X<X&X*X*X[.[.[.-X*X<XXXXXXXoX].].oXoX<X<X<XXXoXoXoXoX*X<XXXXX=XAXbXD * - y 1 1 1 d g 1 1 1 1 IXIXIXIXIXIXIXIXIXIXIXIXIXIXIXIXIXIXIXIXIXIXIXIXIXIXIXIXIXIXIXIXIXIXIX",
"IXIXIXIXIXIXIXIXIXIXIXIXIXIXIXIXIXIXIXIXIXIXIXIXIXIXIXIXIXIXIXIXIXIXIX! 1 y h 1 1 g 1 1 g < = $ H zXFX=XXXoX'.].oXoXoXoXoXoXoXoXoXoXoXoXoXoXoXoXoXoXoXoXoXoXoXoXoXoXoXoXoXoXoXoXoXoXoXoXoXoXoXoXoX'.'.].=X6X~.k.| +.+.6.6.6.6.6.6.6.6.6.6.6.6.6.6.6.6.6.$.$.$.$. .u.E.6X5XXX<X'.].].XX<XXX].oXoXoXoXoXoXoXoXoXoXoXoXoXoXoXoXoXoXoXoXoXoXoXoXoXoXoXoXoXoXoXoXoXoXoXoXoXoXoXoXoXoXoXoXoXoXoXoXoX].'.[.+X6X6XQ.x.( :.:.:.$.$.&.6.6.$.o.,.x.Q.uXyX'.oXXX*X*XXXXX'.*X].XXXXXXoXoXoXXX<X'.XXXX0X2X^.j.| O.$.6.6.6.6.6.6.6.6.6.6.6.6.7.6.6.6.6.6.6.6.6.6.6.6.6.6.6.6.6.6.6.6.6.6.6.6.6.6.6.6.6.6.6.6.6.6.6.6.6.6.6.6.6.6.6.6.6.6.6.6.6.6.6.6.6.6.6.6.6.6.6.6.6.6.6.6.6.6.6.6.6.6.6.6.6.6.6.6.6.6.6.6.6.6.6.6.6.6.6.6.6.6.6.6.6.6.6.6.:.:.:.+.$.6.6.O...2.K.MXiXoXoXOXXXXXoX'.].iXuXE.k.o.O.+.+.&.&.@.+.t.:.o.,.A.,XyX[.+XXXXX*X&X*X*X*X'._._._.[.XX+X4X+XoXXX'.].oXXXXXXXXXoXoXoXoX'.XXOX'.-XGXxXD % - y 1 1 1 y y y 1 1 1 IXIXIXIXIXIXIXIXIXIXIXIXIXIXIXIXIXIXIXIXIXIXIXIXIXIXIXIXIXIXIXIXIXIXIX",
"IXIXIXIXIXIXIXIXIXIXIXIXIXIXIXIXIXIXIXIXIXIXIXIXIXIXIXIXIXIXIXIXIXIXIX! 1 y h 1 1 g 1 1 h < = $ H zXFX=XXXoX'.].oXoXoXoXoXoXoXoXoXoXoXoXoXoXoXoXoXoXoXoXoXoXoXoXoXoXoXoXoXoXoXoXoXoXoXoXoXoXoXoXoX'.'.].0X6X~.k.| +.+.:.6.6.6.w.6.6.6.6.6.6.6.6.6.6.6.6.$.6.$.$.} y.E.6X5XXX<X'.].].XX<XXX].oXoXoXoXoXoXoXoXoXoXoXoXoXoXoXoXoXoXoXoXoXoXoXoXoXoXoXoXoXoXoXoXoXoXoXoXoXoXoXoXoXoXoXoXoXoXoXoXoX].'.[.+X6X6XQ.x.( :.:.:.$.$.$.6.6.$.o.,.x.Q.6X4X'.oXXX*X*XXXXX'.*X].XXXXXXoXoXoXXX<X'.XXXX0X2X^.j.| O.$.6.6.6.6.6.6.6.6.6.6.6.6.7.6.6.6.6.6.6.6.6.6.6.6.6.6.6.6.6.6.6.6.6.6.6.6.6.6.6.6.6.6.6.6.6.6.6.6.6.6.6.6.6.6.6.6.6.6.6.6.6.6.6.6.6.6.6.6.6.6.6.6.6.6.6.6.6.6.6.6.6.6.6.6.6.6.6.6.6.6.6.6.6.6.6.6.6.6.6.6.6.6.6.6.6.6.6.6.7.:.:.+.@.6.6.%.O.<.K.MXiX].'.XXXXXX<X'.[.rXuXE.z.;.+.+.+.&.$.+.+...| } ,.S.7XCXwX+XXX'.'._._.[.'.<X<X*X*X'.].oX+X+XXX<X*X*X'.oXoXXXXXoXoXoXoX'.XXOX'.-XGXxXD % - y 1 1 1 y y 1 1 1 1 IXIXIXIXIXIXIXIXIXIXIXIXIXIXIXIXIXIXIXIXIXIXIXIXIXIXIXIXIXIXIXIXIXIXIX",
"IXIXIXIXIXIXIXIXIXIXIXIXIXIXIXIXIXIXIXIXIXIXIXIXIXIXIXIXIXIXIXIXIXIXIX! 1 y h 1 1 g 1 1 h < = $ H zXFX=XXXoX'.].oXoXoXoXoXoXoXoXoXoXoXoXoXoXoXoXoXoXoXoXoXoXoXoXoXoXoXoXoXoXoXoXoXoXoXoXoXoXoXoXoX'.'.].0X6X~.k.| +.+.:.6.6.6.w.6.6.6.6.6.6.6.6.6.6.6.6.6.6.$.$.} u.W.6X5XXX<X'.].].XX<XXX].oXoXoXoXoXoXoXoXoXoXoXoXoXoXoXoXoXoXoXoXoXoXoXoXoXoXoXoXoXoXoXoXoXoXoXoXoXoXoXoXoXoXoXoXoXoXoXoXoX].'.[.+X6X6XQ.x.( :.:.:.$.$.&.6.6.$.o.,.x./.uXyX'.oXXX*X*XOXXX'.*X].XXXXXXoXoXoXXX<X'.XXXX0X2X^.j.| O.$.6.6.6.6.6.6.6.6.6.:.:.7.7.6.6.6.6.6.6.6.6.6.6.6.6.6.6.6.6.6.6.6.6.6.6.6.6.6.6.6.6.6.6.6.6.6.6.6.6.6.6.6.6.6.6.6.6.6.6.6.6.6.6.6.6.6.6.6.6.6.6.6.6.6.6.6.6.6.6.6.6.6.6.6.6.6.6.6.6.6.6.6.6.6.6.6.6.6.6.6.6.6.6.6.6.6.6.6.7.7.:.+.@.6.6.+...<.K.MXiX=X*X<X|.<X<X_._.2X6X^.x.;.+.:.:.7.7.:.:.:.o. .,.A.,XuX].<X<X*X*X*XXXXXoXoXXX=X*X*X'.XXXXoXXXXX*X].].XXXXXXXXoXoXoXoX'.XXOX_.-XGXxXD % - y 1 1 1 e e 0 0 1 1 IXIXIXIXIXIXIXIXIXIXIXIXIXIXIXIXIXIXIXIXIXIXIXIXIXIXIXIXIXIXIXIXIXIXIX",
"IXIXIXIXIXIXIXIXIXIXIXIXIXIXIXIXIXIXIXIXIXIXIXIXIXIXIXIXIXIXIXIXIXIXIX! 1 y h 1 1 e 1 1 h < = $ H zXFX=XXXoX'.].oXoXoXoXoXoXoXoXoXoXoXoXoXoXoXoXoXoXoXoXoXoXoXoXoXoXoXoXoXoXoXoXoXoXoXoXoXoXoXoXoX'.'.].0X6X~.k.| +.+.:.6.6.6.w.6.6.6.6.6.6.6.6.6.6.6.6.6.6.6.6.} y.W.6X6XXX<X'.].].XX<XXX].oXoXoXoXoXoXoXoXoXoXoXoXoXoXoXoXoXoXoXoXoXoXoXoXoXoXoXoXoXoXoXoXoXoXoXoXoXoXoXoXoXoXoXoXoXoXoXoXoX].'.[.+X6X6XQ.x.( :.:.:.$.$.&.6.6.$.o.,.x./.uXyX'.oXXX*X*XOXXXXX*X].XXXXXXoXoXoXXX<X'.XXXX0X2X^.j.| O.$.6.6.6.6.6.6.6.:.:.:.:.7.7.6.6.6.6.6.6.6.6.6.6.6.6.6.6.6.6.6.6.6.6.6.6.6.6.6.6.6.6.6.6.6.6.6.6.6.6.6.6.6.6.6.6.6.6.6.6.6.6.6.6.6.6.6.6.6.6.6.6.6.6.6.6.6.6.6.6.6.6.6.6.6.6.6.6.6.6.6.6.6.6.6.6.6.6.6.6.6.6.6.6.6.6.6.6.6.6.7.:.+.%.6.6.+.| 2.G.NXyX'._.|.|.XXXX_._.7X5XR.j.;.+.:.6.7.7.7.:.t.w.O.,.A.;X1X[.<X<X*X'.'.XXXX+XXX'.[.[.'.'.XXXXXXXX].].].].XXXXXXXXoXoXoXoX'.XXOX_.-XGXxXD % - y 1 1 1 0 e e 0 1 1 IXIXIXIXIXIXIXIXIXIXIXIXIXIXIXIXIXIXIXIXIXIXIXIXIXIXIXIXIXIXIXIXIXIXIX",
"IXIXIXIXIXIXIXIXIXIXIXIXIXIXIXIXIXIXIXIXIXIXIXIXIXIXIXIXIXIXIXIXIXIXIX! 1 y g 1 1 g 1 1 h < = $ H zXFX=XXXoX'.].oXoXoXoXoXoXoXoXoXoXoXoXoXoXoXoXoXoXoXoXoXoXoXoXoXoXoXoXoXoXoXoXoXoXoXoXoXoXoXoXoX'.'.].0X6X~.k.| O.+.:.6.6.6.w.6.6.6.6.6.6.6.6.6.6.6.6.6.6.6.6.} y.E.6X6XXX<X'.].].XX<XXX].oXoXoXoXoXoXoXoXoXoXoXoXoXoXoXoXoXoXoXoXoXoXoXoXoXoXoXoXoXoXoXoXoXoXoXoXoXoXoXoXoXoXoXoXoXoXoXoXoX].'.[.+X6X6XQ.x.( :.:.:.$.$.&.6.6.$.o.;.x./.6XyX'.oXXX*X*XOXXX'.*X].oXoXXXoXoXoXXX<X'.XXXX0X2X^.j.| O.$.6.6.6.6.6.6.6.6.6.:.:.:.7.6.6.6.6.6.6.6.6.6.6.6.6.6.6.6.6.6.6.6.6.6.6.6.6.6.6.6.6.6.6.6.6.6.6.6.6.6.6.6.6.6.6.6.6.6.6.6.6.6.6.6.6.6.6.6.6.6.6.6.6.6.6.6.6.6.6.6.6.6.6.6.6.6.6.6.6.6.6.6.6.6.6.6.6.6.6.6.6.6.6.6.6.6.6.6.6.6.$.+.%.6.7.+.| 2.J.NXyX].'.<XXX+XoXXXXXuXMXY.f.| O.O.#.&.$.+.:.6.6.X.;.A.;XuXrXXX_.'.'.oX+XXXXX+X+X'.[._.&X*X<XXXoX].].].].'.XXXXXXoXoXoXoX=XoXXX'.-XGXxXD % - y 1 1 0 0 1 1 y 1 1 IXIXIXIXIXIXIXIXIXIXIXIXIXIXIXIXIXIXIXIXIXIXIXIXIXIXIXIXIXIXIXIXIXIXIX",
"IXIXIXIXIXIXIXIXIXIXIXIXIXIXIXIXIXIXIXIXIXIXIXIXIXIXIXIXIXIXIXIXIXIXIX! 1 g g 1 1 g 1 1 g < = $ H zXFX=XXXoX'.].oXoXoXoXoXoXoXoXoXoXoXoXoXoXoXoXoXoXoXoXoXoXoXoXoXoXoXoXoXoXoXoXoXoXoXoXoXoXoXXXoX'.'.].0X6X~.k.| O.+.:.6.6.6.w.6.6.6.6.6.6.6.6.6.6.6.6.6.6.6.6.X.y.E.6X6XXX<X'.].].XX<XXX].oXoXoXoXoXoXoXoXoXoXoXoXoXoXoXoXoXoXoXoXoXoXoXoXoXoXoXoXoXoXoXoXoXoXoXoXoXoXoXoXoXoXoXoXoXoXoXoXoX].'.[.+X6X6XQ.x.( :.:.6.$.$.&.6.6.$.o.,.x./.uXyX'.oXXX<X*XOXXX'.*X].oXoXoXoXoXoXXX<X_.XXXX0X2X^.j.| O.$.6.6.6.6.6.6.6.6.6.:.:.6.7.6.6.6.6.6.6.6.6.6.6.6.6.6.6.6.6.6.6.6.6.6.6.6.6.6.6.6.6.6.6.6.6.6.6.6.6.6.6.6.6.6.6.6.6.6.6.6.6.6.6.6.6.6.6.6.6.6.6.6.6.6.6.6.6.6.6.6.6.6.6.6.6.6.6.6.6.6.6.6.6.6.6.6.6.6.6.6.6.6.6.6.6.6.6.6.6.6.$.+.$.6.7.+.-.1.K.BXZX4X4XCXCX4XyXyXyXAXDX~.z.) [ [ { O.X.X.( ( | / -.A.mXSXZX6X6X6X4XyX6XMXMXMX4X<X[.[.&X*X<XXXoX].].].].].'.XXXXoXoXoXoX'.XXXX'.-XGXxXD % - y 1 1 0 1 1 y y 1 1 IXIXIXIXIXIXIXIXIXIXIXIXIXIXIXIXIXIXIXIXIXIXIXIXIXIXIXIXIXIXIXIXIXIXIX",
"IXIXIXIXIXIXIXIXIXIXIXIXIXIXIXIXIXIXIXIXIXIXIXIXIXIXIXIXIXIXIXIXIXIXIX! 1 y g 1 1 g 1 1 g < = $ H zXFX=XXXoX'.].oXoXoXoXoXoXoXoXoXoXoXoXoXoXoXoXoXoXoXoXoXoXoXoXoXoXoXoXoXoXoXoXoXoXoXoXoXoXoXXXoXXX'.'.0X6X~.k.| O.+.:.9.6.6.w.6.6.6.6.6.6.6.6.6.6.6.6.$.$.6.6.X.y.E.6X6XoXoX'.].].XX<XXX].oXoXoXoXoXoXoXoXoXoXoXoXoXoXoXoXoXoXoXoXoXoXoXoXoXoXoXoXoXoXoXoXoXoXoXoXoXoXoXoXoXoXoXoXoXoXoXoXoX].XX'.+X6X6XQ.x.( :.:.6.$.$.&.6.6.$.o.,.x./.6XyX'.oXXX<X<XXXXX'.*X].oXXXXXoXoXoXXX<X_.XXXX0X2X^.j.| O.$.6.6.6.6.6.6.6.6.6.:.:.6.6.6.6.6.6.6.6.6.6.6.6.6.6.6.6.6.6.6.6.6.6.6.6.6.6.6.6.6.6.6.6.6.6.6.6.6.6.6.6.6.6.6.6.6.6.6.6.6.6.6.6.6.6.6.6.6.6.6.6.6.6.6.6.6.6.6.6.6.6.6.6.6.6.6.6.6.6.6.6.6.6.6.6.6.6.6.6.6.6.6.6.6.6.6.6.6.6.6.$.+.+.6.7.+.;.1.L.mXMX|.,XNX>X<X<X_._.2XMX~.v.` | +.+.6.9.0.0.0.0.;.<.F.VXNX3X>X>X3X<X<X<X3X>X|.|.XX*X*X*X&X'.XXoXoX].].].].oXXXXXoXoXoXoX'.XXXX'.-XGXxXD % - y y e 0 1 1 y y 1 1 IXIXIXIXIXIXIXIXIXIXIXIXIXIXIXIXIXIXIXIXIXIXIXIXIXIXIXIXIXIXIXIXIXIXIX",
"IXIXIXIXIXIXIXIXIXIXIXIXIXIXIXIXIXIXIXIXIXIXIXIXIXIXIXIXIXIXIXIXIXIXIX! 1 y g 2 1 g 1 1 g < = $ H zXFX=XXXoX'.].oXoXoXoXoXoXoXoXoXoXoXoXoXoXoXoXoXoXoXoXoXoXoXoXoXoXoXoXoXoXoXoXoXoXoXoXoXoXoXXX<XXX'.'.=X6X~.k.| O.+.:.9.6.6.w.6.6.6.6.6.6.6.6.6.6.6.6.$.$.$.$.X.y.E.6X6XoXoX'.].].XX<XXX].oXoXoXoXoXoXoXoXoXoXoXoXoXoXoXoXoXoXoXoXoXoXoXoXoXoXoXoXoXoXoXoXoXoXoXoXoXoXoXoXoXoXoXoXoXoXoXoXoX].'.'.+X6X6XQ.x.( :.:.:.$.$.$.6.6.$.o.,.x./.6XyX'.XXXX*X*XXXXX'.*X].XXXXXXoXoXoXXX<X_.XXXX0X2X^.j.| O.$.6.6.6.6.6.6.6.6.6.:.:.6.7.6.6.6.6.6.6.6.6.6.6.6.6.6.6.6.6.6.6.6.6.6.6.6.6.6.6.6.6.6.6.6.6.6.6.6.6.6.6.6.6.6.6.6.6.6.6.6.6.6.6.6.6.6.6.6.6.6.6.6.6.6.6.6.6.6.6.6.6.6.6.6.6.6.6.6.6.6.6.6.6.6.6.6.6.6.6.6.6.6.6.6.6.6.6.6.6.6.$.+.+.6.:.+.o.` D.~.~.T.Y.R.R.W.W.S.S.E.(.J.f.b.l.z.x.x.x.x.x.x.x.j.f.n.^.~.J.Y.Y.Y.Y.T.T.T.Y.Y.E..X'.<X*X*XXXXXoXoX].*X*XoXoXXXXXoXoXoXoX'.XXXX'.-XGXxXD % - y y e 4 4 1 1 1 1 1 IXIXIXIXIXIXIXIXIXIXIXIXIXIXIXIXIXIXIXIXIXIXIXIXIXIXIXIXIXIXIXIXIXIXIX",
"IXIXIXIXIXIXIXIXIXIXIXIXIXIXIXIXIXIXIXIXIXIXIXIXIXIXIXIXIXIXIXIXIXIXIXW 1 1 g 1 1 e 1 1 g < = $ H zXFX=XXXoX'.].oXoXoXoXoXoXoXoXoXoXoXoXoXoXoXoXoXoXoXoXoXoXoXoXoXoXoXoXoXoXoXoXoXoXoXoXoXoXoXXX<XXX'.'.=X6X~.k.| +.+.:.6.6.6.+.6.6.6.6.6.6.6.6.6.6.$.$.$.6.6.6.X.y.E.6X6XoXoX'.].].XX<XXX].oXoXoXoXoXoXoXoXoXoXoXoXoXoXoXoXoXoXoXoXoXoXoXoXoXoXoXoXoXoXoXoXoXoXoXoXoXoXoXoXoXoXoXoXoXoXoXoXoX].'.[.+X6X6XQ.x.( ;.:.6.w.$.+.6.6.$.o.;.x./.uXyX'.XXXX*X*XXXXX'.*X].XXXXXXoXoXoXXX'.<XXX'.rX6XR.j.| O.$.6.6.6.6.6.6.6.6.6.6.6.7.6.6.6.6.6.6.6.6.6.6.6.6.6.6.6.6.6.6.6.6.6.6.6.6.6.6.6.6.6.6.6.6.6.6.6.6.6.6.6.6.6.6.6.6.6.6.6.6.6.6.6.6.6.6.6.6.6.6.6.6.6.6.6.6.6.6.6.6.6.6.6.6.6.6.6.6.6.6.6.6.6.6.6.6.6.6.6.6.6.6.6.6.6.6.6.6.6.6.6.+.+.:.+.&.$.r.u.1.f.1.1.5.5.2.2.<.<.,.2.c.%X$X$X/./././.Q.Q./.;X>X$XG.f.` 2.1.y.q.y.q.q.1.1.` f.T.5X2X].<XXX+XoXoX].*X*XoXoXoXXXoXoXoXoX=XXXXX<X-XAXbXD # - y p 4 1 1 0 e 1 y g IXIXIXIXIXIXIXIXIXIXIXIXIXIXIXIXIXIXIXIXIXIXIXIXIXIXIXIXIXIXIXIXIXIXIX",
"IXIXIXIXIXIXIXIXIXIXIXIXIXIXIXIXIXIXIXIXIXIXIXIXIXIXIXIXIXIXIXIXIXIXIXW 1 1 g 1 1 e 1 1 g < - $ H zXFX=XXXoX'.].oXoXoXoXoXoXoXoXoXoXoXoXoXoXoXoXoXoXoXoXoXoXoXoXoXoXoXoXoXoXoXoXoXoXoXoXoXoXoXXXXX'.'.'.=X6X~.k.-.+.+.:.6.6.6.+.6.6.6.6.6.6.6.6.6.6.$.6.$.$.6.6.} y.E.6X6XoXoX'.].].XX<XXX].oXoXoXoXoXoXoXoXoXoXoXoXoXoXoXoXoXoXoXoXoXoXoXoXoXoXoXoXoXoXoXoXoXoXoXoXoXoXoXoXoXoXoXoXoXoXoXoXoX].'.[.+X6X6XQ.x.( :.:.6.w.$.+.6.6.$.o.;.x./.uXyX'.oXXX*X*XXXXX'.*X].XXXXXXoXoXoXXX'.<XXX'.rX2XR.j.| O.$.6.6.6.6.6.6.6.6.6.6.6.7.7.6.6.6.6.6.6.6.6.6.6.6.6.6.6.6.6.6.6.6.6.6.6.6.6.6.6.6.6.6.6.6.6.6.6.6.6.6.6.6.6.6.6.6.6.6.6.6.6.6.6.6.6.6.6.6.6.6.6.6.6.6.6.6.6.6.6.6.6.6.6.6.6.6.6.6.6.6.6.6.6.6.6.6.6.6.6.6.6.6.6.6.6.6.6.6.6.6.6.:.+.:.+.&.&.O.O.-.-.-.......+.O.+.+.} ( g.^.BXMXrXrX1X2X7X7X*X*X2X5XS.2.( ..+.+.+.%.O.O.o.| ( f.Y.5X1X].oXXX+X+XoXXX<X<XoXoXoXXXoXoXoXoX=XXXXX<X-XAXbXD # - y y 0 0 1 1 e 4 y g IXIXIXIXIXIXIXIXIXIXIXIXIXIXIXIXIXIXIXIXIXIXIXIXIXIXIXIXIXIXIXIXIXIXIX",
"IXIXIXIXIXIXIXIXIXIXIXIXIXIXIXIXIXIXIXIXIXIXIXIXIXIXIXIXIXIXIXIXIXIXIXW 1 1 g 1 1 e 1 1 h < - $ H zXFX=XXXoX'.].oXoXoXoXoXoXoXoXoXoXoXoXoXoXoXoXoXoXoXoXoXoXoXoXoXoXoXoXoXoXoXoXoXoXoXoXoXoXoXXX<X'.'.'.=X6X~.k.| +.+.:.6.6.6.+.6.6.6.6.6.6.6.6.6.6.6.6.6.6.6.6.} y.E.6X4XoXoX'.].].XX<XXX].oXoXoXoXoXoXoXoXoXoXoXoXoXoXoXoXoXoXoXoXoXoXoXoXoXoXoXoXoXoXoXoXoXoXoXoXoXoXoXoXoXoXoXoXoXoXoXoXoX].'.[.+X6X6XQ.x.( o.:.w.w.$.+.6.6.$.o.;.x./.uXyX'.oXXX*X*XOXXXXX*X].XXXXXXoXoXoXXX'.<XXX'.rX6XR.j.| O.$.6.6.6.6.6.6.6.6.6.6.6.7.7.6.6.6.6.6.6.6.6.6.6.6.6.6.6.6.6.6.6.6.6.6.6.6.6.6.6.6.6.6.6.6.6.6.6.6.6.6.6.6.6.6.6.6.6.6.6.6.6.6.6.6.6.6.6.6.6.6.6.6.6.6.6.6.6.6.6.6.6.6.6.6.6.6.6.6.6.6.6.6.6.6.6.6.6.6.6.6.6.6.6.6.6.6.6.6.6.6.6.:.:.@.@.&.&.O.O.O..... .O.O.O.| +.+.} ( g.W.CXyXyXyXyX2X7X7X*X2XuX3XF.,.^ O.+.+.%.%.=.{  .| } 5.K.5X1X].oXXX+X+XoXXX<X<XoXoXoXXXoXoXoXoX'.XXXX<X-XAXbXD # , y 0 1 1 1 1 0 1 1 g IXIXIXIXIXIXIXIXIXIXIXIXIXIXIXIXIXIXIXIXIXIXIXIXIXIXIXIXIXIXIXIXIXIXIX",
"IXIXIXIXIXIXIXIXIXIXIXIXIXIXIXIXIXIXIXIXIXIXIXIXIXIXIXIXIXIXIXIXIXIXIXW 1 1 g 1 1 e 1 1 h y - $ H zXFX=XXXoX'.].oXoXoXoXoXoXoXoXoXoXoXoXoXoXoXoXoXoXoXoXoXoXoXoXoXoXoXoXoXoXoXoXoXoXoXoXoXoXoXXX<X_.'.'.=X6X~.k.| +.+.:.6.6.6.+.6.6.6.6.6.6.6.6.6.6.6.6.6.6.6.6.| y.E.6X4XoXoX'.].].XXXXXX].oXoXoXoXoXoXoXoXoXoXoXoXoXoXoXoXoXoXoXoXoXoXoXoXoXoXoXoXoXoXoXoXoXoXoXoXoXoXoXoXoXoXoXoXoXoXoXoXoX].'.[.+X4X6XQ.x.( +.$.w.&.$.$.6.6.$.o.;.x./.uXyX'.oXXX*X*XOXXXXX*X].XXXXXXoXoXoXXXXX<XXX'.rX6XR.j.| O.$.6.6.6.6.6.6.6.6.6.6.6.7.7.6.6.6.6.6.6.6.6.6.6.6.6.6.6.6.6.6.6.6.6.6.6.6.6.6.6.6.6.6.6.6.6.6.6.6.6.6.6.6.6.6.6.6.6.6.6.6.6.6.6.6.6.6.6.6.6.6.6.6.6.6.6.6.6.6.6.6.6.6.6.6.6.6.6.6.6.6.6.6.6.6.6.6.6.6.6.6.6.6.6.6.6.6.6.6.6.6.6.:.:.@.@.$.$.*.&.&.&.w.&.&.&.+.+.3.6.o.| z.~.4XwXoXoX].'.&X_._.=XrX3XF.>.[ *.w.w.*.*.#.#.@.@.} 5.K.5X1X].oXXX+X+XoXoX<X<XoXoXoXXXoXoXoXoX'.XXXX<X-XAXbXD # , y 1 1 1 1 1 0 1 1 g IXIXIXIXIXIXIXIXIXIXIXIXIXIXIXIXIXIXIXIXIXIXIXIXIXIXIXIXIXIXIXIXIXIXIX",
"IXIXIXIXIXIXIXIXIXIXIXIXIXIXIXIXIXIXIXIXIXIXIXIXIXIXIXIXIXIXIXIXIXIXIXW 1 1 g 1 1 e 1 1 h y - $ H zXFX=XXXoX'.].oXoXoXoXoXoXoXoXoXoXoXoXoXoXoXoXoXoXoXoXoXoXoXoXoXoXoXoXoXoXoXoXoXoXoXoXoXoXoXXX<X_.'.'.=X6X~.k.| O.+.:.6.6.6.+.6.6.6.6.6.6.6.6.6.6.6.6.6.$.$.$.| y.T.6X6XoXoX'.].].XXXXXX].oXoXoXoXoXoXoXoXoXoXoXoXoXoXoXoXoXoXoXoXoXoXoXoXoXoXoXoXoXoXoXoXoXoXoXoXoXoXoXoXoXoXoXoXoXoXoXoXoX].'.[.+X6X6XQ.x.( ;.:.6.w.$.+.6.w.$.o.;.x./.uXyX'.oXXX*X*XOXXX'.*X].oXoXXXoXoXXXXXXX<XXX'.rX6XR.j.| O.$.6.6.6.6.6.6.6.6.6.6.6.7.7.6.6.6.6.6.6.6.6.6.6.6.6.6.6.6.6.6.6.6.6.6.6.6.6.6.6.6.6.6.6.6.6.6.6.6.6.6.6.6.6.6.6.6.6.6.6.6.6.6.6.6.6.6.6.6.6.6.6.6.6.6.6.6.6.6.6.6.6.6.6.6.6.6.6.6.6.6.6.6.6.6.6.6.6.6.6.6.6.6.6.6.6.6.6.6.6.6.$.+.+.:.:.6.6.6.6.6.:.:.6.6.6.&.@.w.w.$.;.v.(.4XoXoX'.[.'.'.'.[.'.rX3XH.<.X.*.6.6.9.*.&.@.+.@.} <.K.mX1X].<X'.oXoXoXoX<X'.oXoXoXXXoXoXoXoX'.XXXX<X-XAXbXD # , y 1 1 1 0 0 y y 1 g IXIXIXIXIXIXIXIXIXIXIXIXIXIXIXIXIXIXIXIXIXIXIXIXIXIXIXIXIXIXIXIXIXIXIX",
"IXIXIXIXIXIXIXIXIXIXIXIXIXIXIXIXIXIXIXIXIXIXIXIXIXIXIXIXIXIXIXIXIXIXIXW 1 1 g 1 1 e 1 1 h y - $ H zXFX=XXXoX'.].oXoXoXoXoXoXoXoXoXoXoXoXoXoXoXoXoXoXoXoXoXoXoXoXoXoXoXoXoXoXoXoXoXoXoXoXoXoXoXXX<X_.'.'.=X6X~.k.| O.+.:.6.6.6.+.6.6.6.6.6.6.6.6.6.6.6.6.6.$.$.$.o.y.T.6X6XoXoX'.].].XXXXXX].oXoXoXoXoXoXoXoXoXoXoXoXoXoXoXoXoXoXoXoXoXoXoXoXoXoXoXoXoXoXoXoXoXoXoXoXoXoXoXoXoXoXoXoXoXoXoXoXoX].'.[.+X6X6XQ.x.( ;.:.6.w.$.+.6.w.$.o.;.x./.uXyX'.oXXX*X*XOXXX'.*X].oXoXoXoXoXXXXXXX<XXX'.rX6XR.j.| O.$.6.6.6.6.6.6.6.6.6.6.6.7.7.6.6.6.6.6.6.6.6.6.6.6.6.6.6.6.6.6.6.6.6.6.6.6.6.6.6.6.6.6.6.6.6.6.6.6.6.6.6.6.6.6.6.6.6.6.6.6.6.6.6.6.6.6.6.6.6.6.6.6.6.6.6.6.6.6.6.6.6.6.6.6.6.6.6.6.6.6.6.6.6.6.6.6.6.6.6.6.6.6.6.6.6.6.6.6.6.$.$.+.+.:.:.6.6.9.6.6.:.:.6.7.6.&.@.w.w.%.;.v.Q.1X1XoXXX].].XXXX'.oXiX3XH.>.} %.:.:.9.$.+.+.+.+.} 5.Y.NX1X].*X'.oXoXoXoX'.*X].oXoXXXoXoXoXoX'.XXXX<X-XAXbXD # , y 1 1 1 1 1 y y 1 g IXIXIXIXIXIXIXIXIXIXIXIXIXIXIXIXIXIXIXIXIXIXIXIXIXIXIXIXIXIXIXIXIXIXIX",
"IXIXIXIXIXIXIXIXIXIXIXIXIXIXIXIXIXIXIXIXIXIXIXIXIXIXIXIXIXIXIXIXIXIXIXW 1 1 g 1 1 e 1 1 h y - $ H zXFX=XXXoX'.].oXoXoXoXoXoXoXoXoXoXoXoXoXoXoXoXoXoXoXoXoXoXoXoXoXoXoXoXoXoXoXoXoXoXoXoXoXoXoXXX<X_.'.'.=X6X~.k.| O.+.:.6.6.6.+.6.6.6.6.6.6.6.6.6.6.6.6.6.6.$.$.o.y.E.6XyXoXoX'.].].XXXXXX].oXoXoXoXoXoXoXoXoXoXoXoXoXoXoXoXoXoXoXoXoXoXoXoXoXoXoXoXoXoXoXoXoXoXoXoXoXoXoXoXoXoXoXoXoXoXoXoXoX].'.[.+X6X6XQ.x.( ;.:.6.w.$.+.6.w.$.o.;.x./.uXyX'.oXXX<X<XXXXX'.*X].oXXXXXoXoXXXXXXX<XXX'.rX6XR.j.| O.$.6.6.6.6.6.6.6.:.:.6.6.7.7.6.6.6.6.6.6.6.6.6.6.6.6.6.6.6.6.6.6.6.6.6.6.6.6.6.6.6.6.6.6.6.6.6.6.6.6.6.6.6.6.6.6.6.6.6.6.6.6.6.6.6.6.6.6.6.6.6.6.6.6.6.6.6.6.6.6.6.6.6.6.6.6.6.6.6.6.6.6.6.6.6.6.6.6.6.6.6.6.6.6.6.6.6.6.6.6.$.$.+.:.3.:.6.7.6.6.$.@.:.:.6.6.+.+.6.6.X.o.z.~.2XoXXXXX'.'.XXXXXX4XuX>XF.;.[ #.@.3.6.6.6.:.:.:.| 1.Y.3X2X*X*X&XXXoXoXoX=X*X].].oXXXoXoXoXoX'.XXXX<X-XAXbXD # , y p g 1 1 1 1 p 1 g IXIXIXIXIXIXIXIXIXIXIXIXIXIXIXIXIXIXIXIXIXIXIXIXIXIXIXIXIXIXIXIXIXIXIX",
"IXIXIXIXIXIXIXIXIXIXIXIXIXIXIXIXIXIXIXIXIXIXIXIXIXIXIXIXIXIXIXIXIXIXIXW 1 1 g 1 1 e 1 1 h < - $ H zXFX=XXXoX'.].oXoXoXoXoXoXoXoXoXoXoXoXoXoXoXoXoXoXoXoXoXoXoXoXoXoXoXoXoXoXoXoXoXoXoXoXoXoXoXXX<X_.'.'.=X6X~.k.| O.+.:.6.6.6.+.6.6.6.6.6.6.6.6.6.6.6.6.6.6.6.6.X.y.T.6X6XoXoX'.].].oXXXXX].oXoXoXoXoXoXoXoXoXoXoXoXoXoXoXoXoXoXoXoXoXoXoXoXoXoXoXoXoXoXoXoXoXoXoXoXoXoXoXoXoXoXoXoXoXoXoXoXoX].'.[.+X6X6XQ.x.( ;.:.6.w.$.+.6.w.$.o.;.x./.uXyX'.oXXX<X<XXXXX*X*XoXXXXXXXoXoXXXXXXX<XXX'.rX6XR.j.| O.$.6.6.6.6.6.6.6.:.+.:.:.7.7.6.6.6.6.6.6.6.6.6.6.6.6.6.6.6.6.6.6.6.6.6.6.6.6.6.6.6.6.6.6.6.6.6.6.6.6.6.6.6.6.6.6.6.6.6.6.6.6.6.6.6.6.6.6.6.6.6.6.6.6.6.6.6.6.6.6.6.6.6.6.6.6.6.6.6.6.6.6.6.6.6.6.6.6.6.6.6.6.6.6.6.6.6.6.6.6.$.$.$.:.:.:.6.6.6.6.:.:.+.+.$.6.+.+.6.6.%.o.z.W.2X1XoXXX].<X+XOX+XoXyX>XF.,.[ #.@.3.:.6.:.:.:.:.| 1.Y.NX1X=X*X&X*XoXoXoX*X*X].].].XXoXoXoXoX'.XXXX<X-XAXbXD # , p p y y 1 1 e e 1 g IXIXIXIXIXIXIXIXIXIXIXIXIXIXIXIXIXIXIXIXIXIXIXIXIXIXIXIXIXIXIXIXIXIXIX",
"IXIXIXIXIXIXIXIXIXIXIXIXIXIXIXIXIXIXIXIXIXIXIXIXIXIXIXIXIXIXIXIXIXIXIX! 1 0 l 1 1 g 1 1 g < - $ H zXFX].'.oX[.<XoXoXoXoXoXoXoXoXoXoXoXoXoXoXoXoXoXoXoXoXoXoXoXoXoXoXoXoXoXoXoXoXoXoXoXoXoXoXoXXX<X|.XX'.=X2X~.k.| O.+.:.6.6.6.:.6.6.6.6.6.6.6.6.6.6.6.6.$.$.$.$.} y.E.6X6XXX<X'.].].XXXXXX].oXoXoXoXoXoXoXoXoXoXoXoXoXoXoXoXoXoXoXoXoXoXoXoXoXoXoXoXoXoXoXoXoXoXoXoXoXoXoXoXoXoXoXoXoXoXoXoXoX].'.[.+X6X6XQ.x.( :.:.6.$.$.$.6.6.$.o.;.x. XuX<X'.XXXX<XXXoXXXXX<XXXXXXXXXoXoXoXXXXX<XXX'.rX6XR.j.| O.$.6.6.6.6.6.6.6.6.6.:.:.:.6.6.6.6.6.6.6.6.6.6.6.6.6.6.6.6.6.6.6.6.6.6.6.6.6.6.6.6.6.6.6.6.6.6.6.6.6.6.6.6.6.6.6.6.6.6.6.6.6.6.6.6.6.6.6.6.6.6.6.6.6.6.6.6.6.6.6.6.6.6.6.6.6.6.6.6.6.6.6.6.6.6.6.6.6.6.6.6.6.6.6.6.6.6.6.6.6.6.$.+.+.:.:.6.6.+.o.-.,.3.@.@.+.w...+.9.$.;.b.T.7X=X].XX'.<X+XOXoX<XtX&XA.>.} %.:.:.,.,.:.:.@.@.} y.^.NX<X[.*X*X=X].oXoX<X<XoX].].XXoXoXoXoX'.'.XX[.-XFXxXD * - p 4 d d 1 1 4 4 1 1 IXIXIXIXIXIXIXIXIXIXIXIXIXIXIXIXIXIXIXIXIXIXIXIXIXIXIXIXIXIXIXIXIXIXIX",
"IXIXIXIXIXIXIXIXIXIXIXIXIXIXIXIXIXIXIXIXIXIXIXIXIXIXIXIXIXIXIXIXIXIXIX! 1 y k 1 1 g 1 1 g < = $ H zXFX].'.oX[.<XoXoXoXoXoXoXoXoXoXoXoXoXoXoXoXoXoXoXoXoXoXoXoXoXoXoXoXoXoXoXoXoXoXoXoXoXoXoXoXXX<X|.XX'.=X2X~.k.| O.+.:.7.6.6.:.6.6.6.6.6.6.6.6.6.6.6.6.$.$.$.$.} y.E.6X5XXX<X'.].].XX<XXX].oXoXoXoXoXoXoXoXoXoXoXoXoXoXoXoXoXoXoXoXoXoXoXoXoXoXoXoXoXoXoXoXoXoXoXoXoXoXoXoXoXoXoXoXoXoXoXoXoX].'.[.+X6X6XQ.x.( :.:.6.$.$.$.6.6.%.+.;.x. XuX<X'.XXOXXXXXoXoX<X<XXXXXXXXXoXoXoXXXXX<XXX'.rX6XR.j.| O.$.w.6.6.6.6.6.6.6.6.:.:.:.6.6.6.6.6.6.6.6.6.6.6.6.6.6.6.6.6.6.6.6.6.6.6.6.6.6.6.6.6.6.6.6.6.6.6.6.6.6.6.6.6.6.6.6.6.6.6.6.6.6.6.6.6.6.6.6.6.6.6.6.6.6.6.6.6.6.6.6.6.6.6.6.6.6.6.6.6.6.6.6.6.6.6.6.6.6.6.6.6.6.6.6.6.6.6.6.6.6.6.:.+.:.$.6.$.t.w.>.>.3.&.&.&.w.+.$.9.%.` c.(.*X[.[.[.[.[.@X@X[.].sX,XG.2.O.*.t.w.w.w.t.w.t.&.} u.^.MXyX].[.[.=X].oXoX<XXXoXoX].'.oXoXoXoX'.'.XX[.2XHXxXD * = p d d d 1 4 1 1 1 1 IXIXIXIXIXIXIXIXIXIXIXIXIXIXIXIXIXIXIXIXIXIXIXIXIXIXIXIXIXIXIXIXIXIXIX",
"IXIXIXIXIXIXIXIXIXIXIXIXIXIXIXIXIXIXIXIXIXIXIXIXIXIXIXIXIXIXIXIXIXIXIX! 1 y g 1 1 e 1 1 g < = $ H zXFX].'.oX[.<XoXoXoXoXoXoXoXoXoXoXoXoXoXoXoXoXoXoXoXoXoXoXoXoXoXoXoXoXoXoXoXoXoXoXoXoXoXoXoXXX<X|.XXXX=X2X~.k.| O.+.:.7.6.6.:.6.6.6.6.6.6.6.6.6.6.6.6.6.6.$.6.} u.W.6X5XXX<X'.].].XX<XXX].oXoXoXoXoXoXoXoXoXoXoXoXoXoXoXoXoXoXoXoXoXoXoXoXoXoXoXoXoXoXoXoXoXoXoXoXoXoXoXoXoXoXoXoXoXoXoXoXoX].XX'.+X6X6XQ.x.( :.:.6.$.$.$.6.6.$.+.;.x. XuX<X'.OXOXXXXXoXoX<X<XXXXXXXXXoXoXoXXXXX<XXX'.rX6XR.j.| O.$.w.6.6.6.6.6.6.6.6.:.:.6.6.6.6.6.6.6.6.6.6.6.6.6.6.6.6.6.6.6.6.6.6.6.6.6.6.6.6.6.6.6.6.6.6.6.6.6.6.6.6.6.6.6.6.6.6.6.6.6.6.6.6.6.6.6.6.6.6.6.6.6.6.6.6.6.6.6.6.6.6.6.6.6.6.6.6.6.6.6.6.6.6.6.6.6.6.6.6.6.6.6.6.6.6.6.6.6.6.6.6.:.:.@.&.%.&.*.&.:.o.O.=.=.=.O.X.%.%.^ ) x.%X7X1XwXwX0X0XwXwX[.0XpX8XS.,.^ *.*.%.%.%.$.$.%.+./ 1.Y.NXyX].*X_.=XoXoXoX<XXXoX].].XXoXoXoXoX'.'.XX[.2XHXxXD & = p 1 1 d 1 1 d 1 1 1 IXIXIXIXIXIXIXIXIXIXIXIXIXIXIXIXIXIXIXIXIXIXIXIXIXIXIXIXIXIXIXIXIXIXIX",
"IXIXIXIXIXIXIXIXIXIXIXIXIXIXIXIXIXIXIXIXIXIXIXIXIXIXIXIXIXIXIXIXIXIXIX! 1 y g 1 1 e 1 1 g < = $ H zXFX].'.oX[.<XoXoXoXoXoXoXoXoXoXoXoXoXoXoXoXoXoXoXoXoXoXoXoXoXoXoXoXoXoXoXoXoXoXoXoXoXoXoXoXXX<X|.XXXX=X2X~.k.| O.+.:.7.6.6.:.6.6.6.6.6.6.6.6.6.6.6.6.6.6.6.6.} y.W.6X6XXX<X'.].].XX<XXX].oXoXoXoXoXoXoXoXoXoXoXoXoXoXoXoXoXoXoXoXoXoXoXoXoXoXoXoXoXoXoXoXoXoXoXoXoXoXoXoXoXoXoXoXoXoXoXoXoX].'.'.+X6X6XQ.x.( :.:.6.$.&.$.6.6.$.+.;.x. XuX<X'.OXOXXXXXoXoX<X<XXXXXXXXXoXoXoXXXXX<XXX'.rX6XR.j.| O.$.w.6.6.6.6.6.6.6.6.:.:.6.7.6.6.6.6.6.6.6.6.6.6.6.6.6.6.6.6.6.6.6.6.6.6.6.6.6.6.6.6.6.6.6.6.6.6.6.6.6.6.6.6.6.6.6.6.6.6.6.6.6.6.6.6.6.6.6.6.6.6.6.6.6.6.6.6.6.6.6.6.6.6.6.6.6.6.6.6.6.6.6.6.6.6.6.6.6.6.6.6.6.6.6.6.6.6.6.6.6.6.:.:.+.&.%.&.=.O.| ( [ [ { { / } X./ ^ ) k.R.BXMXZXZXiXpXuXuXuXuXpX8XS.` ^ { { { [ / ) ) / / ( 2.T.3XrXoX*X_.].oXoXoXXX<X].].].XXoX+XoXoX'.'.XX[.2XHXxXD * = y 1 1 1 1 1 d d 1 1 IXIXIXIXIXIXIXIXIXIXIXIXIXIXIXIXIXIXIXIXIXIXIXIXIXIXIXIXIXIXIXIXIXIXIX",
"IXIXIXIXIXIXIXIXIXIXIXIXIXIXIXIXIXIXIXIXIXIXIXIXIXIXIXIXIXIXIXIXIXIXIX! 1 g h 1 1 g 1 1 h < = $ H zXFX].'.oX'.<XoXoXoXoXoXoXoXoXoXoXoXoXoXoXoXoXoXoXoXoXoXoXoXoXoXoXoXoXoXoXoXoXoXoXoXoXoXoXoXXX<X|.XX'.=X2X~.k.| O.+.:.7.6.6.+.6.6.6.6.6.6.6.6.6.6.6.6.6.6.6.6.} y.E.6X6XXX<X'.].].XX<XXX].oXoXoXoXoXoXoXoXoXoXoXoXoXoXoXoXoXoXoXoXoXoXoXoXoXoXoXoXoXoXoXoXoXoXoXoXoXoXoXoXoXoXoXoXoXoXoXoXoX].'.[.+X6X6XQ.x.( :.:.6.$.$.$.6.6.$.+.;.x. XuX<X'.OXOXXXXXoXoX<X<XXXXXXXXXoXoXoXXXXX<XXX'.rX6XR.j.| O.$.w.6.6.6.6.6.6.6.6.6.6.7.7.6.6.6.6.6.6.6.6.6.6.6.6.6.6.6.6.6.6.6.6.6.6.6.6.6.6.6.6.6.6.6.6.6.6.6.6.6.6.6.6.6.6.6.6.6.6.6.6.6.6.6.6.6.6.6.6.6.6.6.6.6.6.6.6.6.6.6.6.6.6.6.6.6.6.6.6.6.6.6.6.6.6.6.6.6.6.6.6.6.6.6.6.6.6.6.6.6.6.:.:.+.$.$.$.X.6.h.1.2.<.<.<.<.<.<.<.,.1.v.G.$X$X XlX>X>X:X;X X;X,X$XS.f.] q.<.>.>.<.<.<.>.2.2.b.T.3X4XoX*X_.oXoX+X+XXX<X].].].XXoX+XoXoX=X'.'.[.2XHXxXD * = y 1 1 1 1 1 1 1 1 1 IXIXIXIXIXIXIXIXIXIXIXIXIXIXIXIXIXIXIXIXIXIXIXIXIXIXIXIXIXIXIXIXIXIXIX",
"IXIXIXIXIXIXIXIXIXIXIXIXIXIXIXIXIXIXIXIXIXIXIXIXIXIXIXIXIXIXIXIXIXIXIX! 1 g h 1 1 g 1 1 g < = $ H zXFX].'.oX'.<XoXoXoXoXoXoXoXoXoXoXoXoXoXoXoXoXoXoXoXoXoXoXoXoXoXoXoXoXoXoXoXoXoXoXoXoXoXoXoXXX<X|.XX'.=X5X~.k.| O.+.:.7.6.6.:.6.6.6.6.6.6.6.6.6.6.6.6.6.6.6.6.X.y.E.6X6XXX<X'.].].XX<XXX].oXoXoXoXoXoXoXoXoXoXoXoXoXoXoXoXoXoXoXoXoXoXoXoXoXoXoXoXoXoXoXoXoXoXoXoXoXoXoXoXoXoXoXoXoXoXoXoXoX].'.[.+X6X6XQ.x.( :.:.6.$.$.$.6.6.%.O.;.x. XuX<X'.OXOXXXXXoXoX<X<XXXXXoXXXoXoXoXXXXX<XXX'.rX2XR.j.| O.$.w.6.6.6.6.6.6.6.6.6.6.7.7.6.6.6.6.6.6.6.6.6.6.6.6.6.6.6.6.6.6.6.6.6.6.6.6.6.6.6.6.6.6.6.6.6.6.6.6.6.6.6.6.6.6.6.6.6.6.6.6.6.6.6.6.6.6.6.6.6.6.6.6.6.6.6.6.6.6.6.6.6.6.6.6.6.6.6.6.6.6.6.6.6.6.6.6.6.6.6.6.6.6.6.6.6.6.6.6.6.6.6.:.:.:.6.6.:.D.L.K.S.F.H.H.H.G.G.F.G.H.H.F.C.A.V.V.V.A.A.A.n.m.A.A.F.H.J.L.F.F.F.H.J.J.F.G.F.S..X4X1X'.*X_.oXoX+XoXXX*X].].*XXXoXoXoXoX*X'.'.[.2XHXxXD * = y 1 1 1 1 1 1 1 1 1 IXIXIXIXIXIXIXIXIXIXIXIXIXIXIXIXIXIXIXIXIXIXIXIXIXIXIXIXIXIXIXIXIXIXIX",
"IXIXIXIXIXIXIXIXIXIXIXIXIXIXIXIXIXIXIXIXIXIXIXIXIXIXIXIXIXIXIXIXIXIXIX! 1 g k 1 1 g 1 1 h y = $ H zXFX].'.oX'.<XoXoXoXoXoXoXoXoXoXoXoXoXoXoXoXoXoXoXoXoXoXoXoXoXoXoXoXoXoXoXoXoXoXoXoXoXoXoXoXXX<X|.XXXX].2X~.k.| O.+.:.7.6.6.:.6.6.6.6.6.6.6.6.6.6.6.6.6.$.6.$.X.y.E.6X6XoXoX'.].].XX<XXX].oXoXoXoXoXoXoXoXoXoXoXoXoXoXoXoXoXoXoXoXoXoXoXoXoXoXoXoXoXoXoXoXoXoXoXoXoXoXoXoXoXoXoXoXoXoXoXoXoX].'.[.+X6X6XQ.x.( :.:.6.$.&.&.6.6.$.O.;.x. XuX<X'.XXOXXXXXoXoX<X<XXXXXoXoXoXoXoXXXXX<XXX'.rX2XR.j.| O.$.w.6.6.6.6.6.6.6.6.6.6.7.7.6.6.6.6.6.6.6.6.6.6.6.6.6.6.6.6.6.6.6.6.6.6.6.6.6.6.6.6.6.6.6.6.6.6.6.6.6.6.6.6.6.6.6.6.6.6.6.6.6.6.6.6.6.6.6.6.6.6.6.6.6.6.6.6.6.6.6.6.6.6.6.6.6.6.6.6.6.6.6.6.6.6.6.6.6.6.6.6.6.6.6.6.6.6.6.6.6.$.6.:.:.:.:.>.<.H.mXMX&X.X|.,X3X|._.XXMXNXR.v.,.,.>.0.7.>.:...6.:.,.2.F.mXBX|.,X,X<X<XoXXX,X,X:X/.XX4XXX'.<X_.oX+X+XoXoX'.*X*X*X'.oXoXoXoX'.'.XX`.2XHXxXD * = p 4 1 y 1 1 1 1 1 1 IXIXIXIXIXIXIXIXIXIXIXIXIXIXIXIXIXIXIXIXIXIXIXIXIXIXIXIXIXIXIXIXIXIXIX",
"IXIXIXIXIXIXIXIXIXIXIXIXIXIXIXIXIXIXIXIXIXIXIXIXIXIXIXIXIXIXIXIXIXIXIX! 1 g k 1 1 g 1 1 h y = $ H zXFX].'.oX'.<XoXoXoXoXoXoXoXoXoXoXoXoXoXoXoXoXoXoXoXoXoXoXoXoXoXoXoXoXoXoXoXoXoXoXoXoXoXoXoXXX<X|.XX'.=X2X~.k.| O.+.:.7.6.6.:.6.6.6.6.6.6.6.6.6.6.6.6.6.$.$.$.X.y.E.6X6XoXoX'.].].XX<XXX].oXoXoXoXoXoXoXoXoXoXoXoXoXoXoXoXoXoXoXoXoXoXoXoXoXoXoXoXoXoXoXoXoXoXoXoXoXoXoXoXoXoXoXoXoXoXoXoXoX].'.[.+X4X6XQ.x.( :.:.6.&.$.&.6.6.%.O.;.x. XuX<X'.XXOXXXXXoXoX<X<XXXXXoXoXoXoXoXXXXX<XXX'.rX2XR.j.| O.$.w.6.6.6.6.6.6.6.6.6.6.7.7.6.6.6.6.6.6.6.6.6.6.6.6.6.6.6.6.6.6.6.6.6.6.6.6.6.6.6.6.6.6.6.6.6.6.6.6.6.6.6.6.6.6.6.6.6.6.6.6.6.6.6.6.6.6.6.6.6.6.6.6.6.6.6.6.6.6.6.6.6.6.6.6.6.6.6.6.6.6.6.6.6.6.6.6.6.6.6.6.6.6.6.6.6.6.6.6.$.$.6.6.:.:.:.,.2.K.DXGXiX2XuXuXAXyX].rXFXFXE.f.( [ / X.O.X.[ [ =.X.^ ( A.BXSXoXuX2XtXiXiXiXyX6XMX,XXX4X'.`.<X|.oX+X+XoXoX'.*X*X*X'.oXoXoXoX'.'.XX`.2XHXxXD * = p 1 1 1 1 1 1 1 1 1 IXIXIXIXIXIXIXIXIXIXIXIXIXIXIXIXIXIXIXIXIXIXIXIXIXIXIXIXIXIXIXIXIXIXIX",
"IXIXIXIXIXIXIXIXIXIXIXIXIXIXIXIXIXIXIXIXIXIXIXIXIXIXIXIXIXIXIXIXIXIXIXW < 1 g 1 1 g 1 1 g < = $ H zXHX=XXXoX'.=XoXoXoXoXoXoXoXoXoXoXoXoXoXoXoXoXoXoXoXoXoXoXoXoXoXoXoXoXoXoXoXoXoXoXoXoXoXoXoXXX<X_.'.'.=X6X~.k.| O.+.:.7.6.6.+.6.6.6.6.6.6.6.6.6.6.$.6.6.6.6.6./ 1.T.6X6XoXoX'.].].XX<XXX].oXoXoXoXoXoXoXoXoXoXoXoXoXoXoXoXoXoXoXoXoXoXoXoXoXoXoXoXoXoXoXoXoXoXoXoXoXoXoXoXoXoXoXoXoXoXoXoXoX].<X[.+X4X6XQ.x.| ;.:.6.&.$.$.$.6.$.| ;.x./.uX2X[.<XOXXXXXoXoX<X<XoXoXoXoXoXoXoXXXXX<XXX'.rX2XR.j.| O.$.w.6.6.6.6.6.6.6.6.6.6.6.7.6.6.6.6.6.6.6.6.6.6.6.6.6.6.6.6.6.6.6.6.6.6.6.6.6.6.6.6.6.6.6.6.6.6.6.6.6.6.6.6.6.6.6.6.6.6.6.6.6.6.6.6.6.6.6.6.6.6.6.6.6.6.6.6.6.6.6.6.6.6.6.6.6.6.6.6.6.6.6.6.6.6.6.6.6.6.6.6.6.6.6.6.6.6.6.6.6.6.6.6.:.:...-.2.G.5XtX[.-X=X'.&X<X'.[.rXuXE.g.| O.$.9.9.6.:.:.*.%.} ,.A.,XuX-X&X&X[.[.].].XXXX<XXXoXoXXX<X<X<XoX+X+X+XoX'.*X*X*X'.oXoXoXoX'.'.'.[.=XFXxXD & = y 1 y y p 1 1 1 1 1 IXIXIXIXIXIXIXIXIXIXIXIXIXIXIXIXIXIXIXIXIXIXIXIXIXIXIXIXIXIXIXIXIXIXIX",
"IXIXIXIXIXIXIXIXIXIXIXIXIXIXIXIXIXIXIXIXIXIXIXIXIXIXIXIXIXIXIXIXIXIXIXW < 1 g 1 1 g 1 1 g < = $ H zXHX=XXXoX[.=XoXoXoXoXoXoXoXoXoXoXoXoXoXoXoXoXoXoXoXoXoXoXoXoXoXoXoXoXoXoXoXoXoXoXoXoXoXoXoXXX<X_.'.'.=X6X~.k.| O.+.:.7.6.6.+.6.6.6.6.6.6.6.6.6.6.$.$.6.6.6.6./ 1.T.6X6XoXoX'.].].XX<XXX].oXoXoXoXoXoXoXoXoXoXoXoXoXoXoXoXoXoXoXoXoXoXoXoXoXoXoXoXoXoXoXoXoXoXoXoXoXoXoXoXoXoXoXoXoXoXoXoXoX].<X[.+X4X6XQ.x.| ;.:.6.w.$.$.6.6.$.| ;.x./.uX2X[.<XOXXXXXoXoX<X<XoXoXoXXXoXoXoXXXXX<XXX'.rX6XR.j.| O.$.w.6.6.6.6.6.6.6.6.6.6.6.7.6.6.6.6.6.6.6.6.6.6.6.6.6.6.6.6.6.6.6.6.6.6.6.6.6.6.6.6.6.6.6.6.6.6.6.6.6.6.6.6.6.6.6.6.6.6.6.6.6.6.6.6.6.6.6.6.6.6.6.6.6.6.6.6.6.6.6.6.6.6.6.6.6.6.6.6.6.6.6.6.6.6.6.6.6.6.6.6.6.6.6.6.6.6.6.6.6.6.6.6.6.:.+.| 2.G.5XtX[.[.<X<X<X<X&X'.rX6XE.g.| O.$.9.0.7.,.:.w.%.} ,.A.,XuX-X&X&X&X'.].].XXXXXXXXoXoXXX<X<X<XoXoX+XoX].'.*X*X*X'.oXoXoXoXXXXX'.`.=XFXxXD & = y 1 y y 4 1 1 1 1 1 IXIXIXIXIXIXIXIXIXIXIXIXIXIXIXIXIXIXIXIXIXIXIXIXIXIXIXIXIXIXIXIXIXIXIX",
"IXIXIXIXIXIXIXIXIXIXIXIXIXIXIXIXIXIXIXIXIXIXIXIXIXIXIXIXIXIXIXIXIXIXIXW < 1 g 1 1 e 1 1 g < = $ H zXHX=XXXoX[.=XoXoXoXoXoXoXoXoXoXoXoXoXoXoXoXoXoXoXoXoXoXoXoXoXoXoXoXoXoXoXoXoXoXoXoXoXoXoXoXXX<X_.'.'.=X6X~.k.| O.+.:.7.6.6.+.6.6.6.6.6.6.6.6.6.6.6.$.$.6.6.6./ 1.T.6X6XoXoX'.].].XX<XXX].oXoXoXoXoXoXoXoXoXoXoXoXoXoXoXoXoXoXoXoXoXoXoXoXoXoXoXoXoXoXoXoXoXoXoXoXoXoXoXoXoXoXoXoXoXoXoXoXoX].oX[.+X4X6XQ.x.| ;.:.6.w.$.+.6.6.$.| ;.x./.uX2X[.<XOXXXXXoXoX<X<XoXoXXXXXoXoXoXXXXX<XXX'.rX6XR.j.| O.$.w.6.6.6.6.6.6.6.6.:.:.7.7.6.6.6.6.6.6.6.6.6.6.6.6.6.6.6.6.6.6.6.6.6.6.6.6.6.6.6.6.6.6.6.6.6.6.6.6.6.6.6.6.6.6.6.6.6.6.6.6.6.6.6.6.6.6.6.6.6.6.6.6.6.6.6.6.6.6.6.6.6.6.6.6.6.6.6.6.6.6.6.6.6.6.6.6.6.6.6.6.6.6.6.6.6.6.6.6.6.6.6.7.6.6.+.| ,.G.5XyX'.XX3XOXXXXXXX'.yX6XW.j.} O.6.7.0.7.+.+.w.+.} ,.A.>XuX=X&X&X|.XX+XXXXXXXoXoXoXoXXXXX<X<XoXoX+XoX].'.*X*X*XXXoXoXoXoXXXXXXX`.2XFXxXD & = y 0 0 y 0 0 1 1 1 1 IXIXIXIXIXIXIXIXIXIXIXIXIXIXIXIXIXIXIXIXIXIXIXIXIXIXIXIXIXIXIXIXIXIXIX",
"IXIXIXIXIXIXIXIXIXIXIXIXIXIXIXIXIXIXIXIXIXIXIXIXIXIXIXIXIXIXIXIXIXIXIXW < 1 g 1 1 e 1 1 g < = $ H zXHX=XXXoX[.=XoXoXoXoXoXoXoXoXoXoXoXoXoXoXoXoXoXoXoXoXoXoXoXoXoXoXoXoXoXoXoXoXoXoXoXoXoXoXoXXX<X_.'.'.=X6X~.k.| O.+.:.7.6.6.+.6.6.6.6.6.6.6.6.6.6.6.$.$.6.6.6./ 1.T.6X4XoXoX'.].].XXXXXX].oXoXoXoXoXoXoXoXoXoXoXoXoXoXoXoXoXoXoXoXoXoXoXoXoXoXoXoXoXoXoXoXoXoXoXoXoXoXoXoXoXoXoXoXoXoXoXoXoX].oX[.+X4X6XQ.x.| ;.:.6.6.$.+.6.6.@.} ;.x./.uX2X[.<XOXXXXXoXoX<X<XXXoXXXXXoXoXoXXXXX<XXX'.rX6XR.j.| O.$.w.6.6.6.6.6.6.:.:.:.:.7.7.6.6.6.6.6.6.6.6.6.6.6.6.6.6.6.6.6.6.6.6.6.6.6.6.6.6.6.6.6.6.6.6.6.6.6.6.6.6.6.6.6.6.6.6.6.6.6.6.6.6.6.6.6.6.6.6.6.6.6.6.6.6.6.6.6.6.6.6.6.6.6.6.6.6.6.6.6.6.6.6.6.6.6.6.6.6.6.6.6.6.6.6.6.6.6.6.6.:.:.7.6.6.%.o.,.H.NXyX+XXXOXOX+XoXXX_.yX6XR.j.X.O.6.6.7.6.+.@.w.+.} ;.A.mXCXoXXX|.|.OXXXXXXX'.oXoXoXXXXXXXXXXXoXoXoXoX].].'.'.*XXXoX+XoXoXXXXXXX`.2XFXxXD & = y 0 0 d 0 0 0 1 1 1 IXIXIXIXIXIXIXIXIXIXIXIXIXIXIXIXIXIXIXIXIXIXIXIXIXIXIXIXIXIXIXIXIXIXIX",
"IXIXIXIXIXIXIXIXIXIXIXIXIXIXIXIXIXIXIXIXIXIXIXIXIXIXIXIXIXIXIXIXIXIXIXW 1 1 g 1 1 g 1 4 g < = $ H zXHX=XXXoX[.=XoXoXoXoXoXoXoXoXoXoXoXoXoXoXoXoXoXoXoXoXoXoXoXoXoXoXoXoXoXoXoXoXoXoXoXoXoXoXoXXX<X|.'.'.1X6X~.k.| +.+.:.7.6.6.+.6.6.6.6.6.6.6.6.6.6.$.6.$.$.$.$./ 1.T.6X4XoXoX'.].].XXXXXX].oXoXoXoXoXoXoXoXoXoXoXoXoXoXoXoXoXoXoXoXoXoXoXoXoXoXoXoXoXoXoXoXoXoXoXoXoXoXoXoXoXoXoXoXoXoXoXoXoX].oX[.+X4X6XQ.x.| ;.:.6.w.$.+.6.w.@. .;.x./.uX2X[.<XXXXXXXoXoX<X<XXXXXXXXXoXoXoXXXXX<XXX'.rX6XR.j.| O.$.w.6.6.6.6.6.6.6.6.:.:.:.7.6.6.6.6.6.6.6.6.6.6.6.6.6.6.6.6.6.6.6.6.6.6.6.6.6.6.6.6.6.6.6.6.6.6.6.6.6.6.6.6.6.6.6.6.6.6.6.6.6.6.6.6.6.6.6.6.6.6.6.6.6.6.6.6.6.6.6.6.6.6.6.6.6.6.6.6.6.6.6.6.6.6.6.6.6.6.6.6.6.6.6.6.6.6.6.6.6.:.:.6.6.6.%.o.2.H.NXZX+X+X+X+X+XoX&X&X2X6XR.j.o.O.6.6.0.6.+.&.w.$.X.;.V.mXCXoX+XOXOXXXXX'.&X*X<XXXXXXXXXXXXXXXoXoXoX].oXoXoXXX*XXXoX+XoXoX].'.XX[.2XFXxXD & = y y p y 0 p 4 4 1 1 IXIXIXIXIXIXIXIXIXIXIXIXIXIXIXIXIXIXIXIXIXIXIXIXIXIXIXIXIXIXIXIXIXIXIX",
"IXIXIXIXIXIXIXIXIXIXIXIXIXIXIXIXIXIXIXIXIXIXIXIXIXIXIXIXIXIXIXIXIXIXIXW 1 1 g 1 1 g 1 4 g < = $ H zXHX=XXXoX'.=XoXoXoXoXoXoXoXoXoXoXoXoXoXoXoXoXoXoXoXoXoXoXoXoXoXoXoXoXoXoXoXoXoXoXoXoXoXoXoXXX<X_.'.'.1X6X~.k.| O.+.:.7.7.6.+.6.6.6.6.6.6.6.6.6.6.$.6.$.$.6.6./ q.T.6X4XoXoX'.].].XXXXXX].oXoXoXoXoXoXoXoXoXoXoXoXoXoXoXoXoXoXoXoXoXoXoXoXoXoXoXoXoXoXoXoXoXoXoXoXoXoXoXoXoXoXoXoXoXoXoXoXoX].'.[.+X4X6XQ.x.| ;.:.6.w.$.+.6.w.@. .;.x./.uX2X[.<XXXXXXXoXoX<X<XXXXXXXXXoXoXoXXXXX<XXX'.rX6XR.j.| O.$.w.6.6.6.6.6.6.6.6.:.:.6.7.6.6.6.6.6.6.6.6.6.6.6.6.6.6.6.6.6.6.6.6.6.6.6.6.6.6.6.6.6.6.6.6.6.6.6.6.6.6.6.6.6.6.6.6.6.6.6.6.6.6.6.6.6.6.6.6.6.6.6.6.6.6.6.6.6.6.6.6.6.6.6.6.6.6.6.6.6.6.6.6.6.6.6.6.6.6.6.6.6.6.6.6.6.6.6.6.:.+.:.7.6.6.%.| 2.G.NXiXoX+X+X+XoX].&X&X2X6XR.j.| O.:.6.6.6.$.6.w.$.X.>.V.>XuX].oX+X+XXX<X&X&X*X*XXX<X<XXXXXoXoXoXoXoXoXoXoXoXoX*XoXoXoXoXoX'.'.XX[.2XFXxXD & = y p p d y p 1 1 1 1 IXIXIXIXIXIXIXIXIXIXIXIXIXIXIXIXIXIXIXIXIXIXIXIXIXIXIXIXIXIXIXIXIXIXIX",
"IXIXIXIXIXIXIXIXIXIXIXIXIXIXIXIXIXIXIXIXIXIXIXIXIXIXIXIXIXIXIXIXIXIXIXW < 1 g 1 1 g 1 4 g < = $ H zXHX=XXXoX'.<XoXoXoXoXoXoXoXoXoXoXoXoXoXoXoXoXoXoXoXoXoXoXoXoXoXoXoXoXoXoXoXoXoXoXoXoXoXoXoXXX<X_.'.'.1X6X~.k.| O.+.:.7.6.6.+.6.6.6.6.6.6.6.6.6.6.6.6.6.6.6.6./ q.T.6X4XoXoX'.].].XXXXXX].oXoXoXoXoXoXoXoXoXoXoXoXoXoXoXoXoXoXoXoXoXoXoXoXoXoXoXoXoXoXoXoXoXoXoXoXoXoXoXoXoXoXoXoXoXoXoXoXoX].<X[.+X4X6XQ.x.| ;.:.6.w.$.+.6.w.@. .;.x./.uX2X[.<XOXXXXXoXoX<X<XXXXXXXXXoXoXXXXXXX<XXX'.rX2XR.j.| O.$.w.6.6.6.6.6.6.6.6.:.:.6.6.6.6.6.6.6.6.6.6.6.6.6.6.6.6.6.6.6.6.6.6.6.6.6.6.6.6.6.6.6.6.6.6.6.6.6.6.6.6.6.6.6.6.6.6.6.6.6.6.6.6.6.6.6.6.6.6.6.6.6.6.6.6.6.6.6.6.6.6.6.6.6.6.6.6.6.6.6.6.6.6.6.6.6.6.6.6.6.6.6.6.6.6.6.6.6.6.:.+.:.7.6.6.+.| 2.G.6XiX].].<XXXXXXX&X&XtX6XE.k.| O.+.:.6.6.:.6.w.+.X.;.A.:XtX[.[.'.+X+X'.'.'.'.<X<X<X<XXXOXoXoXoX].].XXoXoXoXoX].XXoXoXoXoX'.'.XX[.2XFXxXD & = y 1 0 0 1 1 1 1 1 1 IXIXIXIXIXIXIXIXIXIXIXIXIXIXIXIXIXIXIXIXIXIXIXIXIXIXIXIXIXIXIXIXIXIXIX",
"IXIXIXIXIXIXIXIXIXIXIXIXIXIXIXIXIXIXIXIXIXIXIXIXIXIXIXIXIXIXIXIXIXIXIXW < 1 g 1 1 g 1 g g < = $ H zXHX=XXXoX'.<XoXoXoXoXoXoXoXoXoXoXoXoXoXoXoXoXoXoXoXoXoXoXoXoXoXoXoXoXoXoXoXoXoXoXoXoXoXoXoXXX<X'.'.'.1X6X~.k.| O.+.:.7.6.6.+.6.6.6.6.6.6.6.6.6.6.6.6.6.6.6.6./ q.T.6X4XoXoX'.].].oXXXXX].oXoXoXoXoXoXoXoXoXoXoXoXoXoXoXoXoXoXoXoXoXoXoXoXoXoXoXoXoXoXoXoXoXoXoXoXoXoXoXoXoXoXoXoXoXoXoXoXoX].<X[.+X4X6XQ.x.| ;.:.6.w.$.+.6.w.$.| ;.x.Q.uX2X[.XXOX<XXXoXXXXXXXXXoXXXXXoXoXoXXXXX<XXX'.rX2XR.k.| O.$.w.6.6.6.6.6.6.6.6.:.:.6.7.6.6.6.6.6.6.6.6.6.6.6.6.6.6.6.6.6.6.6.6.6.6.6.6.6.6.6.6.6.6.6.6.6.6.6.6.6.6.6.6.6.6.6.6.6.6.6.6.6.6.6.6.6.6.6.6.6.6.6.6.6.6.6.6.6.6.6.6.6.6.6.6.6.6.6.6.6.6.6.6.6.6.6.6.6.6.6.6.6.6.6.6.6.6.6.6.6.6.6.6.6.6.+.| 2.G.5XrX].].<XXX'.'.&X_.yX6XE.k.| O.@.3.$.$.6.6.&.+.} ,.A.;XtX-X[.].].].'.'.'.'.XXXX<X<X<XXX+XoXoX].=XXXoXoXoXoXoXXXoXoXoXoX'.'.XX[.=XFXxXD & - y 1 0 0 1 1 1 1 1 1 IXIXIXIXIXIXIXIXIXIXIXIXIXIXIXIXIXIXIXIXIXIXIXIXIXIXIXIXIXIXIXIXIXIXIX",
"IXIXIXIXIXIXIXIXIXIXIXIXIXIXIXIXIXIXIXIXIXIXIXIXIXIXIXIXIXIXIXIXIXIXIXW 1 y g 1 1 g 1 1 g < = $ H zXFX].'.oX[.].oXoXoXoXoXoXoXoXoXoXoXoXoXoXoXoXoXoXoXoXoXoXoXoXoXoXoXoXoXoXoXoXoXoXoXoXoXoXoXXXXXXXXX].].4X~.k.| O.+.:.6.6.6.:.6.6.6.6.6.6.6.6.6.6.6.6.$.$.$.$.} q.T.6X4XoXXX'.].].XXXXXX].oXoXoXoXoXoXoXoXoXoXoXoXoXoXoXoXoXoXoXoXoXoXoXoXoXoXoXoXoXoXoXoXoXoXoXoXoXoXoXoXoXoXoXoXoXoXoXoXoX].'.[.+X6X6XQ.x.( :.:.:.$.$.$.6.6.$.O.-.x. XuX<X'.oXXX<X<XOXOXXXXXoXoXXXXXoXoXXXXXoX'.XXXX=X2X^.k.| O.$.w.6.6.6.6.6.6.6.6.6.6.7.6.6.6.6.6.6.6.6.6.6.6.6.6.6.6.6.6.6.6.6.6.6.6.6.6.6.6.6.6.6.6.6.6.6.6.6.6.6.6.6.6.6.6.6.6.6.6.6.6.6.6.6.6.6.6.6.6.6.6.6.6.6.6.6.6.6.6.6.6.6.6.6.6.6.6.6.6.6.6.6.6.6.6.6.6.6.6.6.6.6.6.6.6.6.6.6.6.6.$.$.$.$.6.:.2.] J.BXFXiXrXrXrXrXrX=X1XGXHX~.2./ [ [ X.X.%.%.%.=.{ ^ ` A.BXAX0X0X0XqXqXqX0X1X1XDXCX1X[.`._.XX4XoX].].*XXXoXoXoXoXXXoXoXoXoX=XXXXX_.-XGXxXD & - y 1 1 1 0 0 1 1 1 0 IXIXIXIXIXIXIXIXIXIXIXIXIXIXIXIXIXIXIXIXIXIXIXIXIXIXIXIXIXIXIXIXIXIXIX",
"IXIXIXIXIXIXIXIXIXIXIXIXIXIXIXIXIXIXIXIXIXIXIXIXIXIXIXIXIXIXIXIXIXIXIXW 1 y g 1 1 g 1 1 g < = $ H zXFX].'.oX[.].oXoXoXoXoXoXoXoXoXoXoXoXoXoXoXoXoXoXoXoXoXoXoXoXoXoXoXoXoXoXoXoXoXoXoXoXoXoXoXXXXXXXXX].0X4X~.k.| O.+.:.6.6.6.:.6.6.6.6.6.6.6.6.6.6.6.6.$.6.$.$.} q.T.6X4XoXXX'.].].XX<XXX].oXoXoXoXoXoXoXoXoXoXoXoXoXoXoXoXoXoXoXoXoXoXoXoXoXoXoXoXoXoXoXoXoXoXoXoXoXoXoXoXoXoXoXoXoXoXoXoXoX].'.[.+X6X6XQ.x.( :.:.:.$.$.$.6.6.$.O.-.x. XCX<XoXoXXX<X<XOXOXXXXXoXoXXXXXoXXXXXXXoX'.XX<X=X7X~.k.| O.$.6.6.6.6.6.6.6.6.6.6.6.7.7.6.6.6.6.6.6.6.6.6.6.6.6.6.6.6.6.6.6.6.6.6.6.6.6.6.6.6.6.6.6.6.6.6.6.6.6.6.6.6.6.6.6.6.6.6.6.6.6.6.6.6.6.6.6.6.6.6.6.6.6.6.6.6.6.6.6.6.6.6.6.6.6.6.6.6.6.6.6.6.6.6.6.6.6.6.6.6.6.6.6.6.6.6.6.6.6.6.6.$.%.%.$.:.2.f.K.BXBXMX4X4X4X2X6X1X<XCXBX^.g.( / / / } | | } [ } ( 2.F.mXSXCX2X2X2XtXrXyX5XmXMX6X1X*X&X&X|.+XoX].].*XXXXXoXoXXXXXoXoXoXoX=XXXXX_.-XGXxXD & - y 1 1 1 y 0 1 1 1 0 IXIXIXIXIXIXIXIXIXIXIXIXIXIXIXIXIXIXIXIXIXIXIXIXIXIXIXIXIXIXIXIXIXIXIX",
"IXIXIXIXIXIXIXIXIXIXIXIXIXIXIXIXIXIXIXIXIXIXIXIXIXIXIXIXIXIXIXIXIXIXIXW 1 y g 1 1 g 1 1 g < = $ H zXFX].'.oX[.].oXoXoXoXoXoXoXoXoXoXoXoXoXoXoXoXoXoXoXoXoXoXoXoXoXoXoXoXoXoXoXoXoXoXoXoXoXoXoXXXXXXXXX].0X4X~.k.| O.+.:.6.6.6.:.6.6.6.6.6.6.6.6.6.6.6.6.6.6.$.$.| q.T.6X4XoXXX'.].].XX<XXX].oXoXoXoXoXoXoXoXoXoXoXoXoXoXoXoXoXoXoXoXoXoXoXoXoXoXoXoXoXoXoXoXoXoXoXoXoXoXoXoXoXoXoXoXoXoXoXoXoX].'.[.+X6X6XQ.x.( :.:.6.$.$.$.6.6.$.O.-.x. XCX<XXXoXXX<X<XOXOXXXXXoXoXXXXXoXXXXXXXoX'.XX<X=X7X~.k.| O.$.6.6.6.6.6.6.6.6.6.6.6.7.7.6.6.6.6.6.6.6.6.6.6.6.6.6.6.6.6.6.6.6.6.6.6.6.6.6.6.6.6.6.6.6.6.6.6.6.6.6.6.6.6.6.6.6.6.6.6.6.6.6.6.6.6.6.6.6.6.6.6.6.6.6.6.6.6.6.6.6.6.6.6.6.6.6.6.6.6.6.6.6.6.6.6.6.6.6.6.6.6.6.6.6.6.6.6.6.6.6.6.$.%.&.&.:.,.5.F.%X%X~.W.R.R.~.~.E.Y.E.~.K.c.g.g.j.j.k.g.g.j.5.j.z.v.A.R.$X$X~.~.~.~.(.(.~.~.E.!._.*X<X<XXXXXoX].].].oXXXoXoXXXXXoXoXoXoX'.XXXX_.-XGXxXD & - y 1 y y y p 4 1 1 1 IXIXIXIXIXIXIXIXIXIXIXIXIXIXIXIXIXIXIXIXIXIXIXIXIXIXIXIXIXIXIXIXIXIXIX",
"IXIXIXIXIXIXIXIXIXIXIXIXIXIXIXIXIXIXIXIXIXIXIXIXIXIXIXIXIXIXIXIXIXIXIXW 1 y g 1 1 g 1 1 g < = $ H zXFX].'.oX[.].oXoXoXoXoXoXoXoXoXoXoXoXoXoXoXoXoXoXoXoXoXoXoXoXoXoXoXoXoXoXoXoXoXoXoXoXoXoXoXXXXXXXXX].0X4X~.k.| O.+.:.6.6.6.:.6.6.6.6.6.6.6.6.6.6.6.6.6.6.6.6.| y.T.6X4XoXXX'.].].XXXXXX].oXoXoXoXoXoXoXoXoXoXoXoXoXoXoXoXoXoXoXoXoXoXoXoXoXoXoXoXoXoXoXoXoXoXoXoXoXoXoXoXoXoXoXoXoXoXoXoXoX].'.[.+X6X6XQ.x.( :.:.6.$.$.$.6.6.$.O.-.x. XCX<XXXoXXX<X<XOXOXXXXXoXoXXXXXoXXXXXXXoX'.XX<X=X2X~.k.| O.$.6.6.6.6.6.6.6.6.6.6.6.7.7.6.6.6.6.6.6.6.6.6.6.6.6.6.6.6.6.6.6.6.6.6.6.6.6.6.6.6.6.6.6.6.6.6.6.6.6.6.6.6.6.6.6.6.6.6.6.6.6.6.6.6.6.6.6.6.6.6.6.6.6.6.6.6.6.6.6.6.6.6.6.6.6.6.6.6.6.6.6.6.6.6.6.6.6.6.6.6.6.6.6.6.6.6.6.6.6.:.6.$.&.&.&.+.:.-.5.l.k.g.g.g.g.g.k.k.f.f.z.F.H.~.~.(.(.~.~.~.~.K.%X$XR.A.g.k.k.j.j.j.k.k.k.j.j.f.m.T._.3X<XOX+XoX].].].oXoXXXXXXXXXoXoXoXoX'.XXXX_.-XGXxXD & - p 4 4 y y p 1 1 1 g IXIXIXIXIXIXIXIXIXIXIXIXIXIXIXIXIXIXIXIXIXIXIXIXIXIXIXIXIXIXIXIXIXIXIX",
"IXIXIXIXIXIXIXIXIXIXIXIXIXIXIXIXIXIXIXIXIXIXIXIXIXIXIXIXIXIXIXIXIXIXIXW 1 y g 1 e g 1 1 h y = $ H zXFX].XXoX[.'.oXoXoXoXoXoXoXoXoXoXoXoXoXoXoXoXoXoXoXoXoXoXoXoXoXoXoXoXoXoXoXoXoXoXoXoXoXoXoXXXXXXXXX].0X4X~.k.| O.+.:.6.6.6.:.6.6.6.6.6.6.6.6.6.6.6.6.6.6.6.6.} q.T.6X4XoXXX'.].].oX<XXX].oXoXoXoXoXoXoXoXoXoXoXoXoXoXoXoXoXoXoXoXoXoXoXoXoXoXoXoXoXoXoXoXoXoXoXoXoXoXoXoXoXoXoXoXoXoXoXoXoX].'.[.+X6X6XQ.x.( :.:.:.$.$.&.6.6.$.O.-.x. XCX<XoXoXXX<X<XOXOXXXXXoXoXXXXXoXXXoXoXoX'.XX<X=X2X~.k.| O.$.w.6.6.6.6.6.6.6.6.6.6.7.7.6.6.6.6.6.6.6.6.6.6.6.6.6.6.6.6.6.6.6.6.6.6.6.6.6.6.6.6.6.6.6.6.6.6.6.6.6.6.6.6.6.6.6.6.6.6.6.6.6.6.6.6.6.6.6.6.6.6.6.6.6.6.6.6.6.6.6.6.6.6.6.6.6.6.6.6.6.6.6.6.6.6.6.6.6.6.6.6.6.6.6.6.6.6.6.:.:.:.6.$.&.&.&.$.} | | | ( | | | }  . ./ ^ ` x.^.BXJXZXZXZXZXCXCX<XDXHXmXF.2.) ( } } / / / / } / ) f.S..X3X3XOX+XoX].].].oXoX<X<X<XXXoXoXoXoX'.XXXX_.-XGXxXD & - y 1 0 d d d 1 0 1 g IXIXIXIXIXIXIXIXIXIXIXIXIXIXIXIXIXIXIXIXIXIXIXIXIXIXIXIXIXIXIXIXIXIXIX",
"IXIXIXIXIXIXIXIXIXIXIXIXIXIXIXIXIXIXIXIXIXIXIXIXIXIXIXIXIXIXIXIXIXIXIXW 1 y g 1 1 g 1 1 g y = $ H zXFX].XXoX[.'.oXoXoXoXoXoXoXoXoXoXoXoXoXoXoXoXoXoXoXoXoXoXoXoXoXoXoXoXoXoXoXoXoXoXoXoXoXoXoXXXXXXXXX].0X4X~.k.| O.+.:.6.6.6.:.6.6.6.6.6.6.6.6.6.6.6.6.6.6.6.6.} q.T.6X4XoXXX'.].].XX<XXX].oXoXoXoXoXoXoXoXoXoXoXoXoXoXoXoXoXoXoXoXoXoXoXoXoXoXoXoXoXoXoXoXoXoXoXoXoXoXoXoXoXoXoXoXoXoXoXoXoX].'.[.+X6X6XQ.x.( :.:.:.$.$.$.6.6.$.+.-.x. XCX<XoXoXXX<X<XOXOXXXXXoXoXoXXXoXXXXXoXoX'.XX<X=X2X~.k.| O.$.w.6.6.6.6.6.6.6.6.6.6.7.7.6.6.6.6.6.6.6.6.6.6.6.6.6.6.6.6.6.6.6.6.6.6.6.6.6.6.6.6.6.6.6.6.6.6.6.6.6.6.6.6.6.6.6.6.6.6.6.6.6.6.6.6.6.6.6.6.6.6.6.6.6.6.6.6.6.6.6.6.6.6.6.6.6.6.6.6.6.6.6.6.6.6.6.6.6.6.6.6.6.6.6.6.6.6.6.:.:.:.:.$.%.&.&.%.$.+.o.| | O.O.O.#.=.=.{ ^ / x.(.MXZXiXiXiXrXeXrX[.rXFXNXF.,.) X.X.%.X.X.%.%.=.O.^ 5.J.,X3X+X+X+XoX].].].oXoX<X<X<XXXoXoXoXoX'.XXXX_.-XGXxXD & - y 1 0 0 d 1 1 0 1 g IXIXIXIXIXIXIXIXIXIXIXIXIXIXIXIXIXIXIXIXIXIXIXIXIXIXIXIXIXIXIXIXIXIXIX",
"IXIXIXIXIXIXIXIXIXIXIXIXIXIXIXIXIXIXIXIXIXIXIXIXIXIXIXIXIXIXIXIXIXIXIXW 1 y g 1 1 g 1 1 g < = $ H zXFX].'.oX[.].oXoXoXoXoXoXoXoXoXoXoXoXoXoXoXoXoXoXoXoXoXoXoXoXoXoXoXoXoXoXoXoXoXoXoXoXoXoXoXXXXXXXXX].0X4X~.k.| O.+.:.6.6.6.:.6.6.6.6.6.6.6.6.6.6.6.6.$.$.6.6.} q.T.6X4XoXXX'.].].XX<XXX].oXoXoXoXoXoXoXoXoXoXoXoXoXoXoXoXoXoXoXoXoXoXoXoXoXoXoXoXoXoXoXoXoXoXoXoXoXoXoXoXoXoXoXoXoXoXoXoXoX].'.[.+X6X6XQ.x.( :.:.:.$.$.&.6.6.$.O.-.x. XCX<XXXoXXX<X<XOXOXXXXXoXoXXXXXoXXXXXXXoX'.XX'.=X2X~.k.| O.$.w.6.6.6.6.6.6.:.:.6.6.7.7.6.6.6.6.6.6.6.6.6.6.6.6.6.6.6.6.6.6.6.6.6.6.6.6.6.6.6.6.6.6.6.6.6.6.6.6.6.6.6.6.6.6.6.6.6.6.6.6.6.6.6.6.6.6.6.6.6.6.6.6.6.6.6.6.6.6.6.6.6.6.6.6.6.6.6.6.6.6.6.6.6.6.6.6.6.6.6.6.6.6.6.6.6.6.6.:.:.:.:.$.$.&.$.$.t.w.6.6.w.w.w.6.w.$.$.t.O.( z.(.OXwX0X[.].'.XX'.[.].yX3XF.,.} $.*.t.9.6.t.&.&.@.[ u.R.>X4XoX+X+XoX].].].oXoXXX<X<XXXoXoXoXoX'.XXXX_.-XGXxXD & - y 1 4 4 y y 1 1 1 g IXIXIXIXIXIXIXIXIXIXIXIXIXIXIXIXIXIXIXIXIXIXIXIXIXIXIXIXIXIXIXIXIXIXIX",
"IXIXIXIXIXIXIXIXIXIXIXIXIXIXIXIXIXIXIXIXIXIXIXIXIXIXIXIXIXIXIXIXIXIXIX! 1 y g 1 1 g 1 1 g < = $ H zXFX].'.oX[.].oXoXoXoXoXoXoXoXoXoXoXoXoXoXoXoXoXoXoXoXoXoXoXoXoXoXoXoXoXoXoXoXoXoXoXoXoXoXoXXXXXXXXX].0X4X~.k.| O.+.:.6.6.6.:.6.6.6.6.6.6.6.6.6.6.6.6.$.$.$.$.} q.T.5X4XoXXX'.].].XX<XXX].oXoXoXoXoXoXoXoXoXoXoXoXoXoXoXoXoXoXoXoXoXoXoXoXoXoXoXoXoXoXoXoXoXoXoXoXoXoXoXoXoXoXoXoXoXoXoXoXoX].'.[.+X6X6XQ.x.( :.:.:.$.$.&.6.6.$.O.-.x. XCX<XXXoXXX<X<XOXOXXXXXoXoXXXXXoXXXXXXXoX'.XX'.=X2X~.k.| O.$.w.6.6.6.6.6.6.:.+.:.:.7.7.6.6.6.6.6.6.6.6.6.6.6.6.6.6.6.6.6.6.6.6.6.6.6.6.6.6.6.6.6.6.6.6.6.6.6.6.6.6.6.6.6.6.6.6.6.6.6.6.6.6.6.6.6.6.6.6.6.6.6.6.6.6.6.6.6.6.6.6.6.6.6.6.6.6.6.6.6.6.6.6.6.6.6.6.6.6.6.6.6.6.6.6.6.6.6.:.:.:.+.$.$.$.$.6.7.6.6.7.7.9.6.6.7.;.6.r.$.| k.(.+X0X].[.[.'.XXXXyXrXrX|.F.,./ %.6.6.7.6.$.&.@.@.[ u.R.3X4XoX+XXX'.*X].].oXoXoX<X<XXXoXoXoXoX'.XXXX_.-XGXxXD & - y 1 1 4 1 y 1 1 1 g IXIXIXIXIXIXIXIXIXIXIXIXIXIXIXIXIXIXIXIXIXIXIXIXIXIXIXIXIXIXIXIXIXIXIX",
"IXIXIXIXIXIXIXIXIXIXIXIXIXIXIXIXIXIXIXIXIXIXIXIXIXIXIXIXIXIXIXIXIXIXIXW 1 1 g 1 1 g 1 1 g < = $ H zXFX=XXXoX'.].oXoXoXoXoXoXoXoXoXoXoXoXoXoXoXoXoXoXoXoXoXoXoXoXoXoXoXoXoXoXoXoXoXoXoXoXoXoXoXXXoX'.'.].wX6X~.k.| +.+.:.6.6.6.+.6.6.6.6.6.6.6.6.6.6.$.$.$.6.6.6.o.y.E.6X6XoXoX'.].].XX<XXX].oXoXoXoXoXoXoXoXoXoXoXoXoXoXoXoXoXoXoXoXoXoXoXoXoXoXoXoXoXoXoXoXoXoXoXoXoXoXoXoXoXoXoXoXoXoXoXoXoX].'.[.+X6X6XQ.x.( :.:.:.$.$.&.6.6.$.o.;.x./.CXyX'.oXXX<X<XOXOXXXXXoXoXXXXXoXXXXXXX'.oXXX_.2X6XE.k.| O.+.$.6.6.6.6.6.6.6.6.:.:.:.6.6.6.6.6.6.6.6.6.6.6.6.6.6.6.6.6.6.6.6.6.6.6.6.6.6.6.6.6.6.6.6.6.6.6.6.6.6.6.6.6.6.6.6.6.6.6.6.6.6.6.6.6.6.6.6.6.6.6.6.6.6.6.6.6.6.6.6.6.6.6.6.6.6.6.6.6.6.6.6.6.6.6.6.6.6.6.6.6.6.6.6.6.6.6.6.:.:.+.+.$.$.6.6.6.7.7.7.7.7.7.9.6.:.:.6.+.O.| k.(.6XrX-X[.'.<XOX+X].wXiX3XF.,./ 6.:.,.,.:.6.+.....} 5.Y.5XrXoXoX'.*X*X*X].].oXoX<XXXXXoXoXoXoX'.XXXXXX-XAXbXD * - p 4 4 1 1 0 4 4 1 1 IXIXIXIXIXIXIXIXIXIXIXIXIXIXIXIXIXIXIXIXIXIXIXIXIXIXIXIXIXIXIXIXIXIXIX",
"IXIXIXIXIXIXIXIXIXIXIXIXIXIXIXIXIXIXIXIXIXIXIXIXIXIXIXIXIXIXIXIXIXIXIXW 1 y g 1 1 g 1 1 g < = $ H zXFX=XXXoX'.].oXoXoXoXoXoXoXoXoXoXoXoXoXoXoXoXoXoXoXoXoXoXoXoXoXoXoXoXoXoXoXoXoXoXoXoXoXoXoXXXoX'.'.'.0X6X~.k.| +.+.:.6.6.6.+.6.6.6.6.6.6.6.6.6.6.$.6.$.$.6.6.| y.E.6X6XoXoX'.].].XX<XXX].oXoXoXoXoXoXoXoXoXoXoXoXoXoXoXoXoXoXoXoXoXoXoXoXoXoXoXoXoXoXoXoXoXoXoXoXoXoXoXoXoXoXoXoXoXoXoXoXoX].'.[.+X6X6XQ.x.( :.:.:.$.$.&.6.6.$.o.;.x./.CXyX'.XXXX<X<XOXOXXXXXoXoXXXXXoXoXXXXX'.oXXX_.2X6XE.k.| O.+.$.6.6.6.6.6.6.6.6.:.:.:.6.6.6.6.6.6.6.6.6.6.6.6.6.6.6.6.6.6.6.6.6.6.6.6.6.6.6.6.6.6.6.6.6.6.6.6.6.6.6.6.6.6.6.6.6.6.6.6.6.6.6.6.6.6.6.6.6.6.6.6.6.6.6.6.6.6.6.6.6.6.6.6.6.6.6.6.6.6.6.6.6.6.6.6.6.6.6.6.6.6.6.6.6.6.6.6.6.:.+.$.$.6.6.6.6.6.6.7.6.7.6.6.6.:.6.6.+.O.| k.(.5X=X&X&X&XXX+X+X@X+XiX3XF.,.} $.:.,.>.:.6.6.-...} 5.Y.5XrX].oXXX*X*X*X*X].oX].'.XXXXoXoXoXoX].XXXXXX-XAXbXD * - y 1 1 1 0 0 4 1 1 1 IXIXIXIXIXIXIXIXIXIXIXIXIXIXIXIXIXIXIXIXIXIXIXIXIXIXIXIXIXIXIXIXIXIXIX",
"IXIXIXIXIXIXIXIXIXIXIXIXIXIXIXIXIXIXIXIXIXIXIXIXIXIXIXIXIXIXIXIXIXIXIXW < y g 1 1 g 1 1 g < = $ H zXFX=XXXoX'.].oXoXoXoXoXoXoXoXoXoXoXoXoXoXoXoXoXoXoXoXoXoXoXoXoXoXoXoXoXoXoXoXoXoXoXoXoXoXoXXXoX'.'.].0X6X~.k.| +.+.:.6.6.6.+.6.6.6.6.6.6.6.6.6.6.6.6.6.6.6.6.| y.T.6X4XoXoX'.].].XX<XXX].oXoXoXoXoXoXoXoXoXoXoXoXoXoXoXoXoXoXoXoXoXoXoXoXoXoXoXoXoXoXoXoXoXoXoXoXoXoXoXoXoXoXoXoXoXoXoXoXoX].XX'.+X6X6XQ.x.( :.:.:.$.$.&.6.6.$.o.;.x./.CXyX'.oXXX<X<XOXOXXXXXoXoXXXXXoXoXXXXX'.oXXX_.2X6XE.k.| O.%.$.6.6.6.6.6.6.6.6.:.:.6.6.6.6.6.6.6.6.6.6.6.6.6.6.6.6.6.6.6.6.6.6.6.6.6.6.6.6.6.6.6.6.6.6.6.6.6.6.6.6.6.6.6.6.6.6.6.6.6.6.6.6.6.6.6.6.6.6.6.6.6.6.6.6.6.6.6.6.6.6.6.6.6.6.6.6.6.6.6.6.6.6.6.6.6.6.6.6.6.6.6.6.6.6.6.6.6.6.:.:.6.6.6.6.6.6.6.:.:.:.:.6.6.6.+.w.6.$.O.} l.~.3X].&X&X_.[.oX+X+XoXyX3XF.,.} %.:.,.:.7.9.9.;.;.| 1.Y.5XwXoXoX'.*X*X*X*X].].].].'.XXoXoXoXoX'.XXXXXX-XAXbXD * - y 0 y y 1 y d 1 1 1 IXIXIXIXIXIXIXIXIXIXIXIXIXIXIXIXIXIXIXIXIXIXIXIXIXIXIXIXIXIXIXIXIXIXIX",
"IXIXIXIXIXIXIXIXIXIXIXIXIXIXIXIXIXIXIXIXIXIXIXIXIXIXIXIXIXIXIXIXIXIXIXW 1 1 g 1 1 g 1 1 g < = $ H zXFX=XXXoX'.].oXoXoXoXoXoXoXoXoXoXoXoXoXoXoXoXoXoXoXoXoXoXoXoXoXoXoXoXoXoXoXoXoXoXoXoXoXoXoXXXoX'.'.].0X6X~.k.| +.+.:.6.6.6.+.6.6.6.6.6.6.6.6.6.6.6.6.6.6.6.6.| y.T.6X4XoXoX'.].].XX<XXX].oXoXoXoXoXoXoXoXoXoXoXoXoXoXoXoXoXoXoXoXoXoXoXoXoXoXoXoXoXoXoXoXoXoXoXoXoXoXoXoXoXoXoXoXoXoXoXoXoX].'.'.+X6X6XQ.x.( :.:.:.$.$.&.6.6.$.o.;.x./.CXyX'.oXXX<X<XOXOXXXXXoXoXXXXXoXXXXXXX'.oXXX_.2X6XE.k.| O.%.$.6.6.6.6.6.6.6.6.:.:.6.7.6.6.6.6.6.6.6.6.6.6.6.6.6.6.6.6.6.6.6.6.6.6.6.6.6.6.6.6.6.6.6.6.6.6.6.6.6.6.6.6.6.6.6.6.6.6.6.6.6.6.6.6.6.6.6.6.6.6.6.6.6.6.6.6.6.6.6.6.6.6.6.6.6.6.6.6.6.6.6.6.6.6.6.6.6.6.6.6.6.6.6.6.6.6.6.6.:.:.6.6.6.6.6.6.:.3.@.@.@.+.$.&.%.w.6.$.O. .l.~.3X].&X`.[.[.].oX+X<XuX>XF.,./ %.@.:.:.0.9.9.0.;.} 1.Y.5XrXoXoXXX*X*X*X*XoX].].*X'.XXoXoXoXoX'.oXXXXX-XAXbXD * - y y y d y y 1 1 1 1 IXIXIXIXIXIXIXIXIXIXIXIXIXIXIXIXIXIXIXIXIXIXIXIXIXIXIXIXIXIXIXIXIXIXIX",
"IXIXIXIXIXIXIXIXIXIXIXIXIXIXIXIXIXIXIXIXIXIXIXIXIXIXIXIXIXIXIXIXIXIXIXW 1 1 g 1 1 g 1 1 g < = $ H zXFX=XXXoX'.].oXoXoXoXoXoXoXoXoXoXoXoXoXoXoXoXoXoXoXoXoXoXoXoXoXoXoXoXoXoXoXoXoXoXoXoXoXoXoXXXoX'.'.].0X6X~.k.| +.+.:.6.6.6.+.6.6.6.6.6.6.6.6.6.6.6.6.6.$.$.$.| y.T.6X6XoXoX'.].].XX<XXX].oXoXoXoXoXoXoXoXoXoXoXoXoXoXoXoXoXoXoXoXoXoXoXoXoXoXoXoXoXoXoXoXoXoXoXoXoXoXoXoXoXoXoXoXoXoXoXoXoX].'.[.+X6X6XQ.x.( :.:.6.$.$.$.6.6.$.o.;.x./.CXyX'.oXXX<X<XOXOXXXXXoXoXXXXXoXXXXXXX'.oXXX_.2X6XE.k.| O.$.6.6.6.6.6.6.6.6.6.6.6.7.7.6.6.6.6.6.6.6.6.6.6.6.6.6.6.6.6.6.6.6.6.6.6.6.6.6.6.6.6.6.6.6.6.6.6.6.6.6.6.6.6.6.6.6.6.6.6.6.6.6.6.6.6.6.6.6.6.6.6.6.6.6.6.6.6.6.6.6.6.6.6.6.6.6.6.6.6.6.6.6.6.6.6.6.6.6.6.6.6.6.6.6.6.6.6.6.6.:.:.6.6.6.6.6.$.+.+.+.@.+.+.$.%.%.&.9.6.O.} k.~.MXwX[.[.[.].].oXoX+XiX3XF.,./ %.&.@.+.*.*.*.%.O.} <.Y.3X1X].oXXX<X<X<X<XoXoX].*X'.XXoXoXXXXX'.XXXXXX-XAXbXD * - y 1 1 0 1 1 1 1 1 1 IXIXIXIXIXIXIXIXIXIXIXIXIXIXIXIXIXIXIXIXIXIXIXIXIXIXIXIXIXIXIXIXIXIXIX",
"IXIXIXIXIXIXIXIXIXIXIXIXIXIXIXIXIXIXIXIXIXIXIXIXIXIXIXIXIXIXIXIXIXIXIXW 1 1 g 1 1 g 1 1 g < = $ H zXFX=XXXoX'.].oXoXoXoXoXoXoXoXoXoXoXoXoXoXoXoXoXoXoXoXoXoXoXoXoXoXoXoXoXoXoXoXoXoXoXoXoXXXoXXXoX'.'.].0X6X~.k.| +.+.:.6.6.6.+.6.6.6.6.6.6.6.6.6.6.6.6.6.$.$.$.o.y.T.6X6XoXoX'.].].XX<XXX].oXoXoXoXoXoXoXoXoXoXoXoXoXoXoXoXoXoXoXoXoXoXoXoXoXoXoXoXoXoXoXoXoXoXoXoXoXoXoXoXoXoXoXoXoXoXoXoXoX].'.[.+X6X6XQ.x.( :.:.6.$.$.$.6.6.$.o.;.x./.CXyX'.XXXX<X<XOXOXXXXXoXoXXXXXoXXXXXXX'.oXXX_.2X6XE.k.| O.%.$.6.6.6.6.6.6.6.6.6.6.7.7.6.6.6.6.6.6.6.6.6.6.6.6.6.6.6.6.6.6.6.6.6.6.6.6.6.6.6.6.6.6.6.6.6.6.6.6.6.6.6.6.6.6.6.6.6.6.6.6.6.6.6.6.6.6.6.6.6.6.6.6.6.6.6.6.6.6.6.6.6.6.6.6.6.6.6.6.6.6.6.6.6.6.6.6.6.6.6.6.6.6.6.6.6.6.6.6.:.:.:.6.6.6.6.$.+.+.+.+.+.+.+.+.%.&.7.:.O.} k.~.ZXeX1X].].<XoXoXoX1XiX3XF.,.) %.+.O.O.%.*.*.O. .} 5.R.5X1X].oXXXoXoXXXXXoXoX*X*X'.XXoXoXXXXX'.XXXXXX-XAXbXD * - p 1 1 1 1 1 1 1 1 1 IXIXIXIXIXIXIXIXIXIXIXIXIXIXIXIXIXIXIXIXIXIXIXIXIXIXIXIXIXIXIXIXIXIXIX",
"IXIXIXIXIXIXIXIXIXIXIXIXIXIXIXIXIXIXIXIXIXIXIXIXIXIXIXIXIXIXIXIXIXIXIXW 1 1 g 1 1 g 1 1 g < = $ H zXFX=XXXoX'.].oXoXoXoXoXoXoXoXoXoXoXoXoXoXoXoXoXoXoXoXoXoXoXoXoXoXoXoXoXoXoXoXoXoXoXoXoXoXoXXXoX'.'.].0X6X~.k.| +.+.:.6.6.6.+.6.6.6.6.6.6.6.6.6.6.6.6.6.6.$.$.o.y.E.6X6XoXoX'.].].XX<XXX].oXoXoXoXoXoXoXoXoXoXoXoXoXoXoXoXoXoXoXoXoXoXoXoXoXoXoXoXoXoXoXoXoXoXoXoXoXoXoXoXoXoXoXoXoXoXoXoXoX].'.[.+X6X6XQ.x.( :.:.:.$.$.$.6.6.$.o.;.x./.CXuX'.XXXX<X<XOXOXXXXXoXoXXXXXoXXXXXXX'.oXXX_.2X6XE.k.| O.+.6.6.6.6.6.6.6.6.6.6.6.7.7.6.6.6.6.6.6.6.6.6.6.6.6.6.6.6.6.6.6.6.6.6.6.6.6.6.6.6.6.6.6.6.6.6.6.6.6.6.6.6.6.6.6.6.6.6.6.6.6.6.6.6.6.6.6.6.6.6.6.6.6.6.6.6.6.6.6.6.6.6.6.6.6.6.6.6.6.6.6.6.6.6.6.6.6.6.6.6.6.6.6.6.6.6.6.6.:.:.:.:.:.6.6.6.$.O.O.O.O.+.+.;.o.O.$.;.;. .} g.(.ZXiXeXwX1X1X1X1X<X1XuX3XH.2.) $.O. .O.O.%.%. . .} <.K.7X1XoXoX+XoXoXoXoXoXoX*X*X*X<XoXoXoXXX'.XXXXXX-XAXbXD * - y 4 1 1 1 1 1 1 1 1 IXIXIXIXIXIXIXIXIXIXIXIXIXIXIXIXIXIXIXIXIXIXIXIXIXIXIXIXIXIXIXIXIXIXIX",
"IXIXIXIXIXIXIXIXIXIXIXIXIXIXIXIXIXIXIXIXIXIXIXIXIXIXIXIXIXIXIXIXIXIXIXW 1 1 g 1 1 g 1 1 g < = $ H zXFX=XXXoX'.].oXoXoXoXoXoXoXoXoXoXoXoXoXoXoXoXoXoXoXoXoXoXoXoXoXoXoXoXoXoXoXoXoXoXoXoXoXoXoXoXoX'.'.'.=X6X~.k.-.+.+.:.6.6.6.:.6.6.6.6.6.6.6.6.6.6.6.6.6.6.6.6.o.y.E.6X6XoXoX'.].].XX<XXX].oXoXoXoXoXoXoXoXoXoXoXoXoXoXoXoXoXoXoXoXoXoXoXoXoXoXoXoXoXoXoXoXoXoXoXoXoXoXoXoXoXoXoXoXoXoXoXoXoX].'.[.+X4X6XQ.x.( :.:.:.$.$.$.6.6.$.o.;.x./.CXuX'.XXXX<X<XOXOXXXXXoXoXXXXXoXoXXXXX'.XXXX'.tX6XR.k.| O.+.6.6.6.6.6.6.6.6.6.6.6.7.7.6.6.6.6.6.6.6.6.6.6.6.6.6.6.6.6.6.6.6.6.6.6.6.6.6.6.6.6.6.6.6.6.6.6.6.6.6.6.6.6.6.6.6.6.6.6.6.6.6.6.6.6.6.6.6.6.6.6.6.6.6.6.6.6.6.6.6.6.6.6.6.6.6.6.6.6.6.6.6.6.6.6.6.6.6.6.6.6.6.6.6.6.6.6.6.:.:.:.:.6.6.$.$.$.O.| ,.,.,.,.,.,.-.,.,.,.-.` k.(.JXZXMX5X5X5XmXmX,X>XBXmXF.2.` ;.,.-.-.-.;.-.-.| | 1.K.>X7XoXoXoX+X+XoXoXoXoX<X*X<X<XoXoXoXoX'.XXXXXX-XAXbXD * - p 0 1 1 y d 1 1 1 1 IXIXIXIXIXIXIXIXIXIXIXIXIXIXIXIXIXIXIXIXIXIXIXIXIXIXIXIXIXIXIXIXIXIXIX",
"IXIXIXIXIXIXIXIXIXIXIXIXIXIXIXIXIXIXIXIXIXIXIXIXIXIXIXIXIXIXIXIXIXIXIX! 1 g g 1 e g 1 1 h y = $ H zXFX].XXoX'.<XoXoXoXoXoXoXoXoXoXoXoXoXoXoXoXoXoXoXoXoXoXoXoXoXoXoXoXoXoXoXoXoXoXoXoXoXoXoXoXoXoXXX<X<X1X6X~.k.-.+.+.:.6.6.6.6.6.6.6.6.6.6.6.6.6.6.6.6.$.$.$.$.} q.T.6X4XoXXX'.].].XXXXXX].oXoXoXoXoXoXoXoXoXoXoXoXoXoXoXoXoXoXoXoXoXoXoXoXoXoXoXoXoXoXoXoXoXoXoXoXoXoXoXoXoXoXoXoXoXoXoXoXoX].'.[.+X6X6XQ.x.( :.:.6.&.$.$.6.6.$.+.;.x. XuX<X'.+XOX<X<X<XXXXXXXoXoXoXXXoXoXoXoX'.<XXX'.rX2XR.k.| O.$.6.6.6.6.6.6.6.6.6.6.6.6.7.6.6.6.6.6.6.6.6.6.6.6.6.6.6.6.6.6.6.6.6.6.6.6.6.6.6.6.6.6.6.6.6.6.6.6.6.6.6.6.6.6.6.6.6.6.6.6.6.6.6.6.6.6.6.6.6.6.6.6.6.6.6.6.6.6.6.6.6.6.6.6.6.6.6.6.6.6.6.6.6.6.6.6.6.6.6.6.6.6.6.6.6.6.6.6.:.>.:.:.6.@.&.%.O.| l.F.G.m.c.D.F.m.M.A.n.A.H.H.n.J.J.J.J.S.S.G.G.H.H.F.c.C.F.A.v.A.n.m.M.A.A.m.m.A.S.W.;X<X<XoX].oX].oXoXoXoXoXoXXXoXoXoXoXoXXXXXXX'.-XGXxXD % - y 1 1 e g y 1 1 1 e IXIXIXIXIXIXIXIXIXIXIXIXIXIXIXIXIXIXIXIXIXIXIXIXIXIXIXIXIXIXIXIXIXIXIX",
"IXIXIXIXIXIXIXIXIXIXIXIXIXIXIXIXIXIXIXIXIXIXIXIXIXIXIXIXIXIXIXIXIXIXIX! 1 g g 1 e g 1 1 g y = $ H zXFX].'.oX'.<XoXoXoXoXoXoXoXoXoXoXoXoXoXoXoXoXoXoXoXoXoXoXoXoXoXoXoXoXoXoXoXoXoXoXoXoXoXoXoXoXoXXX<X<X1X5X~.k.-.+.+.+.6.6.6.6.6.6.6.6.6.6.6.6.6.6.6.6.$.6.$.$.} q.T.6X4XoXXX'.].].XX<XXX].oXoXoXoXoXoXoXoXoXoXoXoXoXoXoXoXoXoXoXoXoXoXoXoXoXoXoXoXoXoXoXoXoXoXoXoXoXoXoXoXoXoXoXoXoXoXoXoXoX].'.[.+X6X6XQ.x.( :.:.6.$.$.$.6.6.$.+.;.x. XuX<X'.+XOX<X<X<XXXXXXXoXoXoXXXoXoXoXXX'.<XXX'.rX2XR.j.| O.$.6.6.6.6.6.6.6.6.6.6.6.6.7.6.6.6.6.6.6.6.6.6.6.6.6.6.6.6.6.6.6.6.6.6.6.6.6.6.6.6.6.6.6.6.6.6.6.6.6.6.6.6.6.6.6.6.6.6.6.6.6.6.6.6.6.6.6.6.6.6.6.6.6.6.6.6.6.6.6.6.6.6.6.6.6.6.6.6.6.6.6.6.6.6.6.6.6.6.6.6.6.6.6.6.6.6.6.6.7.>.7.6.6.@.@.%.o.u.F.;X3X.X/.(.Q. X.X/.Q. XmX).c.1.1.5.<.2.2.1.y.1.1.<.h.A.~.$X/. X.X.X/.Q.Q./..X!. X&X<X<X<X'.[.].].].oXoXoXoXoXoXXXoXoXoXoXXXXXXX[.-XGXxXF % - y 1 4 e y y 1 1 1 e IXIXIXIXIXIXIXIXIXIXIXIXIXIXIXIXIXIXIXIXIXIXIXIXIXIXIXIXIXIXIXIXIXIXIX",
"IXIXIXIXIXIXIXIXIXIXIXIXIXIXIXIXIXIXIXIXIXIXIXIXIXIXIXIXIXIXIXIXIXIXIX! 1 g g 1 e g 1 1 g < = $ H zXFX].'.oX[.<XoXoXoXoXoXoXoXoXoXoXoXoXoXoXoXoXoXoXoXoXoXoXoXoXoXoXoXoXoXoXoXoXoXoXoXoXoXoXoXoXoXXX<X<X1X5X~.k.-.+.+.$.6.6.6.6.6.6.6.6.6.6.6.6.6.6.6.6.6.6.$.$.| q.T.6X4XoXXX'.].].XX<XXX].oXoXoXoXoXoXoXoXoXoXoXoXoXoXoXoXoXoXoXoXoXoXoXoXoXoXoXoXoXoXoXoXoXoXoXoXoXoXoXoXoXoXoXoXoXoXoXoXoX].'.[.+X6X6XQ.x.( :.:.6.$.$.$.6.6.$.+.;.x. XuX<X].+XOX<X<X<XXXXXXXoXoXXXXXoXoXoXXX'.<XXX'.rX6XR.j.| O.$.6.6.6.6.6.6.6.6.6.:.:.7.7.6.6.6.6.6.6.6.6.6.6.6.6.6.6.6.6.6.6.6.6.6.6.6.6.6.6.6.6.6.6.6.6.6.6.6.6.6.6.6.6.6.6.6.6.6.6.6.6.6.6.6.6.6.6.6.6.6.6.6.6.6.6.6.6.6.6.6.6.6.6.6.6.6.6.6.6.6.6.6.6.6.6.6.6.6.6.6.6.6.6.6.6.6.6.6.6.6.6.$.$.@.@.+.-.j.K.CXGXpXuX2X=XaXaX7X7XCXJX^.k./ [ [ [ [ } _ o./ / ) 2.S.5XGXGXiXiXiXtX2X8X6XuX6X6X4X<XoXoX'.'.'.'.oXoXoXoXoXoXoXXXoXoX].oXXXXXXX[.-XGXxXD % - y 1 1 1 1 1 1 1 1 1 IXIXIXIXIXIXIXIXIXIXIXIXIXIXIXIXIXIXIXIXIXIXIXIXIXIXIXIXIXIXIXIXIXIXIX",
"IXIXIXIXIXIXIXIXIXIXIXIXIXIXIXIXIXIXIXIXIXIXIXIXIXIXIXIXIXIXIXIXIXIXIX! 1 g g 1 1 g 1 1 g < = $ H zXFX].'.oX[.<XoXoXoXoXoXoXoXoXoXoXoXoXoXoXoXoXoXoXoXoXoXoXoXoXoXoXoXoXoXoXoXoXoXoXoXoXoXoXoXoXoXXX<X<X1X5X~.k.-.+.+.&.6.6.6.6.6.6.6.6.6.6.6.6.6.6.6.6.6.6.6.6.| y.T.6X4XoXXX'.].].XX<XXX].oXoXoXoXoXoXoXoXoXoXoXoXoXoXoXoXoXoXoXoXoXoXoXoXoXoXoXoXoXoXoXoXoXoXoXoXoXoXoXoXoXoXoXoXoXoXoXoXoX].'.[.+X6X6XQ.x.( :.:.6.$.$.$.6.6.$.+.;.x. XuX<X].+XOX<X<X<XXXXXXXoXoXXXXXoXoXoXXXXX<XXX'.rX6XR.j.| O.$.6.6.6.6.6.6.6.:.:.:.:.7.7.6.6.6.6.6.6.6.6.6.6.6.6.6.6.6.6.6.6.6.6.6.6.6.6.6.6.6.6.6.6.6.6.6.6.6.6.6.6.6.6.6.6.6.6.6.6.6.6.6.6.6.6.6.6.6.6.6.6.6.6.6.6.6.6.6.6.6.6.6.6.6.6.6.6.6.6.6.6.6.6.6.6.6.6.6.6.6.6.6.6.6.6.6.6.6.6.6.6.$.$.@.@.+.-.2.J.yXiXsXqX0X[.=X-X-X-XiXCXE.f.} { =.=.=.%.9.9.%.X./ 2.M.3XiXsXqX0X0X-X-X-X<X+XrXrX+X].'.'.oX<X<X<XoXoXoXoXoXoXoXXXoXoX].].XXXXXX[.-XGXxXD % - y 1 1 1 1 1 1 1 1 1 IXIXIXIXIXIXIXIXIXIXIXIXIXIXIXIXIXIXIXIXIXIXIXIXIXIXIXIXIXIXIXIXIXIXIX",
"IXIXIXIXIXIXIXIXIXIXIXIXIXIXIXIXIXIXIXIXIXIXIXIXIXIXIXIXIXIXIXIXIXIXIX! 1 g g 1 1 g 1 1 g < = $ H zXFX].'.oX[.<XoXoXoXoXoXoXoXoXoXoXoXoXoXoXoXoXoXoXoXoXoXoXoXoXoXoXoXoXoXoXoXoXoXoXoXoXoXoXoXoXoXXX<X<X1X6X~.z.-.+.+.$.6.6.6.6.6.6.6.6.6.6.6.6.6.6.6.6.6.6.6.6.} q.T.6X4XoXXX'.].].oX<XXX].oXoXoXoXoXoXoXoXoXoXoXoXoXoXoXoXoXoXoXoXoXoXoXoXoXoXoXoXoXoXoXoXoXoXoXoXoXoXoXoXoXoXoXoXoXoXoXoXoX].'.[.+X6X6XQ.x.( :.:.6.$.&.&.6.6.$.+.;.x. XuX<X].OXOX<X<X<XXXXXXXoXXXXXXXoXoXoXXXXX<XXX'.rX6XR.j.| O.$.6.6.6.6.6.6.6.6.6.:.:.:.7.6.6.6.6.6.6.6.6.6.6.6.6.6.6.6.6.6.6.6.6.6.6.6.6.6.6.6.6.6.6.6.6.6.6.6.6.6.6.6.6.6.6.6.6.6.6.6.6.6.6.6.6.6.6.6.6.6.6.6.6.6.6.6.6.6.6.6.6.6.6.6.6.6.6.6.6.6.6.6.6.6.6.6.6.6.6.6.6.6.6.6.6.6.6.6.6.:.:.$.$.@.@.+.o.2.H.3XiXeX+X+XXX[.[.[.[.rXMXR.k.| O.&.&.6.7.7.7.s.$.o.2.M.|.1X[.[.'.'._._.XX+X+XwX].].].'.XX<X<X<X<XXXXXoXoXoXoXXXXXoXoX].].XXXXXX[.-XGXxXF % - p e g y d g e e 1 1 IXIXIXIXIXIXIXIXIXIXIXIXIXIXIXIXIXIXIXIXIXIXIXIXIXIXIXIXIXIXIXIXIXIXIX",
"IXIXIXIXIXIXIXIXIXIXIXIXIXIXIXIXIXIXIXIXIXIXIXIXIXIXIXIXIXIXIXIXIXIXIX! 1 g g 1 1 g 1 1 g < = $ H zXFX].'.oX[.<XoXoXoXoXoXoXoXoXoXoXoXoXoXoXoXoXoXoXoXoXoXoXoXoXoXoXoXoXoXoXoXoXoXoXoXoXoXoXoXoXoXXX<X<X2X6X~.z.-.+.+.$.6.6.6.6.6.6.6.6.6.6.6.6.6.6.6.6.6.6.6.6.} q.T.6X4XoXXX'.].].XX<XXX].oXoXoXoXoXoXoXoXoXoXoXoXoXoXoXoXoXoXoXoXoXoXoXoXoXoXoXoXoXoXoXoXoXoXoXoXoXoXoXoXoXoXoXoXoXoXoXoXoX].'.[.+X6X6XQ.x.( :.:.6.$.&.&.6.6.$.O.;.x. XuX<XoXOXOX<X<X<XXXXXXXoXXXXXXXoXoXoXXXXX<XXX'.rX6XR.j.| O.$.6.6.6.6.6.6.6.6.6.:.:.6.7.6.6.6.6.6.6.6.6.6.6.6.6.6.6.6.6.6.6.6.6.6.6.6.6.6.6.6.6.6.6.6.6.6.6.6.6.6.6.6.6.6.6.6.6.6.6.6.6.6.6.6.6.6.6.6.6.6.6.6.6.6.6.6.6.6.6.6.6.6.6.6.6.6.6.6.6.6.6.6.6.6.6.6.6.6.6.6.6.6.6.6.6.6.6.6.6.:.:.$.$.@.@.+.o.q.H.NXCX+X@X+XOX@XXX'.].rX6X^.x.| O.$.7.7.7.7.7.t.%.} 2.M..X1X'.<X<X<X<XXXXX+X+X@X].].oX<X<X<XXXXXXXoXoXoX'.'.'.XXXXoXoX].].XXXXXX[.-XGXxXF % - y 1 d y y g e 1 1 1 IXIXIXIXIXIXIXIXIXIXIXIXIXIXIXIXIXIXIXIXIXIXIXIXIXIXIXIXIXIXIXIXIXIXIX",
"IXIXIXIXIXIXIXIXIXIXIXIXIXIXIXIXIXIXIXIXIXIXIXIXIXIXIXIXIXIXIXIXIXIXIX! 1 g g 1 1 e 1 1 g < = $ H zXFX*X'.XX'.<XoXoXoXoXoXoXoXoXoXoXoXoXoXoXoXoXoXoXoXoXoXoXoXoXoXoXoXoXoXoXoXoXoXoXoXoXoXoXoXoX<XXX<X<X1X5X~.z.-.+.+.+.6.6.6.6.6.6.6.6.6.6.6.6.6.6.6.6.$.$.6.6.} q.T.6X4XoXXX'.].].XX<XXX].oXoXoXoXoXoXoXoXoXoXoXoXoXoXoXoXoXoXoXoXoXoXoXoXoXoXoXoXoXoXoXoXoXoXoXoXoXoXoXoXoXoXoXoXoXoXoXoXoX].XX'.+X6X6XQ.x.( :.:.6.$.$.&.6.6.$.o.;.x. XuX<X'.oXOX<X<X<XXXXXXXoXXXXXXXoXoXXXXXXX<XXX'.rX6XR.j.| O.$.6.6.6.6.6.6.6.6.6.:.:.6.6.6.6.6.6.6.6.6.6.6.6.6.6.6.6.6.6.6.6.6.6.6.6.6.6.6.6.6.6.6.6.6.6.6.6.6.6.6.6.6.6.6.6.6.6.6.6.6.6.6.6.6.6.6.6.6.6.6.6.6.6.6.6.6.6.6.6.6.6.6.6.6.6.6.6.6.6.6.6.6.6.6.6.6.6.6.6.6.6.6.6.6.6.6.6.6.6.:.:.6.6.@.@.+.o.<.H.mXCXXX|.XX3XOXoX'.[.wX4XE.k.| O.$.6.6.:.:.:.:.o.} ,.A.;XCX6X,X<X<X'.'.XX+X+X'.'.*X<X7X<X<XXXXXoXoXoXoX*X*X*X<XXXoXoX].oXXXXXXX[.-XGXxXF % - y 1 1 1 1 1 1 1 1 1 IXIXIXIXIXIXIXIXIXIXIXIXIXIXIXIXIXIXIXIXIXIXIXIXIXIXIXIXIXIXIXIXIXIXIX",
"IXIXIXIXIXIXIXIXIXIXIXIXIXIXIXIXIXIXIXIXIXIXIXIXIXIXIXIXIXIXIXIXIXIXIX! 1 g g 1 1 g 1 1 g < = $ H zXFX*X'.XX'.<XoXoXoXoXoXoXoXoXoXoXoXoXoXoXoXoXoXoXoXoXoXoXoXoXoXoXoXoXoXoXoXoXoXoXoXoXoXoXoXoXoXXX<X<X1X5X~.z.-.+.+.+.6.6.6.6.6.6.6.6.6.6.6.6.6.6.6.6.$.$.$.$.} q.T.5X4XoXXX'.].].XX<XXX].oXoXoXoXoXoXoXoXoXoXoXoXoXoXoXoXoXoXoXoXoXoXoXoXoXoXoXoXoXoXoXoXoXoXoXoXoXoXoXoXoXoXoXoXoXoXoXoXoX].'.'.+X6X6XQ.x.( :.:.6.$.&.&.6.6.$.O.;.x./.6X<X'.oXOX<X<X<XXXXXXXoXXXXXXXoXoXXXXXXX<XXX'.rX6XR.j.| O.$.6.6.6.6.6.6.6.6.6.:.:.6.7.6.6.6.6.6.6.6.6.6.6.6.6.6.6.6.6.6.6.6.6.6.6.6.6.6.6.6.6.6.6.6.6.6.6.6.6.6.6.6.6.6.6.6.6.6.6.6.6.6.6.6.6.6.6.6.6.6.6.6.6.6.6.6.6.6.6.6.6.6.6.6.6.6.6.6.6.6.6.6.6.6.6.6.6.6.6.6.6.6.6.6.6.6.6.6.6.:.6.6.6.@.+.+.| >.H.mXCXXXXX<X3X3XOX'.[.iXyXE.z.| +.6.6.6.+.+.+.6.+. .,.A.$XMXuX,X,X<X'.[.[.XXXX_._.&X&X<X<X<XXXoXoXoXoXoX*X*X*X<XXXoXoX].oXXXXXXX[.-XGXxXF % - y 1 1 1 1 1 1 1 1 1 IXIXIXIXIXIXIXIXIXIXIXIXIXIXIXIXIXIXIXIXIXIXIXIXIXIXIXIXIXIXIXIXIXIXIX",
"IXIXIXIXIXIXIXIXIXIXIXIXIXIXIXIXIXIXIXIXIXIXIXIXIXIXIXIXIXIXIXIXIXIXIXW 1 1 g 1 1 g 1 1 g < = $ H lXFX=XXXoX'.*XXXXXoXoXoXoXoXoXoXoXoXoXoXoXoXoXoXoXoXoXoXoXoXoXoXoXoXoXoXoXoXoXoXoXoXoXoXoXoXoXXX'.'.*X1X5X~.k.-.+.+.+.6.6.6.:.6.6.6.6.6.6.6.6.6.6.$.$.$.6.6.6.o.y.E.6X6XoXoX'.].].XX<XXX].oXoXoXoXoXoXoXoXoXoXoXoXoXoXoXoXoXoXoXoXoXoXoXoXoXoXoXoXoXoXoXoXoXoXoXoXoXoXoXoXoXoXoXoXoXoXoXoXoX].<X[.+X4X6XQ.x.| :.:.6.w.$.+.6.6.$.| ;.x./.uXuX[.oXXX<X<X<XXXXXXXoXXXXXXXoXoXoXXXXX<XXX'.rX6XR.j.| O.$.6.6.6.6.6.6.6.6.6.6.6.7.6.6.6.6.6.6.6.6.6.6.6.6.6.6.6.6.6.6.6.6.6.6.6.6.6.6.6.6.6.6.6.6.6.6.6.6.6.6.6.6.6.6.6.6.6.6.6.6.6.6.6.6.6.6.6.6.6.6.6.6.6.6.6.6.6.6.6.6.6.6.6.6.6.6.6.6.6.6.6.6.6.6.6.6.6.6.6.6.6.6.6.6.6.6.6.6.6.6.6.6.6.@.+.+.| <.L.5XuX1X4X1XXX3X3XXX1XiX4XT.z.-.+.$.9.6.+.+.+.;.t.6.,.n.:XZXoX3X3X<X<X=X=X<X<X_.&X<X<X<X_.XXXXoXoXoXoXoX].*X*X<XXXoXoXoXoXoXXXXX'.=XAXxXD % - y 1 1 1 1 1 1 1 1 1 IXIXIXIXIXIXIXIXIXIXIXIXIXIXIXIXIXIXIXIXIXIXIXIXIXIXIXIXIXIXIXIXIXIXIX",
"IXIXIXIXIXIXIXIXIXIXIXIXIXIXIXIXIXIXIXIXIXIXIXIXIXIXIXIXIXIXIXIXIXIXIXW 1 1 g 1 1 g 1 1 g < = $ H lXFX=XXXoX'.*XXXXXoXoXoXoXoXoXoXoXoXoXoXoXoXoXoXoXoXoXoXoXoXoXoXoXoXoXoXoXoXoXoXoXoXoXoXoXoXoXXX'.'.*X1X5X~.k.-.+.+.+.6.6.6.:.6.6.6.6.6.6.6.6.6.6.$.6.$.$.6.6.| y.E.6X6XoXoX'.].].XX<XXX].oXoXoXoXoXoXoXoXoXoXoXoXoXoXoXoXoXoXoXoXoXoXoXoXoXoXoXoXoXoXoXoXoXoXoXoXoXoXoXoXoXoXoXoXoXoXoXoXoX].oX[.+X4X6XQ.x.( :.6.6.w.$.$.6.6.$.| ;.x./.uXuX[.oXOX<X<X<XXXXXXXoXXXXXXXoXoXoXXXXX<XXX'.rX6XR.j.| O.$.6.6.6.6.6.6.6.6.6.6.6.7.7.6.6.6.6.6.6.6.6.6.6.6.6.6.6.6.6.6.6.6.6.6.6.6.6.6.6.6.6.6.6.6.6.6.6.6.6.6.6.6.6.6.6.6.6.6.6.6.6.6.6.6.6.6.6.6.6.6.6.6.6.6.6.6.6.6.6.6.6.6.6.6.6.6.6.6.6.6.6.6.6.6.6.6.6.6.6.6.6.6.6.6.6.6.6.6.6.6.6.6.6.:.:.+.-.2.G.5XrX'.'.oX'.XXXX[.[.rX<XT.b.,.$.6.9.w.w.&.&.6.t.:.,.n.mXZX].+XXX'.[.[.[.'._._._.'.XXXX'.XXXXoXoXoXoXoXoX].'.XXXXoXoXoXoXoXXXXX'.=XAXxXD * - y 1 1 1 e 0 1 1 1 1 IXIXIXIXIXIXIXIXIXIXIXIXIXIXIXIXIXIXIXIXIXIXIXIXIXIXIXIXIXIXIXIXIXIXIX",
"IXIXIXIXIXIXIXIXIXIXIXIXIXIXIXIXIXIXIXIXIXIXIXIXIXIXIXIXIXIXIXIXIXIXIXW 1 1 g 1 1 g 1 1 g < = $ H lXFX=XXX<X'.*XXXXXoXoXoXoXoXoXoXoXoXoXoXoXoXoXoXoXoXoXoXoXoXoXoXoXoXoXoXoXoXoXoXoXoXoXoXoXoXoXXX'.'.*X1X5X~.k.-.+.+.+.6.6.6.:.6.6.6.6.6.6.6.6.6.6.6.6.6.6.6.6.| y.T.6X4XoXoX'.].].XX<XXX].oXoXoXoXoXoXoXoXoXoXoXoXoXoXoXoXoXoXoXoXoXoXoXoXoXoXoXoXoXoXoXoXoXoXoXoXoXoXoXoXoXoXoXoXoXoXoXoXoX].oX[.+X4X6XQ.x.( ;.6.6.w.$.+.6.6.$.| ;.x./.uXuX[.oXXX<X<X<XXXXXXXoXXXXXXXoXoXoXXXXX<XXX'.rX6XR.j.| O.$.6.6.6.6.6.6.6.6.6.6.6.7.7.6.6.6.6.6.6.6.6.6.6.6.6.6.6.6.6.6.6.6.6.6.6.6.6.6.6.6.6.6.6.6.6.6.6.6.6.6.6.6.6.6.6.6.6.6.6.6.6.6.6.6.6.6.6.6.6.6.6.6.6.6.6.6.6.6.6.6.6.6.6.6.6.6.6.6.6.6.6.6.6.6.6.6.6.6.6.6.6.6.6.6.6.6.6.6.6.6.6.6.6.:.:.:.-.2.H.5XyX].'.oXoX@XoX[.[.=X2XW.f.-.+.$.6.6.w.&.&.w.6.} ,.A.NXZX[.oXXX'.'.'.'.XXXX<XoXoXoXoXoX].'.oXoXoXoXoXoXoXoXoXXXoXoXoXoXXXXXXX'.=XAXxXD * - y 1 p g g y 1 1 1 1 IXIXIXIXIXIXIXIXIXIXIXIXIXIXIXIXIXIXIXIXIXIXIXIXIXIXIXIXIXIXIXIXIXIXIX",
"IXIXIXIXIXIXIXIXIXIXIXIXIXIXIXIXIXIXIXIXIXIXIXIXIXIXIXIXIXIXIXIXIXIXIXW 1 1 g 1 1 g 1 1 g < = $ H lXFX=XXX<X'.*XXXXXoXoXoXoXoXoXoXoXoXoXoXoXoXoXoXoXoXoXoXoXoXoXoXoXoXoXoXoXoXoXoXoXoXoXoXoXoXoXXX'.'.*X2X5X~.k.-.+.+.+.6.6.6.:.6.6.6.6.6.6.6.6.6.6.6.6.6.6.6.6.| y.T.6X4XoXoX'.].].XX<XXX].oXoXoXoXoXoXoXoXoXoXoXoXoXoXoXoXoXoXoXoXoXoXoXoXoXoXoXoXoXoXoXoXoXoXoXoXoXoXoXoXoXoXoXoXoXoXoXoXoX].oX[.+X4X6XQ.x.| o.+.6.&.$.+.6.6.+.| ;.x./.uXyX[.oXOX<X<X<XXXXXXXoXXXXXXXoXoXoXXXXX<XXX'.rX2XR.j.| O.$.6.6.6.6.6.6.6.6.6.6.6.7.7.6.6.6.6.6.6.6.6.6.6.6.6.6.6.6.6.6.6.6.6.6.6.6.6.6.6.6.6.6.6.6.6.6.6.6.6.6.6.6.6.6.6.6.6.6.6.6.6.6.6.6.6.6.6.6.6.6.6.6.6.6.6.6.6.6.6.6.6.6.6.6.6.6.6.6.6.6.6.6.6.6.6.6.6.6.6.6.6.6.6.6.6.6.6.6.6.&.$.$.6.:.:.;.,.2.K.BXAXyX1XyXyXrXrX1X].uXDXR.f.( [  .} X.X.O.O.+.} ^ ` A.NXAXrXyXrXyXyX1X4X6X6XCXyX+XoXoXoXoX].oXXXXXXXoXoXoXoXoXXXoXoXoXoXXXXXXX'.=XAXxXD * - y 1 y g y y 1 1 1 1 IXIXIXIXIXIXIXIXIXIXIXIXIXIXIXIXIXIXIXIXIXIXIXIXIXIXIXIXIXIXIXIXIXIXIX",
"IXIXIXIXIXIXIXIXIXIXIXIXIXIXIXIXIXIXIXIXIXIXIXIXIXIXIXIXIXIXIXIXIXIXIXW 1 y g 1 1 g 1 1 g < = $ D lXFX*XXX<X'.*XXXXXoXoXoXoXoXoXoXoXoXoXoXoXoXoXoXoXoXoXoXoXoXoXoXoXoXoXoXoXoXoXoXoXoXoXoXoXoXoXXX'.'.*X1X5X~.k.-.+.+.+.6.6.6.:.6.6.6.6.6.6.6.6.6.6.6.6.6.$.$.$.| y.T.6X6XoXoX'.].].XX<XXX].oXoXoXoXoXoXoXoXoXoXoXoXoXoXoXoXoXoXoXoXoXoXoXoXoXoXoXoXoXoXoXoXoXoXoXoXoXoXoXoXoXoXoXoXoXoXoXoXoX].oX[.+X4X6XQ.x.| ;.:.6.w.$.+.6.w.+.| ;.x.Q.uXyX[.oXOX<X<X<XXXXXXXoXXXXXXXoXoXoXXX'.<XXX'.rX6XR.j.| O.$.6.6.6.6.6.6.6.6.6.6.6.7.7.6.6.6.6.6.6.6.6.6.6.6.6.6.6.6.6.6.6.6.6.6.6.6.6.6.6.6.6.6.6.6.6.6.6.6.6.6.6.6.6.6.6.6.6.6.6.6.6.6.6.6.6.6.6.6.6.6.6.6.6.6.6.6.6.6.6.6.6.6.6.6.6.6.6.6.6.6.6.6.6.6.6.6.6.6.6.6.6.6.6.6.6.6.:.6.6.&.&.$.6.:.:.;.,.1.K.MXAXuXuXuXuX1XuX7X1XAXDX^.f./ [ [ [ [ [ X.X.O./ ^ ,.A.>XAXiXyXyXyXuX2X2X6XMXMXNX4XoX+XoXoX].].'.*X<XXXoXoXoXoXXXoXoX'.'.XXXXXX'.=XAXxXD * - y 1 1 4 1 1 1 1 1 1 IXIXIXIXIXIXIXIXIXIXIXIXIXIXIXIXIXIXIXIXIXIXIXIXIXIXIXIXIXIXIXIXIXIXIX",
"IXIXIXIXIXIXIXIXIXIXIXIXIXIXIXIXIXIXIXIXIXIXIXIXIXIXIXIXIXIXIXIXIXIXIXW 1 y g 1 1 g 1 1 g < = $ D lXFX*XXX<X'.*XXXXXoXoXoXoXoXoXoXoXoXoXoXoXoXoXoXoXoXoXoXoXoXoXoXoXoXoXoXoXoXoXoXoXoXoXoXoXoXoXXX'.'.*X1X5X~.k.-.+.+.+.6.6.6.:.6.6.6.6.6.6.6.6.6.6.6.6.6.$.$.$.o.y.T.6X6XoXoX'.].].XX<XXX].oXoXoXoXoXoXoXoXoXoXoXoXoXoXoXoXoXoXoXoXoXoXoXoXoXoXoXoXoXoXoXoXoXoXoXoXoXoXoXoXoXoXoXoXoXoXoXoXoX].<X[.+X4X6XQ.x.| ;.:.6.w.$.+.6.w.+.| ;.x.Q.uXtX[.oXOX<X<X<XXXXXXXoXXXXXXXoXoXoXXX'.<XXX'.rX6XR.j.| O.$.6.6.6.6.6.6.6.6.6.6.6.7.7.6.6.6.6.6.6.6.6.6.6.6.6.6.6.6.6.6.6.6.6.6.6.6.6.6.6.6.6.6.6.6.6.6.6.6.6.6.6.6.6.6.6.6.6.6.6.6.6.6.6.6.6.6.6.6.6.6.6.6.6.6.6.6.6.6.6.6.6.6.6.6.6.6.6.6.6.6.6.6.6.6.6.6.6.6.6.6.6.6.6.6.6.6.6.6.6.&.%.$.6.:.:.:.;.y.F.(.&X;X/.Q.!.Q./.Q.!. X XJ.z.1.5.5.5.5.5.y.y.j.1.<.g.A.W.$X;X.X.X.X/.Q.Q././.~./.,X3XoXoX].].].*X*X*X<XXX+X+XoXXXoXoX'.'.XXXXXX'.=XAXxXD * - y 1 1 1 d 1 1 1 1 1 IXIXIXIXIXIXIXIXIXIXIXIXIXIXIXIXIXIXIXIXIXIXIXIXIXIXIXIXIXIXIXIXIXIXIX",
"IXIXIXIXIXIXIXIXIXIXIXIXIXIXIXIXIXIXIXIXIXIXIXIXIXIXIXIXIXIXIXIXIXIXIXW 1 1 g 1 1 g 1 0 g < = $ D lXFX*XXX<X'.*XXXXXoXoXoXoXoXoXoXoXoXoXoXoXoXoXoXoXoXoXoXoXoXoXoXoXoXoXoXoXoXoXoXoXoXoXoXoXoXoXXXXX'.*X1X5X~.k.-.+.+.+.6.6.6.:.6.6.6.6.6.6.6.6.6.6.6.6.6.6.$.$.o.y.E.6X6XoXoX'.].].XX<XXX].oXoXoXoXoXoXoXoXoXoXoXoXoXoXoXoXoXoXoXoXoXoXoXoXoXoXoXoXoXoXoXoXoXoXoXoXoXoXoXoXoXoXoXoXoXoXoXoXoX].<X[.+X4X6XQ.x.| :.:.6.w.$.+.6.w.+.| ;.x.Q.uXyX[.oXOX<X<X<XXXXXXXoXoXXXXXoXoXoXXX'.<XXX'.rX6XR.j.| O.$.6.6.6.6.6.6.6.:.:.6.6.7.7.6.6.6.6.6.6.6.6.6.6.6.6.6.6.6.6.6.6.6.6.6.6.6.6.6.6.6.6.6.6.6.6.6.6.6.6.6.6.6.6.6.6.6.6.6.6.6.6.6.6.6.6.6.6.6.6.6.6.6.6.6.6.6.6.6.6.6.6.6.6.6.6.6.6.6.6.6.6.6.6.6.6.6.6.6.6.6.6.6.6.6.6.6.6.6.:.@.+.:.6.:.$.%.X.t.u.v.n.C.D.D.l.x.C.Z.l.z.v.V.H.^.R.T.T.T.T.T.T.).E.^.L.A.v.Z.C.x.x.x.x.Z.Z.x.x.b.A.~.,X3XoX].].=X*X*X*X<X<XoXoXoXXXoXoX].'.XXXXXX'.=XAXcXD * , y 1 1 1 g g 1 1 1 1 IXIXIXIXIXIXIXIXIXIXIXIXIXIXIXIXIXIXIXIXIXIXIXIXIXIXIXIXIXIXIXIXIXIXIX",
"IXIXIXIXIXIXIXIXIXIXIXIXIXIXIXIXIXIXIXIXIXIXIXIXIXIXIXIXIXIXIXIXIXIXIXW 1 1 g 1 1 g 1 0 g < - $ D lXFX=XXX<X'.*XXXXXoXoXoXoXoXoXoXoXoXoXoXoXoXoXoXoXoXoXoXoXoXoXoXoXoXoXoXoXoXoXoXoXoXoXoXoXoXoXXX'.'.*X<X6X~.k.-.+.+.+.6.6.6.:.6.6.6.6.6.6.6.6.6.6.6.6.6.6.6.6.X.y.E.6X6XoXoX'.].].XXXXoX].oXoXoXoXoXoXoXoXoXoXoXoXoXoXoXoXoXoXoXoXoXoXoXoXoXoXoXoXoXoXoXoXoXoXoXoXoXoXoXoXoXoXoXoXoXoXoXoXoX].oX[.+X4X6XQ.x.| ;.:.6.w.$.+.6.w.+.| ;.x.Q.uXtX[.oXOX<X<X<XXXXXXXoXoXoXoXoXoXoXoXXX<XXX'.tX6XR.k.| O.$.6.6.6.6.6.6.6.:.+.:.:.7.7.6.6.6.6.6.6.6.6.6.6.6.6.6.6.6.6.6.6.6.6.6.6.6.6.6.6.6.6.6.6.6.6.6.6.6.6.6.6.6.6.6.6.6.6.6.6.6.6.6.6.6.6.6.6.6.6.6.6.6.6.6.6.6.6.6.6.6.6.6.6.6.6.6.6.6.6.6.6.6.6.6.6.6.6.6.6.6.6.6.6.6.6.6.6.6.:.:.:.:.:.:.$.%.%.%.o.` ` -.:.o.} o.;...| ) ` z.^.BXBXCXyXyXyX6XyXyXZXBXVXF.2.| | | o.| | | | | -.) f.K.,X2X<X'.[.].*X*X<X<X<XXXXXXXXXoXoX].].XXXXXX'.=XGXcXD * , y 1 1 1 d g 1 1 1 1 IXIXIXIXIXIXIXIXIXIXIXIXIXIXIXIXIXIXIXIXIXIXIXIXIXIXIXIXIXIXIXIXIXIXIX",
"IXIXIXIXIXIXIXIXIXIXIXIXIXIXIXIXIXIXIXIXIXIXIXIXIXIXIXIXIXIXIXIXIXIXIXW 1 y l 2 0 e 1 1 h < = $ H zXFX*X'.XX[.].oXoXoXoXoXoXoXoXoXoXoXoXoXoXoXoXoXoXoXoXoXoXoXoXoXoXoXoXoXoXoXoXoXoXoXoXoXoXoXoXoX'.'.'.=X6X~.k.;.+.+.$.6.9.6.6.6.6.6.6.6.6.6.6.6.6.6.6.$.$.$.$.} y.W.6X4X+XXX'.].].oXXXoX].oXoXoXoXoXoXoXoXoXoXoXoXoXoXoXoXoXoXoXoXoXoXoXoXoXoXoXoXoXoXoXoXoXoXoXoXoXoXoXoXoXoXoXoXoXoXoXoXoX].'.[.+X6X6XQ.x.( o.+.6.$.+.+.6.6.+...-.x. XuX=X'.oXXX<X<X<XXXXXXXoXoXXXXXoXoXXXXXXX<XXX'.tX2XR.k.| O.$.6.6.6.6.6.6.6.6.6.:.:.:.6.6.6.6.6.6.6.6.6.6.6.6.6.6.6.6.6.6.6.6.6.6.6.6.6.6.6.6.6.6.6.6.6.6.6.6.6.6.6.6.6.6.6.6.6.6.6.6.6.6.6.6.6.6.6.6.6.6.6.6.6.6.6.6.6.6.6.6.6.6.6.6.6.6.6.6.6.6.6.6.6.6.6.6.6.6.6.6.6.6.6.6.6.6.6.6.7.7.:.:.:.+.+.$.$.+.o.;.;.;.+.+.+.+.+.:.....| b.~.BXCX6X4XrXyX1X2XXXoXCXmXF.,.) 9.;.| ....o.o.} } | 1.Y.7X1X].<XXXoXoXoXXX<X<XXX].XXXXoXoX].].XXXXXX[.-XGXxXD & - y 1 1 1 y y 1 1 1 g IXIXIXIXIXIXIXIXIXIXIXIXIXIXIXIXIXIXIXIXIXIXIXIXIXIXIXIXIXIXIXIXIXIXIX",
"IXIXIXIXIXIXIXIXIXIXIXIXIXIXIXIXIXIXIXIXIXIXIXIXIXIXIXIXIXIXIXIXIXIXIXW 1 g l 2 0 e 1 1 h y - $ H zXFX].'.oX[.].oXoXXXoXoXoXoXoXoXoXoXoXoXoXoXoXoXoXoXoXoXoXoXoXoXoXoXoXoXoXoXoXoXoXoXoXoXoXoXoXoX'.'.'.=X6X~.k.;.+.+.$.6.$.6.6.6.6.6.6.6.6.6.6.6.6.6.6.$.6.$.$.} u.W.6X4X+XXX_.*X].XXXXoX].oXoXoXoXoXoXoXoXoXoXoXoXoXoXoXoXoXoXoXoXoXoXoXoXoXoXoXoXoXoXoXoXoXoXoXoXoXoXoXoXoXoXoXoXoXoXoXoXoX].'.[.+X6X6XQ.x.( o.+.6.$.+.+.$.6.$.+.-.x. XuX<X'.oXXX<X<X<XXXXXXXoXoXXXXXoXoXXXXXoXoXXX_.2X6XE.k.| O.$.w.6.6.6.6.6.6.6.6.:.:.:.6.6.6.6.6.6.6.6.6.6.6.6.6.6.6.6.6.6.6.6.6.6.6.6.6.6.6.6.6.6.6.6.6.6.6.6.6.6.6.6.6.6.6.6.6.6.6.6.6.6.6.6.6.6.6.6.6.6.6.6.6.6.6.6.6.6.6.6.6.6.6.6.6.6.6.6.6.6.6.6.6.6.6.6.6.6.6.6.6.6.6.6.6.6.6.6.7.7.7.6.:.+.+.+.:.:.6.6.6.6.:.+.+.O.+.:... .} g.~.MXyXXXXXoXoX<X<X'.<XyX3XF.>._ $.+... .+.0.0... .} 1.Y.3X1X].<XXXoX+XoXoX<X<X*X].XXXXoXoX].].XXXXXX[.-XGXxXD & - y 1 1 1 1 y 1 1 1 g IXIXIXIXIXIXIXIXIXIXIXIXIXIXIXIXIXIXIXIXIXIXIXIXIXIXIXIXIXIXIXIXIXIXIX",
"IXIXIXIXIXIXIXIXIXIXIXIXIXIXIXIXIXIXIXIXIXIXIXIXIXIXIXIXIXIXIXIXIXIXIXW 1 g g 2 0 e 1 1 h y - $ H zXFX].'.oX[.].oXoXXXoXoXoXoXoXoXoXoXoXoXoXoXoXoXoXoXoXoXoXoXoXoXoXoXoXoXoXoXoXoXoXoXoXoXoXoXoXoX'.'.'.=X6X~.k.;.+.+.$.6.$.6.6.6.6.6.6.6.6.6.6.6.6.6.6.6.6.$.$.} u.T.6X4X+XXX_.*X].oXoXoX].oXoXoXoXoXoXoXoXoXoXoXoXoXoXoXoXoXoXoXoXoXoXoXoXoXoXoXoXoXoXoXoXoXoXoXoXoXoXoXoXoXoXoXoXoXoXoXoXoX].'.'.+X6X6XQ.x.( o.+.6.$.+.+.$.6.$.+.-.x. XuX<X'.oXXX<X<X<XXXXXXXoXoXXXXXoXoXXXXXoXoXXX_.2X6XE.k.| O.$.6.6.6.6.6.6.6.6.6.:.:.6.6.6.6.6.6.6.6.6.6.6.6.6.6.6.6.6.6.6.6.6.6.6.6.6.6.6.6.6.6.6.6.6.6.6.6.6.6.6.6.6.6.6.6.6.6.6.6.6.6.6.6.6.6.6.6.6.6.6.6.6.6.6.6.6.6.6.6.6.6.6.6.6.6.6.6.6.6.6.6.6.6.6.6.6.6.6.6.6.6.6.6.6.6.6.6.6.7.7.7.6.:.:.:.:.:.6.6.6.6.6.:.:.+.+.&.6.+. . .g.(.NX+XXX[.[.'.'.'.'.=XiX3XF.,./ %.@...@.$.0.0.6.+.} 5.Y.3XrX].<XXXoXoXoXoX<X<X'.].XXXXoXoXoXoXXXXXXX[.-XGXxXD & - y 1 1 1 e e 1 0 1 g IXIXIXIXIXIXIXIXIXIXIXIXIXIXIXIXIXIXIXIXIXIXIXIXIXIXIXIXIXIXIXIXIXIXIX",
"IXIXIXIXIXIXIXIXIXIXIXIXIXIXIXIXIXIXIXIXIXIXIXIXIXIXIXIXIXIXIXIXIXIXIXW 1 1 g 2 1 e 1 1 h y - $ H zXFX].'.oX[.].oXoXoXoXoXoXoXoXoXoXoXoXoXoXoXoXoXoXoXoXoXoXoXoXoXoXoXoXoXoXoXoXoXoXoXoXoXoXoXoXoX'.'.'.=X6X~.k.-.+.+.$.6.$.6.6.6.6.6.6.6.6.6.6.6.6.6.6.6.6.6.$.} u.W.6X4X+XXX_.*X].oXoXoX].oXoXoXoXoXoXoXoXoXoXoXoXoXoXoXoXoXoXoXoXoXoXoXoXoXoXoXoXoXoXoXoXoXoXoXoXoXoXoXoXoXoXoXoXoXoXoXoXoX].'.[.+X6X6XQ.x.( o.+.6.$.+.+.$.6.$.+.-.x. XuX<X'.oXXX<X<X<XXXXXXXoXoXXXXXoXXXXXXXoXoXXX_.2X6XE.k.| O.$.6.6.6.6.6.6.6.6.6.:.:.6.7.6.6.6.6.6.6.6.6.6.6.6.6.6.6.6.6.6.6.6.6.6.6.6.6.6.6.6.6.6.6.6.6.6.6.6.6.6.6.6.6.6.6.6.6.6.6.6.6.6.6.6.6.6.6.6.6.6.6.6.6.6.6.6.6.6.6.6.6.6.6.6.6.6.6.6.6.6.6.6.6.6.6.6.6.6.6.6.6.6.6.6.6.6.6.6.6.7.7.7.6.6.:.:.:.6.6.6.w.w.&.@.&.$.w.6.+.#. .g.(.MXeX].[.].].<X<X'.].iX3XF.,.[ #.@.@.@.$.9.9.$.+. .<.R.3XrX].<X|.XXoXoXoX<X<X'.].XXXXoXoX].oXXXXXXX`.=XGXxXD & - y 1 1 1 e e 0 0 1 g IXIXIXIXIXIXIXIXIXIXIXIXIXIXIXIXIXIXIXIXIXIXIXIXIXIXIXIXIXIXIXIXIXIXIX",
"IXIXIXIXIXIXIXIXIXIXIXIXIXIXIXIXIXIXIXIXIXIXIXIXIXIXIXIXIXIXIXIXIXIXIXW 1 1 g 2 0 e 1 1 h y - $ H zXFX].'.oX[.].oXoXoXoXoXoXoXoXoXoXoXoXoXoXoXoXoXoXoXoXoXoXoXoXoXoXoXoXoXoXoXoXoXoXoXoXoXoXoXoXoX'.'.'.=X6X~.k.-.+.+.+.6.$.6.6.6.6.6.6.6.6.6.6.6.6.6.6.6.6.6.$.} u.T.6X4XoX<X_.*X].oXoXoX].oXoXoXoXoXoXoXoXoXoXoXoXoXoXoXoXoXoXoXoXoXoXoXoXoXoXoXoXoXoXoXoXoXoXoXoXoXoXoXoXoXoXoXoXoXoXoXoXoX].'.[.+X6X6XQ.x.( o.+.6.$.+.+.$.6.+.O.-.x. XuX<X'.oXOX<X<X<XXXXXXXoXoXXXXXoXXXXXXXoXoXXX_.2X6XE.k.| O.$.6.6.6.6.6.6.6.6.6.6.6.7.7.6.6.6.6.6.6.6.6.6.6.6.6.6.6.6.6.6.6.6.6.6.6.6.6.6.6.6.6.6.6.6.6.6.6.6.6.6.6.6.6.6.6.6.6.6.6.6.6.6.6.6.6.6.6.6.6.6.6.6.6.6.6.6.6.6.6.6.6.6.6.6.6.6.6.6.6.6.6.6.6.6.6.6.6.6.6.6.6.6.6.6.6.6.6.6.6.6.6.6.7.7.7.7.6.$.&.@.&.@.@.@.@.$.t.9.$.O...z.(.CXrX=X-X*X*X<X<X'.oXiX3XF.,.[ #.@.3.+.+.9.*.#.O.[ u.K.3XrXoXXX|.<XXXoXoXXXXXXX].XXXXoXoX].oXXXXXXX`.=XGXxXD & - y 1 0 0 0 1 y y 1 g IXIXIXIXIXIXIXIXIXIXIXIXIXIXIXIXIXIXIXIXIXIXIXIXIXIXIXIXIXIXIXIXIXIXIX",
"IXIXIXIXIXIXIXIXIXIXIXIXIXIXIXIXIXIXIXIXIXIXIXIXIXIXIXIXIXIXIXIXIXIXIXW 1 1 g 2 0 e 1 1 h < - $ H zXFX].XXoX[.].oXoXoXoXoXoXoXoXoXoXoXoXoXoXoXoXoXoXoXoXoXoXoXoXoXoXoXoXoXoXoXoXoXoXoXoXoXoXoXoXoX'.'.'.=X6X~.k.-.+.+.+.6.$.6.6.6.6.6.6.6.6.6.6.6.6.6.6.6.6.6.$.} u.T.6X4XoX<X_.*X].oXoXoX].oXoXoXoXoXoXoXoXoXoXoXoXoXoXoXoXoXoXoXoXoXoXoXoXoXoXoXoXoXoXoXoXoXoXoXoXoXoXoXoXoXoXoXoXoXoXoXoXoX].'.[.+X6X6XQ.x.( o.+.6.$.+.+.$.6.+.O.-.x. X6X<X'.oXOX<X<X<XXXXXXXoXoXXXXXoXXXXXXXoXoXXX_.2X6XE.k.| O.$.6.6.6.6.6.6.6.6.6.6.6.7.7.6.6.6.6.6.6.6.6.6.6.6.6.6.6.6.6.6.6.6.6.6.6.6.6.6.6.6.6.6.6.6.6.6.6.6.6.6.6.6.6.6.6.6.6.6.6.6.6.6.6.6.6.6.6.6.6.6.6.6.6.6.6.6.6.6.6.6.6.6.6.6.6.6.6.6.6.6.6.6.6.6.6.6.6.6.6.6.6.6.6.6.6.6.6.6.6.$.6.6.7.7.7.7.6.$.$.$.@.+.+.@.$.6.7.6.$.O...k.(.6XwX[.[.'.*X<X<XXXoXiX3XH.,./ O.:.:.:.6.9.$.#.#.{ u.K.3XrXwXXX|.<X*X].oXoXXXoX].XXXXoXoX].oXXXXXXX`.=XGXxXD & - y 1 1 0 1 1 y y 1 g IXIXIXIXIXIXIXIXIXIXIXIXIXIXIXIXIXIXIXIXIXIXIXIXIXIXIXIXIXIXIXIXIXIXIX",
"IXIXIXIXIXIXIXIXIXIXIXIXIXIXIXIXIXIXIXIXIXIXIXIXIXIXIXIXIXIXIXIXIXIXIXW 1 1 g 2 0 e 1 1 g < - $ H zXFX'.XXoX[.].oXoXoXoXoXoXoXoXoXoXoXoXoXoXoXoXoXoXoXoXoXoXoXoXoXoXoXoXoXoXoXoXoXoXoXoXoXoXoXoXoXXX'.'.1X6X(.k.;.+.+.+.6.$.6.6.6.6.6.6.6.6.6.6.6.6.6.6.6.$.6.$.} u.E.6X4XoX<X_.*X].oXoXoX].oXoXoXoXoXoXoXoXoXoXoXoXoXoXoXoXoXoXoXoXoXoXoXoXoXoXoXoXoXoXoXoXoXoXoXoXoXoXoXoXoXoXoXoXoXoXoXoXoX].'.[.+X6X6XQ.x.( o.+.6.$.$.+.$.6.+.O.-.x. XuX=X'.oXOX<X<X<XXXXXXXoXoXXXXXoXXXXXXXoXoXXX_.2X2XE.k.| O.$.6.6.6.6.6.6.6.6.6.6.6.7.7.6.6.6.6.6.6.6.6.6.6.6.6.6.6.6.6.6.6.6.6.6.6.6.6.6.6.6.6.6.6.6.6.6.6.6.6.6.6.6.6.6.6.6.6.6.6.6.6.6.6.6.6.6.6.6.6.6.6.6.6.6.6.6.6.6.6.6.6.6.6.6.6.6.6.6.6.6.6.6.6.6.6.6.6.6.6.6.6.6.6.6.6.6.6.6.6.$.$.6.7.7.7.7.7.6.6.6.7.6.7.7.7.:.w.$.+.O.| k.(.6XwX].[.'.XXOXOXXX<XiXNXH.,.} %.6.>.>.7.0.0.+.+.[ u.K.3XeXwXoXXX*X*X].oXoXoXoXoXXXXXoXoX].].XXXXXX`.=XGXxXD & - y y e e 1 1 y y 1 g IXIXIXIXIXIXIXIXIXIXIXIXIXIXIXIXIXIXIXIXIXIXIXIXIXIXIXIXIXIXIXIXIXIXIX",
"IXIXIXIXIXIXIXIXIXIXIXIXIXIXIXIXIXIXIXIXIXIXIXIXIXIXIXIXIXIXIXIXIXIXIXW 1 y g 2 1 e 1 1 g < = $ H zXFX'.XXoX[.].oXoXoXoXoXoXoXoXoXoXoXoXoXoXoXoXoXoXoXoXoXoXoXoXoXoXoXoXoXoXoXoXoXoXoXoXoXoXoXoXoXXX'.'.1X6X(.k.;.+.+.+.6.$.6.6.6.6.6.6.6.6.6.6.6.6.6.6.6.$.$.$.} u.E.6X4XoX<X_.*X].oXoXoX].oXoXoXoXoXoXoXoXoXoXoXoXoXoXoXoXoXoXoXoXoXoXoXoXoXoXoXoXoXoXoXoXoXoXoXoXoXoXoXoXoXoXoXoXoXoXoXoXoX].'.[.+X6X6XQ.x.( o.+.6.$.+.+.$.6.+.+.-.x. XuX=X'.oXOX<X<X<XXXXXXXoXoXXXXXoXXXXXXXoXoXXX_.2X2XE.k.| O.$.6.6.6.6.6.6.6.6.6.6.6.7.7.6.6.6.6.6.6.6.6.6.6.6.6.6.6.6.6.6.6.6.6.6.6.6.6.6.6.6.6.6.6.6.6.6.6.6.6.6.6.6.6.6.6.6.6.6.6.6.6.6.6.6.6.6.6.6.6.6.6.6.6.6.6.6.6.6.6.6.6.6.6.6.6.6.6.6.6.6.6.6.6.6.6.6.6.6.6.6.6.6.6.6.6.6.6.6.6.@.@.:.7.7.7.7.6.6.6.6.7.7.7.7.6.:.:.$.+.O.| k.(.CXrX].[.XX+X+X+XXX<XiX3XH.,./ %.7.7.7.7.0.7.:.+.} <.R.3XeXwXoXXX*X*X].].oXoXoXoXXXXXoXoX].].XXXXXX`.=XGXxXD & - y y e 4 1 1 1 1 1 g IXIXIXIXIXIXIXIXIXIXIXIXIXIXIXIXIXIXIXIXIXIXIXIXIXIXIXIXIXIXIXIXIXIXIX",
"IXIXIXIXIXIXIXIXIXIXIXIXIXIXIXIXIXIXIXIXIXIXIXIXIXIXIXIXIXIXIXIXIXIXIXW 1 1 g 1 1 g 1 1 g < = $ H zXFX=X'.oX[.'.oXoXoXoXoXoXoXoXoXoXoXoXoXoXoXoXoXoXoXoXoXoXoXoXoXoXoXoXoXoXoXoXoXoXoXoXoXoXoXoXoXXXXX'.].2X~.k.;.+.+.+.6.6.6.6.6.6.6.6.6.6.6.6.6.6.$.6.6.6.6.$.} u.T.6X4XoX<X_.=X].oXoXoX].oXoXoXoXoXoXoXoXoXoXoXoXoXoXoXoXoXoXoXoXoXoXoXoXoXoXoXoXoXoXoXoXoXoXoXoXoXoXoXoXoXoXoXoXoXoXoXoXoX].<X[.XX4X6X/.x.( :.:.:.$.$.$.6.6.$...,.x./.uXyX[.oXOX<X<X<XXXXXXXoXoXXXXXoXXXXXXXoX'.XX<X=X2X~.k.| O.$.6.6.6.6.6.6.6.6.6.6.6.6.7.6.6.6.6.6.6.6.6.6.6.6.6.6.6.6.6.6.6.6.6.6.6.6.6.6.6.6.6.6.6.6.6.6.6.6.6.6.6.6.6.6.6.6.6.6.6.6.6.6.6.6.6.6.6.6.6.6.6.6.6.6.6.6.6.6.6.6.6.6.6.6.6.6.6.6.6.6.6.6.6.6.6.6.6.6.6.6.6.6.6.6.6.6.6.6.:.@.+.:.7.0.7.6.%.&.&.+.+.6.w.w.$.6.6.7.w.O.| v.(.3X1X=X'.'.'.+XoX[.[.iXMXG.,.[ *.*.*.9.9.9.9.6.w./ j.R.<XwXwXXX<X*X*X].].oXoXoXoXXXXXoXoXoXoXXXXXXX`.-XGXxXD % - y 1 p 4 1 1 1 p g 0 IXIXIXIXIXIXIXIXIXIXIXIXIXIXIXIXIXIXIXIXIXIXIXIXIXIXIXIXIXIXIXIXIXIXIX",
"IXIXIXIXIXIXIXIXIXIXIXIXIXIXIXIXIXIXIXIXIXIXIXIXIXIXIXIXIXIXIXIXIXIXIXW 1 1 g 1 1 g 1 1 g < = $ H zXFX=X'.oX[.'.oXoXoXoXoXoXoXoXoXoXoXoXoXoXoXoXoXoXoXoXoXoXoXoXoXoXoXoXoXoXoXoXoXoXoXoXoXoXoXoXoXXXXX'.].4X~.k.;.+.+.+.6.6.6.6.6.6.6.6.6.6.6.6.6.6.$.$.6.6.6.$.[ 5.T.6X4XoX<X_.*X].oXoXoX].oXoXoXoXoXoXoXoXoXoXoXoXoXoXoXoXoXoXoXoXoXoXoXoXoXoXoXoXoXoXoXoXoXoXoXoXoXoXoXoXoXoXoXoXoXoXoXoXoX].<X[.XX4X6X/.x.( :.:.:.$.$.$.6.6.$...;.x./.6XyX[.oXOX<X<X<XXXXXXXoXoXXXXXoXXXXXXXoX'.XX<X=X2X~.k.| O.$.w.6.6.6.6.6.6.6.6.6.6.6.7.6.6.6.6.6.6.6.6.6.6.6.6.6.6.6.6.6.6.6.6.6.6.6.6.6.6.6.6.6.6.6.6.6.6.6.6.6.6.6.6.6.6.6.6.6.6.6.6.6.6.6.6.6.6.6.6.6.6.6.6.6.6.6.6.6.6.6.6.6.6.6.6.6.6.6.6.6.6.6.6.6.6.6.6.6.6.6.6.6.6.6.6.6.6.6.:.@.+.:.7.0.9.$.%.O.O. .} } | O. .X.o.o.o.^ ) k.~.BXCX6X2X2X4XyXyX2X2XpXMXG.,.^ { X.X.O.X.o.o.| | ) f.T.,XrXwXXXXX*X*X].].oXoXoXXXXXXXoXoXoXoXXXXXXX`.-XGXxXD % - y 1 0 1 1 1 4 p d 0 IXIXIXIXIXIXIXIXIXIXIXIXIXIXIXIXIXIXIXIXIXIXIXIXIXIXIXIXIXIXIXIXIXIXIX",
"IXIXIXIXIXIXIXIXIXIXIXIXIXIXIXIXIXIXIXIXIXIXIXIXIXIXIXIXIXIXIXIXIXIXIXW 1 1 g 1 1 g 1 1 g < = $ H zXFX=X'.oX[.'.oXoXoXoXoXoXoXoXoXoXoXoXoXoXoXoXoXoXoXoXoXoXoXoXoXoXoXoXoXoXoXoXoXoXoXoXoXoXoXoXoXXXXX'.=X2X~.k.;.+.+.+.6.6.6.6.6.6.6.6.6.6.6.6.6.6.6.$.6.6.6.$.[ <.T.6X4XoX<X_.*X].oXoXoX].oXoXoXoXoXoXoXoXoXoXoXoXoXoXoXoXoXoXoXoXoXoXoXoXoXoXoXoXoXoXoXoXoXoXoXoXoXoXoXoXoXoXoXoXoXoXoXoXoX].<X[.XX4X6X/.x.( :.:.:.$.$.$.6.6.$...,.x./.uXyX[.oXOX<X<X<XXXXXXXoXoXXXXXoXXXXXXXoX'.XX<X=X7X~.k.| O.$.6.6.6.6.6.6.6.6.6.:.:.7.7.6.6.6.6.6.6.6.6.6.6.6.6.6.6.6.6.6.6.6.6.6.6.6.6.6.6.6.6.6.6.6.6.6.6.6.6.6.6.6.6.6.6.6.6.6.6.6.6.6.6.6.6.6.6.6.6.6.6.6.6.6.6.6.6.6.6.6.6.6.6.6.6.6.6.6.6.6.6.6.6.6.6.6.6.6.6.6.6.6.6.6.6.6.6.6.:.@.+.+.7.7.6.%.O. .3.:.,.-.,.:.+.| ;.7.;.( ` z.R.mXmX5X3X3X3X4X4X5X7X5X:XG.2.( | +.o.;.;.;.-.-.,.` b.T.|.rX+XoXXX*X*X].].oXoXXXXXXXXXoXoX].].XXXXXX`.-XGXxXD % - y 1 1 1 1 1 1 1 1 1 IXIXIXIXIXIXIXIXIXIXIXIXIXIXIXIXIXIXIXIXIXIXIXIXIXIXIXIXIXIXIXIXIXIXIX",
"IXIXIXIXIXIXIXIXIXIXIXIXIXIXIXIXIXIXIXIXIXIXIXIXIXIXIXIXIXIXIXIXIXIXIXW 1 1 g 1 1 e 1 1 h < = $ H zXFX=X'.oX[.'.oXoXoXoXoXoXoXoXoXoXoXoXoXoXoXoXoXoXoXoXoXoXoXoXoXoXoXoXoXoXoXoXoXoXoXoXoXoXoXoXoXXXXX'.=X2X~.k.;.+.+.+.6.6.6.:.6.6.6.6.6.6.6.6.6.6.6.$.$.6.6.$.[ 5.T.6X4XoX<X_.*X].oXoXoX].oXoXoXoXoXoXoXoXoXoXoXoXoXoXoXoXoXoXoXoXoXoXoXoXoXoXoXoXoXoXoXoXoXoXoXoXoXoXoXoXoXoXoXoXoXoXoXoXoX].<X[.XX4X6X/.x.( :.:.:.$.$.$.6.6.$...,.x./.uXyX[.oXOX<X<X<XXXXXXXoXoXXXoXoXXXXXXXoX'.XX<X=X7X~.k.| O.$.6.6.6.6.6.6.6.:.:.:.:.7.7.6.6.6.6.6.6.6.6.6.6.6.6.6.6.6.6.6.6.6.6.6.6.6.6.6.6.6.6.6.6.6.6.6.6.6.6.6.6.6.6.6.6.6.6.6.6.6.6.6.6.6.6.6.6.6.6.6.6.6.6.6.6.6.6.6.6.6.6.6.6.6.6.6.6.6.6.6.6.6.6.6.6.6.6.6.6.6.6.6.6.6.6.6.6.6.:.@.+.:.6.7.6.$.O.3.l.D.c.c.c.C.C.l.x.C.c.x.v.A.H.K.Y.Y.Y.Y.Y.T.T.Y.K.Y.K.F.n.c.x.x.x.x.x.x.x.v.c.b.S.!.*X1XoXXXXX*X=X].].oXoXXXXXXXXXoXoX].].XXXXXX`.-XGXxXD % - y 1 1 1 1 1 1 1 1 1 IXIXIXIXIXIXIXIXIXIXIXIXIXIXIXIXIXIXIXIXIXIXIXIXIXIXIXIXIXIXIXIXIXIXIX",
"IXIXIXIXIXIXIXIXIXIXIXIXIXIXIXIXIXIXIXIXIXIXIXIXIXIXIXIXIXIXIXIXIXIXIXW 1 1 h 1 1 g 1 4 h < = $ H zXFX=X'.oX[.'.oXoXoXoXoXoXoXoXoXoXoXoXoXoXoXoXoXoXoXoXoXoXoXoXoXoXoXoXoXoXoXoXoXoXoXoXoXoXoXoXoXXXXX].=X4X~.k.;.+.+.+.6.6.6.:.6.6.6.6.6.6.6.6.6.6.6.6.$.6.6.$.} 5.T.6X4XoX<X_.*X].oXoXoX].oXoXoXoXoXoXoXoXoXoXoXoXoXoXoXoXoXoXoXoXoXoXoXoXoXoXoXoXoXoXoXoXoXoXoXoXoXoXoXoXoXoXoXoXoXoXoXoXoX].<X[.XX4X6X/.x.( :.:.:.$.$.&.6.6.$.| ;.x./.uX1X[.XXOX<X<X<XXXXXXXoXoXXXXXoXXXXXXXoX'.XX'.=X2X~.k.| O.$.6.6.6.6.6.6.6.6.6.:.:.:.7.6.6.6.6.6.6.6.6.6.6.6.6.6.6.6.6.6.6.6.6.6.6.6.6.6.6.6.6.6.6.6.6.6.6.6.6.6.6.6.6.6.6.6.6.6.6.6.6.6.6.6.6.6.6.6.6.6.6.6.6.6.6.6.6.6.6.6.6.6.6.6.6.6.6.6.6.6.6.6.6.6.6.6.6.6.6.6.6.6.6.6.6.6.6.6.:.3.@.$.6.7.6.:.-.1.F.(..X.X.X/.(.Q.!./..X/.~.G.c.f.h.h.y.y.y.h.h.y.1.h.z.G.~.lXlX/.(.(./././././.)./.&X*X<XoXXXXXXX].].].oXoXXX<XXXXXoXoX].].XXXXXX[.-XGXxXD % - y y 1 1 1 1 0 0 1 1 IXIXIXIXIXIXIXIXIXIXIXIXIXIXIXIXIXIXIXIXIXIXIXIXIXIXIXIXIXIXIXIXIXIXIX",
"IXIXIXIXIXIXIXIXIXIXIXIXIXIXIXIXIXIXIXIXIXIXIXIXIXIXIXIXIXIXIXIXIXIXIXW 1 1 h 1 1 g 1 4 h < = $ H zXFX=XXXoX'.'.oXoXoXoXoXoXoXoXoXoXoXoXoXoXoXoXoXoXoXoXoXoXoXoXoXoXoXoXoXoXoXoXoXoXoXoXoXoXoXoXoXXXXX].=X2X~.k.;.+.+.+.6.6.6.:.6.6.6.6.6.6.6.6.6.6.$.6.$.6.6.$.} u.T.6X4XoX<X_.*X].oXoXoX].oXoXoXoXoXoXoXoXoXoXoXoXoXoXoXoXoXoXoXoXoXoXoXoXoXoXoXoXoXoXoXoXoXoXoXoXoXoXoXoXoXoXoXoXoXoXoXoXoX].<X[.XX4X6X/.x.( :.:.:.$.$.&.6.6.$.| ;.x./.uX1X[.XXOX<X<X<XXXXXXXoXoXXXXXoXXXXXXXoX'.XX'.=X2X~.k.| O.$.6.6.6.6.6.6.6.6.6.:.:.6.7.6.6.6.6.6.6.6.6.6.6.6.6.6.6.6.6.6.6.6.6.6.6.6.6.6.6.6.6.6.6.6.6.6.6.6.6.6.6.6.6.6.6.6.6.6.6.6.6.6.6.6.6.6.6.6.6.6.6.6.6.6.6.6.6.6.6.6.6.6.6.6.6.6.6.6.6.6.6.6.6.6.6.6.6.6.6.6.6.6.6.6.6.6.6.6.6.w.+.6.6.7.6.:.,.1.K.BXZXZXZXCX5X6X2XyXuXDXBXY.f.` ( ( X.O.X.X.| o.| ( 2.M.mXJXZXCXMXMXMX6XuXyXCXMX5X7X*X*XXXXX+XoX].].].oXoXXX<XXXXXoXoX].].XXXXXX[.-XGXxXD % - y 0 1 1 1 1 d g 1 1 IXIXIXIXIXIXIXIXIXIXIXIXIXIXIXIXIXIXIXIXIXIXIXIXIXIXIXIXIXIXIXIXIXIXIX",
"IXIXIXIXIXIXIXIXIXIXIXIXIXIXIXIXIXIXIXIXIXIXIXIXIXIXIXIXIXIXIXIXIXIXIXW 1 1 h 1 1 g 1 0 h < = $ H zXFX=X'.oX'.'.oXoXoXoXoXoXoXoXoXoXoXoXoXoXoXoXoXoXoXoXoXoXoXoXoXoXoXoXoXoXoXoXoXoXoXoXoXoXoXoXoXXXXX].].4X~.k.;.+.+.+.6.6.6.:.6.6.6.6.6.6.6.6.6.6.$.6.6.6.6.$.} u.T.6X4XoX<X_.*X].oXoXoX].oXoXoXoXoXoXoXoXoXoXoXoXoXoXoXoXoXoXoXoXoXoXoXoXoXoXoXoXoXoXoXoXoXoXoXoXoXoXoXoXoXoXoXoXoXoXoXoXoX].<X'.+X4X6X/.x.( :.:.:.$.$.$.6.6.$.| ;.x./.uXyX[.oXXX<X<X<XXXXXXXoXoXXXXXXXXXXXXXoX'.XXXX=X2X~.k.| O.$.6.6.6.6.6.6.6.6.6.:.:.6.6.6.6.6.6.6.6.6.6.6.6.6.6.6.6.6.6.6.6.6.6.6.6.6.6.6.6.6.6.6.6.6.6.6.6.6.6.6.6.6.6.6.6.6.6.6.6.6.6.6.6.6.6.6.6.6.6.6.6.6.6.6.6.6.6.6.6.6.6.6.6.6.6.6.6.6.6.6.6.6.6.6.6.6.6.6.6.6.6.6.6.6.6.6.6.6.6.w.6.7.0.9.6.+.-.2.G.MXCXrXrX1X7X3X4XwXrXZXBXR.f.( ( X.X.O.=.O. .%.O./ ` A.NXAXwXrX1X2X2X2X4XyXyXCX4X*X&X*X<XXX+XoX].].].].oXXX<XXXXXoXoX].oXXXXXXX[.-XHXxXD & - y p g 1 1 1 1 g 1 1 IXIXIXIXIXIXIXIXIXIXIXIXIXIXIXIXIXIXIXIXIXIXIXIXIXIXIXIXIXIXIXIXIXIXIX",
"IXIXIXIXIXIXIXIXIXIXIXIXIXIXIXIXIXIXIXIXIXIXIXIXIXIXIXIXIXIXIXIXIXIXIXW 1 1 h 1 1 g 1 1 g < = $ H zXFX=X'.oX'.'.oXoXoXoXoXoXoXoXoXoXoXoXoXoXoXoXoXoXoXoXoXoXoXoXoXoXoXoXoXoXoXoXoXoXoXoXoXoXoXoXoXXXXX'.=X4X~.k.;.+.+.:.6.6.6.:.6.6.6.6.6.6.6.6.6.6.6.6.6.6.6.6.} q.T.6X4XoX<X'.].].oXoXoX].oXoXoXoXoXoXoXoXoXoXoXoXoXoXoXoXoXoXoXoXoXoXoXoXoXoXoXoXoXoXoXoXoXoXoXoXoXoXoXoXoXoXoXoXoXoXoXoXoX].<X[.XX4X6X/.x.( :.:.+.$.$.&.6.6.$.o.;.x./.uXyX[.oXOX<X<XXXXXXXXXoXoXXXXXXXXXXXXXoX'.XXXX=X2X~.k.| O.$.6.6.6.6.6.6.6.6.6.:.:.6.7.6.6.6.6.6.6.6.6.6.6.6.6.6.6.6.6.6.6.6.6.6.6.6.6.6.6.6.6.6.6.6.6.6.6.6.6.6.6.6.6.6.6.6.6.6.6.6.6.6.6.6.6.6.6.6.6.6.6.6.6.6.6.6.6.6.6.6.6.6.6.6.6.6.6.6.6.6.6.6.6.6.6.6.6.6.6.6.6.6.6.6.6.6.6.6.6.w.6.6.6.9.$.+...,.S.5XyX[.[.'._.XXoX].[.rXMXR.j.;.%.$.*.*.*.&.@.*.&.[ -.A.5XiX9X].'._.&X'.'.'.'.oX'._.`.&X<X+XoXoX].].].].oXXXXXXXXXoXoX].].XXXXXX'.-XHXxXD & - y p g 0 1 1 1 p 1 1 IXIXIXIXIXIXIXIXIXIXIXIXIXIXIXIXIXIXIXIXIXIXIXIXIXIXIXIXIXIXIXIXIXIXIX",
"IXIXIXIXIXIXIXIXIXIXIXIXIXIXIXIXIXIXIXIXIXIXIXIXIXIXIXIXIXIXIXIXIXIXIXW 1 y g 1 1 e 1 1 h y = $ H zXFX=XXXoX'.].oXoXoXoXoXoXoXoXoXoXoXoXoXoXoXoXoXoXoXoXoXoXoXoXoXoXoXoXoXoXoXoXoXoXoXoXoXoXoXXX<XXX'.'.1X6X~.k.| O.+.:.6.6.6.:.6.6.6.6.6.6.6.6.6.6.6.6.$.$.$.$.} q.T.6X4XoXXX'.].].XXXXXX].oXoXoXoXoXoXoXoXoXoXoXoXoXoXoXoXoXoXoXoXoXoXoXoXoXoXoXoXoXoXoXoXoXoXoXoXoXoXoXoXoXoXoXoXoXoXoXoXoX].'.'.+X6X6XQ.x.( +.+.w.w.$.:.7.6.6.O.-.x./.uX<XoXoXoX<X<XOXOXXXXXoXoXXXXXoXoXoXoXXX<XXX'.tX6XR.k.| O.$.6.6.6.6.6.6.6.6.6.6.6.7.6.6.6.6.6.6.6.6.6.6.6.6.6.6.6.6.6.6.6.6.6.6.6.6.6.6.6.6.6.6.6.6.6.6.6.6.6.6.6.6.6.6.6.6.6.6.6.6.6.6.6.6.6.6.6.6.6.6.6.6.6.6.6.6.6.6.6.6.6.6.6.6.6.6.6.6.6.6.6.6.6.6.6.6.6.6.6.6.6.6.6.6.6.6.6.6.:.>.:.:.6.6.6.+. .2.G.5XyX].'.<XXXoX].0X0XqX6X^.j.o.%.o.7.9.$.#.#.@.@.[ ,.A.,XiX0XoX<X*X*X*X*X-X-X].].*X<X<X<XoXoXoX].].].oXoX].'.XXXXoXoXoXoX'.XXXX_.=XGXxXD * = y 1 g g 1 1 1 1 1 1 IXIXIXIXIXIXIXIXIXIXIXIXIXIXIXIXIXIXIXIXIXIXIXIXIXIXIXIXIXIXIXIXIXIXIX",
"IXIXIXIXIXIXIXIXIXIXIXIXIXIXIXIXIXIXIXIXIXIXIXIXIXIXIXIXIXIXIXIXIXIXIXW 1 y g 1 1 e 1 1 h y = $ H zXFX=XXXoX'.].oXoXoXoXoXoXoXoXoXoXoXoXoXoXoXoXoXoXoXoXoXoXoXoXoXoXoXoXoXoXoXoXoXoXoXoXoXoXoXXX<X|.'.'.1X6X~.k.| O.+.:.7.6.6.:.6.6.6.6.6.6.6.6.6.6.6.6.$.$.$.$.} q.T.6X4XoXXX'.].].XX<XXX].oXoXoXoXoXoXoXoXoXoXoXoXoXoXoXoXoXoXoXoXoXoXoXoXoXoXoXoXoXoXoXoXoXoXoXoXoXoXoXoXoXoXoXoXoXoXoXoXoX'.'.'.+X6X6XQ.x.| +.+.&.w.$.+.7.6.6.O.-.x./.CX<XoXoXoX<X<XOXOXXXXXoXXXXXXXoXoXoXXXXX<XXX'.rX6XR.j.| O.$.6.6.6.6.6.6.6.6.6.6.6.7.7.6.6.6.6.6.6.6.6.6.6.6.6.6.6.6.6.6.6.6.6.6.6.6.6.6.6.6.6.6.6.6.6.6.6.6.6.6.6.6.6.6.6.6.6.6.6.6.6.6.6.6.6.6.6.6.6.6.6.6.6.6.6.6.6.6.6.6.6.6.6.6.6.6.6.6.6.6.6.6.6.6.6.6.6.6.6.6.6.6.6.6.6.6.6.6.:.>.:.+.+.7.6.%. .2.G.5XiX'.'.XXXXoX].].].qX2X^.y.%.%.7.7.7.0.@.@.@.#.{ :.A.,XiX0XXXXXXXXXXX*X-X-X].].XX<X<XXXoXoX].].oXoXoXoX].].XXXXoXoXoXoX'.XXXX_.-XGXxXD * = y 0 d g 1 1 1 1 1 1 IXIXIXIXIXIXIXIXIXIXIXIXIXIXIXIXIXIXIXIXIXIXIXIXIXIXIXIXIXIXIXIXIXIXIX",
"IXIXIXIXIXIXIXIXIXIXIXIXIXIXIXIXIXIXIXIXIXIXIXIXIXIXIXIXIXIXIXIXIXIXIXW 1 y g 1 1 e 1 1 h y = $ H zXFX=XXXoX'.].oXoXoXoXoXoXoXoXoXoXoXoXoXoXoXoXoXoXoXoXoXoXoXoXoXoXoXoXoXoXoXoXoXoXoXoXoXoXoXXX<X|.'.'.1X6X~.k.| O.+.:.7.6.6.:.6.6.6.6.6.6.6.6.6.6.6.6.6.6.$.6.| q.T.6X4XoXXX'.].].XX<XXX].oXoXoXoXoXoXoXoXoXoXoXoXoXoXoXoXoXoXoXoXoXoXoXoXoXoXoXoXoXoXoXoXoXoXoXoXoXoXoXoXoXoXoXoXoXoXoXoXoX'.'.[.+X6X6XQ.x.| +.+.&.&.$.+.7.6.6.O.-.x./.CX<XoXoXXX<X<XOXOXXXXXoXXXXXXXoXoXoXXXXX<XXX'.rX6XR.j.| O.+.6.6.6.6.6.6.6.6.6.6.6.7.7.6.6.6.6.6.6.6.6.6.6.6.6.6.6.6.6.6.6.6.6.6.6.6.6.6.6.6.6.6.6.6.6.6.6.6.6.6.6.6.6.6.6.6.6.6.6.6.6.6.6.6.6.6.6.6.6.6.6.6.6.6.6.6.6.6.6.6.6.6.6.6.6.6.6.6.6.6.6.6.6.6.6.6.6.6.6.6.6.6.6.6.6.6.6.6.7.:.:.+.$.6.6.%.| 2.J.6XrX[.].oXXXXX_.'.].0X2X^.y.+.%.0.7.8.0.6.+.3.+.{ ;.A.>XiX0XoXXXoXoX+X+XoX].].].oXXXXXXXoXoX].].].].oXoXoXoXXXXXoXoXoXoX'.XXXX_.=XGXxXD % = y 1 4 p 1 1 d 0 1 1 IXIXIXIXIXIXIXIXIXIXIXIXIXIXIXIXIXIXIXIXIXIXIXIXIXIXIXIXIXIXIXIXIXIXIX",
"IXIXIXIXIXIXIXIXIXIXIXIXIXIXIXIXIXIXIXIXIXIXIXIXIXIXIXIXIXIXIXIXIXIXIXW 1 y g 1 1 e 1 1 h y = $ H zXFX=XXXoX'.].oXoXoXoXoXoXoXoXoXoXoXoXoXoXoXoXoXoXoXoXoXoXoXoXoXoXoXoXoXoXoXoXoXoXoXoXoXoXoXXX<X|.'.'.rX6X~.k.| O.+.:.7.6.6.:.6.6.6.6.6.6.6.6.6.6.6.6.6.6.6.6.| y.T.6X4XoXXX'.].].XX<XXX].oXoXoXoXoXoXoXoXoXoXoXoXoXoXoXoXoXoXoXoXoXoXoXoXoXoXoXoXoXoXoXoXoXoXoXoXoXoXoXoXoXoXoXoXoXoXoXoXoX'.'.[.+X6X6XQ.x.( +.+.&.&.$.+.7.6.6.O.-.x./.CX<XoXoXXX<X<XOXOXXXXXoXXXXXXXoXoXoXXXXX<XXX'.rX2XR.j.| O.$.6.6.6.6.6.6.6.6.6.6.6.7.7.6.6.6.6.6.6.6.6.6.6.6.6.6.6.6.6.6.6.6.6.6.6.6.6.6.6.6.6.6.6.6.6.6.6.6.6.6.6.6.6.6.6.6.6.6.6.6.6.6.6.6.6.6.6.6.6.6.6.6.6.6.6.6.6.6.6.6.6.6.6.6.6.6.6.6.6.6.6.6.6.6.6.6.6.6.6.6.6.6.6.6.6.6.6.6.6.6.:.+.%.6.6.+.| 2.G.6XiX].].<XXXXX_.'.].=X7X^.y.O.%.6.7.7.0.6.+.@.+.X.;.A.,XuX].oX<XoXoX+X+X+X+XoX].oXoXoXoXoXoX].].].].oXoXoXoXXXXXoXoXoXoX'.XXXX_.=XGXxXD % - y 1 1 1 1 1 g g 1 1 IXIXIXIXIXIXIXIXIXIXIXIXIXIXIXIXIXIXIXIXIXIXIXIXIXIXIXIXIXIXIXIXIXIXIX",
"IXIXIXIXIXIXIXIXIXIXIXIXIXIXIXIXIXIXIXIXIXIXIXIXIXIXIXIXIXIXIXIXIXIXIXW 1 y g 1 1 e 1 1 h y = $ H zXFX=XXXoX'.].oXoXoXoXoXoXoXoXoXoXoXoXoXoXoXoXoXoXoXoXoXoXoXoXoXoXoXoXoXoXoXoXoXoXoXoXoXoXoXXX<X|.'.'.rX6X~.k.| O.+.:.7.6.6.+.6.6.6.6.6.6.6.6.6.6.6.6.6.6.6.6.} q.T.6X4XoXXX'.].].oX<XXX].oXoXoXoXoXoXoXoXoXoXoXoXoXoXoXoXoXoXoXoXoXoXoXoXoXoXoXoXoXoXoXoXoXoXoXoXoXoXoXoXoXoXoXoXoXoXoXoXoX'.'.[.+X4X6XQ.x.| +.+.&.&.$.+.7.6.6.+.-.x./.6X<XoXoXXX<X<XOXOXXX'.oXoXoXXXoXoXoXXXXX<XXX'.rX6XR.j.| O.$.6.6.6.6.6.6.6.6.6.6.6.7.7.6.6.6.6.6.6.6.6.6.6.6.6.6.6.6.6.6.6.6.6.6.6.6.6.6.6.6.6.6.6.6.6.6.6.6.6.6.6.6.6.6.6.6.6.6.6.6.6.6.6.6.6.6.6.6.6.6.6.6.6.6.6.6.6.6.6.6.6.6.6.6.6.6.6.6.6.6.6.6.6.6.6.6.6.6.6.6.6.6.6.6.6.6.6.6.6.6.6.+.%.6.6.+.| 2.S.7XtX[._.*X|.OX+X+X+XrX6X^.j.O.O.+.:.6.:.@.@.&.%.X.;.A.,XuX=X'.'.'.XXXXOX|.XXoXoXoXoXoXoXoXoXoXoX].].'.oXoXoXXXXXoXoXoXoXXXXXXX_.-XGXxXD % - y 1 1 1 1 1 y 1 1 1 IXIXIXIXIXIXIXIXIXIXIXIXIXIXIXIXIXIXIXIXIXIXIXIXIXIXIXIXIXIXIXIXIXIXIX",
"IXIXIXIXIXIXIXIXIXIXIXIXIXIXIXIXIXIXIXIXIXIXIXIXIXIXIXIXIXIXIXIXIXIXIXW 1 y g 1 1 e 1 1 h y = $ H zXFX=XXXoX'.].oXoXoXoXoXoXoXoXoXoXoXoXoXoXoXoXoXoXoXoXoXoXoXoXoXoXoXoXoXoXoXoXoXoXoXoXoXoXoXXX<X|.'.'.1X6X~.k.| O.+.:.7.6.6.:.6.6.6.6.6.6.6.6.6.6.6.6.6.6.6.6.} q.T.6X4XoXXX'.].].XX<XXX].oXoXoXoXoXoXoXoXoXoXoXoXoXoXoXoXoXoXoXoXoXoXoXoXoXoXoXoXoXoXoXoXoXoXoXoXoXoXoXoXoXoXoXoXoXoXoXoXoX'.'.[.+X6X6XQ.x.( +.+.w.&.$.+.7.6.6.+.-.x./.6X<XoXoXXX<X<XOXOXXXXXoXoXoXoXoXoXoXXXXX<XXX'.rX6XR.j.| O.$.6.6.6.6.6.6.6.6.6.6.6.7.7.6.6.6.6.6.6.6.6.6.6.6.6.6.6.6.6.6.6.6.6.6.6.6.6.6.6.6.6.6.6.6.6.6.6.6.6.6.6.6.6.6.6.6.6.6.6.6.6.6.6.6.6.6.6.6.6.6.6.6.6.6.6.6.6.6.6.6.6.6.6.6.6.6.6.6.6.6.6.6.6.6.6.6.6.6.6.6.6.6.6.6.6.6.6.6.6.6.$.+.%.6.6.+.| 2.S.,X2X[._.'.'.+X+X+XeXyXMX~.j.+.O.+.w.w.w.@.@.&.%.} ,.A.,XuX=X[.[.'.'.|.|.|.|.XXoXoX0XoXoXoXoXoXoX].].'.].oXoXXXXXoXoXoXoXXXXXXX_.=XGXxXD % - y 1 4 1 1 1 1 1 1 1 IXIXIXIXIXIXIXIXIXIXIXIXIXIXIXIXIXIXIXIXIXIXIXIXIXIXIXIXIXIXIXIXIXIXIX",
"IXIXIXIXIXIXIXIXIXIXIXIXIXIXIXIXIXIXIXIXIXIXIXIXIXIXIXIXIXIXIXIXIXIXIXW 1 y g 1 1 e 1 1 h y = $ H zXFX=XXXoX'.*XoXoXoXoXoXoXoXoXoXoXoXoXoXoXoXoXoXoXoXoXoXoXoXoXoXoXoXoXoXoXoXoXoXoXoXoXoXoXoXXX<XXX'.'.1X6X~.k.| O.+.:.7.6.6.:.6.6.6.6.6.6.6.6.6.6.6.6.6.$.6.$.} q.T.6X4XoXXX'.].].XX<XXX].oXoXoXoXoXoXoXoXoXoXoXoXoXoXoXoXoXoXoXoXoXoXoXoXoXoXoXoXoXoXoXoXoXoXoXoXoXoXoXoXoXoXoXoXoXoXoXoXoX'.'.[.+X6X6XQ.x.| +.+.w.w.$.+.7.6.6.O.-.x./.6X<XoXoXXX<X<XOXOXXX'.oXoXXXXXoXoXoXXXXX<XXX'.rX6XR.j.| O.$.6.6.6.6.6.6.6.:.:.6.6.7.7.6.6.6.6.6.6.6.6.6.6.6.6.6.6.6.6.6.6.6.6.6.6.6.6.6.6.6.6.6.6.6.6.6.6.6.6.6.6.6.6.6.6.6.6.6.6.6.6.6.6.6.6.6.6.6.6.6.6.6.6.6.6.6.6.6.6.6.6.6.6.6.6.6.6.6.6.6.6.6.6.6.6.6.6.6.6.6.6.6.6.6.6.6.6.6.6.6.$.@.@.6.7.:.-.1.J.MXuXoXoX1X+X1XoXwXrXyXMX~.g.| } O.%.$.$.%.O.&.+.| ,.A.>XCX0X].].0X=X<X<X<X<X<XXXoX].].].].oXXXXX'.*X*X'.oXoXXXXXoXoXoXoX'.XXXX_.=XGXxXD * = y 1 y y 1 1 1 1 1 1 IXIXIXIXIXIXIXIXIXIXIXIXIXIXIXIXIXIXIXIXIXIXIXIXIXIXIXIXIXIXIXIXIXIXIX",
"IXIXIXIXIXIXIXIXIXIXIXIXIXIXIXIXIXIXIXIXIXIXIXIXIXIXIXIXIXIXIXIXIXIXIXW 1 y g 1 1 e 1 1 h y = $ H zXFX=XXXoX'.*XoXoXoXoXoXoXoXoXoXoXoXoXoXoXoXoXoXoXoXoXoXoXoXoXoXoXoXoXoXoXoXoXoXoXoXoXoXoXoXXX<XXX'.'.1X6X~.k.| O.+.:.7.6.6.:.6.6.6.6.6.6.6.6.6.6.6.6.6.$.$.$.} q.T.5X4XoXXX'.].].XX<XXX].oXoXoXoXoXoXoXoXoXoXoXoXoXoXoXoXoXoXoXoXoXoXoXoXoXoXoXoXoXoXoXoXoXoXoXoXoXoXoXoXoXoXoXoXoXoXoXoXoX'.'.[.+X6X6XQ.x.| +.+.w.w.$.+.7.6.6.O.-.x./.uX<XoXXXXX<X<XOXOXXX'.oXXXXXXXoXoXoXXXXX<XXX'.rX6XR.j.| O.$.6.6.6.6.6.6.6.:.+.:.:.7.7.6.6.6.6.6.6.6.6.6.6.6.6.6.6.6.6.6.6.6.6.6.6.6.6.6.6.6.6.6.6.6.6.6.6.6.6.6.6.6.6.6.6.6.6.6.6.6.6.6.6.6.6.6.6.6.6.6.6.6.6.6.6.6.6.6.6.6.6.6.6.6.6.6.6.6.6.6.6.6.6.6.6.6.6.6.6.6.6.6.6.6.6.6.6.6.6.$.$.@.@.6.7.;.-.f.^.BXSXuXCXZXCX4X<X1X4X6XBX~.b.( ( | | o.o.o.| :.-.` 2.A.mXBX4XuXuXuXuX6X6X6X5X>X,XoX].].].].<X<XXX*X*X*X'.oXoXoXXXoXoXoXoX'.XXXX_.=XGXxXD * = y 1 y y 1 1 1 1 1 1 IXIXIXIXIXIXIXIXIXIXIXIXIXIXIXIXIXIXIXIXIXIXIXIXIXIXIXIXIXIXIXIXIXIXIX",
"IXIXIXIXIXIXIXIXIXIXIXIXIXIXIXIXIXIXIXIXIXIXIXIXIXIXIXIXIXIXIXIXIXIXIXW 1 y g 1 1 g 1 d g < = $ H lXFX=XXXoX'.*XXXXXoXoXoXoXoXoXoXoXoXoXoXoXoXoXoXoXoXoXoXoXoXoXoXoXoXoXoXoXoXoXoXoXoXoXoXoXoXXX<X_.'.<XrX6X~.k.| O.+.:.7.6.6.+.6.6.6.6.6.6.6.6.6.6.$.6.6.6.6.6.o.y.E.6X6XoXoX'.].].XX<XXX].oXoXoXoXoXoXoXoXoXoXoXoXoXoXoXoXoXoXoXoXoXoXoXoXoXoXoXoXoXoXoXoXoXoXoXoXoXoXoXoXoXoXoXoXoXoXoXoXoX'.<X[.XX4X6X/.x.( :.+.$.$.&.$.7.6.$.o.;.x./.uXyX'.XXXX<X<XOXXXXX'.oXXXXXXXoXoXoXXX<X'.XXXX0X2X^.j.| O.$.6.6.6.6.6.6.6.6.6.:.:.:.6.6.6.6.6.6.6.6.6.6.6.6.6.6.6.6.6.6.6.6.6.6.6.6.6.6.6.6.6.6.6.6.6.6.6.6.6.6.6.6.6.6.6.6.6.6.6.6.6.6.6.6.6.6.6.6.6.6.6.6.6.6.6.6.6.6.6.6.6.6.6.6.6.6.6.6.6.6.6.6.6.6.6.6.6.6.6.6.6.6.6.6.6.6.6.6.6.6.$.@.@.:.7.7.>.l.F.VXmXmX X/..X/. X.X.X:X$XK.c.2.2.<.<.q.q.<.<.1.1.2.f.S.(.$X/. X.X X X;X$X$X$X~.~.|.yX].[.<X<XXXXX*X*X*XoXoX+XoXXXoXoXoXoX'.XXXX<X-XAXbXD # - y 1 y y y 1 1 1 1 1 IXIXIXIXIXIXIXIXIXIXIXIXIXIXIXIXIXIXIXIXIXIXIXIXIXIXIXIXIXIXIXIXIXIXIX",
"IXIXIXIXIXIXIXIXIXIXIXIXIXIXIXIXIXIXIXIXIXIXIXIXIXIXIXIXIXIXIXIXIXIXIXW 1 y g 1 1 g 1 d g < = $ H lXFX=XXXoX'.*XXXXXoXoXoXoXoXoXoXoXoXoXoXoXoXoXoXoXoXoXoXoXoXoXoXoXoXoXoXoXoXoXoXoXoXoXoXoXoXXX<X|.'.<XrX6X~.k.| O.+.:.7.6.6.+.6.6.6.6.6.6.6.6.6.6.$.$.6.6.6.6.| y.E.6X6XoXoX'.].].XX<XXX].oXoXoXoXoXoXoXoXoXoXoXoXoXoXoXoXoXoXoXoXoXoXoXoXoXoXoXoXoXoXoXoXoXoXoXoXoXoXoXoXoXoXoXoXoXoXoXoXoX'.<X[.XX4X6X/.x.( :.+.$.$.&.$.6.6.$.o.;.x./.uXyX'.oXXX<X<XXXXXXX*XoXXXXXXXoXoXoXXX<X'.XXXX0X2X^.j.| O.$.6.6.6.6.6.6.6.6.6.:.:.:.6.6.6.6.6.6.6.6.6.6.6.6.6.6.6.6.6.6.6.6.6.6.6.6.6.6.6.6.6.6.6.6.6.6.6.6.6.6.6.6.6.6.6.6.6.6.6.6.6.6.6.6.6.6.6.6.6.6.6.6.6.6.6.6.6.6.6.6.6.6.6.6.6.6.6.6.6.6.6.6.6.6.6.6.6.6.6.6.6.6.6.6.6.6.6.6.6.6.6.:.:.:.:.6.7.>.j.A.F.A.n.n.F.n.A.M.M.n.A.A.A.G.G.H.H.H.H.J.J.L.K.G.S.F.n.c.c.m.m.m.n.A.A.A.A.v.m.!.1X=X[.*X_.<XXX'.'.*X*X+X+XoXXXoXoXoXoX'.XXXXXX-XAXbXD # - y 0 y p 1 1 1 1 1 1 IXIXIXIXIXIXIXIXIXIXIXIXIXIXIXIXIXIXIXIXIXIXIXIXIXIXIXIXIXIXIXIXIXIXIX",
"IXIXIXIXIXIXIXIXIXIXIXIXIXIXIXIXIXIXIXIXIXIXIXIXIXIXIXIXIXIXIXIXIXIXIXW 1 y g 1 1 g 1 d g < = $ D lXFX=XXX<X'.*XXXXXoXoXoXoXoXoXoXoXoXoXoXoXoXoXoXoXoXoXoXoXoXoXoXoXoXoXoXoXoXoXoXoXoXoXoXoXoXXX<X_.'.<XrX6X~.k.| O.+.:.7.6.6.+.6.6.6.6.6.6.6.6.6.6.6.$.$.6.6.6.| y.T.6X4XoXoX'.].].XX<XXX].oXoXoXoXoXoXoXoXoXoXoXoXoXoXoXoXoXoXoXoXoXoXoXoXoXoXoXoXoXoXoXoXoXoXoXoXoXoXoXoXoXoXoXoXoXoXoXoXoX'.<X'.+X4XuX/.x.( :.+.$.$.&.$.6.6.$.o.;.x./.uXyX'.oXXX<X<XXXXXXX*XoXXXXXXXoXoXoXXX<X'.XXXX0X2X^.j.| O.$.6.6.6.6.6.6.6.6.6.:.:.6.6.6.6.6.6.6.6.6.6.6.6.6.6.6.6.6.6.6.6.6.6.6.6.6.6.6.6.6.6.6.6.6.6.6.6.6.6.6.6.6.6.6.6.6.6.6.6.6.6.6.6.6.6.6.6.6.6.6.6.6.6.6.6.6.6.6.6.6.6.6.6.6.6.6.6.6.6.6.6.6.6.6.6.6.6.6.6.6.6.6.6.6.6.6.6.6.6.7.:.:.:.:.:.$.$.o.:.-.-.| -.;.:.+.| ;.,.` ,.v.K.mXmXmXmX3X5X4X3X>XmXBX:XF.2.( ( ,.;.-.-.-.,.,.,.` f.T.3X1X=X*X_.<XXX].].*X*X+X+XoXXXoXoXoXoX'.XXXXXX-XAXbXD # - y 0 e 4 e e 1 1 1 1 IXIXIXIXIXIXIXIXIXIXIXIXIXIXIXIXIXIXIXIXIXIXIXIXIXIXIXIXIXIXIXIXIXIXIX",
"IXIXIXIXIXIXIXIXIXIXIXIXIXIXIXIXIXIXIXIXIXIXIXIXIXIXIXIXIXIXIXIXIXIXIXW 1 y g 1 1 g 1 d g < = $ H lXFX=XXX<X'.*XXXXXoXoXoXoXoXoXoXoXoXoXoXoXoXoXoXoXoXoXoXoXoXoXoXoXoXoXoXoXoXoXoXoXoXoXoXoXoXXX<X_.'.<XrX6X~.k.| O.+.:.7.6.6.+.6.6.6.6.6.6.6.6.6.6.6.$.$.6.6.6.| y.T.6X4XoXoX'.].].XX<XXX].oXoXoXoXoXoXoXoXoXoXoXoXoXoXoXoXoXoXoXoXoXoXoXoXoXoXoXoXoXoXoXoXoXoXoXoXoXoXoXoXoXoXoXoXoXoXoXoXoX'.<X'.+X4X6X/.x.( :.+.$.$.&.$.6.6.$.o.;.x./.uXyX'.oXXX<X<XOXXX'.*X].XXXXXXoXoXoXXX<X'.XXXX0X2X^.j.| O.$.6.6.6.6.6.6.6.6.6.:.:.6.7.6.6.6.6.6.6.6.6.6.6.6.6.6.6.6.6.6.6.6.6.6.6.6.6.6.6.6.6.6.6.6.6.6.6.6.6.6.6.6.6.6.6.6.6.6.6.6.6.6.6.6.6.6.6.6.6.6.6.6.6.6.6.6.6.6.6.6.6.6.6.6.6.6.6.6.6.6.6.6.6.6.6.6.6.6.6.6.6.6.6.6.6.6.6.6.6.7.6.:.:.:.+.$.%.&.+.} [ } } O.O.{ [ X.o./ ( z.%XBXMX5X6XyXiXrXrX4X6XDXMXG.` ^ X.X.X.X.X. .} o.| ) 2.T.5X2X2X7X|.XXoX].].*X*X+X+XoXXXoXoXoXoX'.XX|.XX-XAXbXD # - y 0 e e e 0 0 1 1 1 IXIXIXIXIXIXIXIXIXIXIXIXIXIXIXIXIXIXIXIXIXIXIXIXIXIXIXIXIXIXIXIXIXIXIX",
"IXIXIXIXIXIXIXIXIXIXIXIXIXIXIXIXIXIXIXIXIXIXIXIXIXIXIXIXIXIXIXIXIXIXIX! 1 y g 1 1 e 1 1 g < = $ D lXFX*XXX<X'.*XXXXXoXoXoXoXoXoXoXoXoXoXoXoXoXoXoXoXoXoXoXoXoXoXoXoXoXoXoXoXoXoXoXoXoXoXoXoXoXXX<X_.XX<XrX6X~.k.| O.+.:.7.7.6.+.6.6.6.6.6.6.6.6.6.6.$.6.$.$.$.$.| y.T.6X6XoXoX'.].].XX<XXX].oXoXoXoXoXoXoXoXoXoXoXoXoXoXoXoXoXoXoXoXoXoXoXoXoXoXoXoXoXoXoXoXoXoXoXoXoXoXoXoXoXoXoXoXoXoXoXoXoX'.<X_.XX4XuX/.x.( :.+.6.$.&.$.6.6.$.o.;.x./.uXyX'.oXXX*X<XOXXX'.*X].oXoXXXoXoXXXXX<X'.XXXX0X2X^.j.| O.$.6.6.6.6.6.6.6.6.6.6.6.7.7.6.6.6.6.6.6.6.6.6.6.6.6.6.6.6.6.6.6.6.6.6.6.6.6.6.6.6.6.6.6.6.6.6.6.6.6.6.6.6.6.6.6.6.6.6.6.6.6.6.6.6.6.6.6.6.6.6.6.6.6.6.6.6.6.6.6.6.6.6.6.6.6.6.6.6.6.6.6.6.6.6.6.6.6.6.6.6.6.6.6.6.6.6.6.6.6.6.6.:.:.:.:.6.6.t.6.+.+.:.w.6.$.w.O.:.7.o.( v.%X5X<XXXXXXX'.'.XXXXXXrX5XH.,./ *.%.$.$.$.6.6.0.0.| 1.Y.5XuX=X<X|.OXoX].].*X*XoXoXoXXXoXoXoXoX=XXXXXXX-XAXbXD # - y 1 y y 1 y y 1 1 1 IXIXIXIXIXIXIXIXIXIXIXIXIXIXIXIXIXIXIXIXIXIXIXIXIXIXIXIXIXIXIXIXIXIXIX",
"IXIXIXIXIXIXIXIXIXIXIXIXIXIXIXIXIXIXIXIXIXIXIXIXIXIXIXIXIXIXIXIXIXIXIXW 1 y g 1 1 e 1 1 g < = $ D lXFX*XXX<X'.*XXXXXoXoXoXoXoXoXoXoXoXoXoXoXoXoXoXoXoXoXoXoXoXoXoXoXoXoXoXoXoXoXoXoXoXoXoXoXoXXX<X_.XX<XrX6X~.k.| O.+.:.7.7.6.+.6.6.6.6.6.6.6.6.6.6.$.6.$.$.6.6.o.y.T.6X6XoXoX'.].].XX<XXX].oXoXoXoXoXoXoXoXoXoXoXoXoXoXoXoXoXoXoXoXoXoXoXoXoXoXoXoXoXoXoXoXoXoXoXoXoXoXoXoXoXoXoXoXoXoXoXoXoX'.<X_.XX4XuX/.x.( :.:.6.$.&.$.6.6.$.o.;.x./.uXyX'.oXXX*X*XOXXX'.*X].oXoXoXoXoXXXXX<X_.XXXX0X2X^.j.| O.$.6.6.6.6.6.6.6.6.6.6.6.7.7.6.6.6.6.6.6.6.6.6.6.6.6.6.6.6.6.6.6.6.6.6.6.6.6.6.6.6.6.6.6.6.6.6.6.6.6.6.6.6.6.6.6.6.6.6.6.6.6.6.6.6.6.6.6.6.6.6.6.6.6.6.6.6.6.6.6.6.6.6.6.6.6.6.6.6.6.6.6.6.6.6.6.6.6.6.6.6.6.6.6.6.6.6.6.6.6.6.$.:.:.:.:.6.9.6.6.+.3.t.t.9.0.t.:.7.t.$.| z.W.3XoXXXXX_.'.'._.'.'.0X<XJ.<.X.d.$.6.$.$.6.6.9.9.o.y.E.5X1X[.'.|.+XoX].].-X*XoXoXoXXXoXoXoXoX'.XXXXXX=XAXbXD # - y y y 0 y y 1 1 1 1 IXIXIXIXIXIXIXIXIXIXIXIXIXIXIXIXIXIXIXIXIXIXIXIXIXIXIXIXIXIXIXIXIXIXIX",
"IXIXIXIXIXIXIXIXIXIXIXIXIXIXIXIXIXIXIXIXIXIXIXIXIXIXIXIXIXIXIXIXIXIXIXW 1 y g 1 1 e 1 1 g < = $ D lXFX*XXX<X'.*XXXXXoXoXoXoXoXoXoXoXoXoXoXoXoXoXoXoXoXoXoXoXoXoXoXoXoXoXoXoXoXoXoXoXoXoXoXoXoXXX<X_.'.<XrX6X~.k.| O.+.:.7.6.6.+.6.6.6.6.6.6.6.6.6.6.6.6.6.6.6.6.o.y.E.6X6XoXoX'.].].XX<XXX].oXoXoXoXoXoXoXoXoXoXoXoXoXoXoXoXoXoXoXoXoXoXoXoXoXoXoXoXoXoXoXoXoXoXoXoXoXoXoXoXoXoXoXoXoXoXoXoXoX'.<X_.XX4XuX/.x.( :.+.6.$.&.$.6.6.$.o.;.x./.uXyX'.oXXX<X*XXXXX'.*X].oXXXXXoXoXXXXX<X_.XXXX0X2X^.j.| O.$.6.6.6.6.6.6.6.6.6.6.6.7.7.6.6.6.6.6.6.6.6.6.6.6.6.6.6.6.6.6.6.6.6.6.6.6.6.6.6.6.6.6.6.6.6.6.6.6.6.6.6.6.6.6.6.6.6.6.6.6.6.6.6.6.6.6.6.6.6.6.6.6.6.6.6.6.6.6.6.6.6.6.6.6.6.6.6.6.6.6.6.6.6.6.6.6.6.6.6.6.6.6.6.6.6.6.6.6.6.$.$.+.+.@.:.6.6.6.$.+.:.6.7.0.0.6.+.6.6.X.o.g.W.6XrXoXXX'.*X*X<XXXoXrX'.F.<.X.%.6.:.:.+.+.+.6.6.X.u.Y.3X<X[.XXXX+X+X].].-X*XoXoXoXXXoXoXoXoX'.XXXXXX-XAXbXD # - y 1 e e 1 1 1 1 1 1 IXIXIXIXIXIXIXIXIXIXIXIXIXIXIXIXIXIXIXIXIXIXIXIXIXIXIXIXIXIXIXIXIXIXIX",
"IXIXIXIXIXIXIXIXIXIXIXIXIXIXIXIXIXIXIXIXIXIXIXIXIXIXIXIXIXIXIXIXIXIXIXW 1 1 g 2 1 e 1 1 g < - $ D lXFX=XXX<X'.*XXXXXoXoXoXoXoXoXoXoXoXoXoXoXoXoXoXoXoXoXoXoXoXoXoXoXoXoXoXoXoXoXoXoXoXoXoXoXoXXX<X_.'.<XrX6X~.k.| O.+.:.7.6.6.+.6.6.6.6.6.6.6.6.6.6.6.6.6.6.6.6.X.y.E.6X6XoXoX'.].].XXXXoX].oXoXoXoXoXoXoXoXoXoXoXoXoXoXoXoXoXoXoXoXoXoXoXoXoXoXoXoXoXoXoXoXoXoXoXoXoXoXoXoXoXoXoXoXoXoXoXoXoX'.<X[.XX4XuX/.x.( :.:.6.$.&.$.6.6.$.o.;.x./.CXyX'.XXXX*X<XXXOXXX*X].XXXXXXoXoXoXXX<X'.XXXX0X2X^.j.| O.$.6.6.6.6.6.6.6.6.6.6.6.7.7.6.6.6.6.6.6.6.6.6.6.6.6.6.6.6.6.6.6.6.6.6.6.6.6.6.6.6.6.6.6.6.6.6.6.6.6.6.6.6.6.6.6.6.6.6.6.6.6.6.6.6.6.6.6.6.6.6.6.6.6.6.6.6.6.6.6.6.6.6.6.6.6.6.6.6.6.6.6.6.6.6.6.6.6.6.6.6.6.6.6.6.6.6.6.6.6.$.%.+.+.@.+.6.6.9.6.+.+.:.6.9.9.+.+.:.+.{ o.x.W.2XrXoXXX[.*X*XXX|.4XiX<XF.<.X.%.:.:.:.@.@.@.@.$.[ <.Y.3X1X].oXXX+X+X].].*X*XXXoXXXXXoXoXoXoX'.XXXXXX-XAXbXD # - y 1 e e 1 1 1 1 1 1 IXIXIXIXIXIXIXIXIXIXIXIXIXIXIXIXIXIXIXIXIXIXIXIXIXIXIXIXIXIXIXIXIXIXIX",
"IXIXIXIXIXIXIXIXIXIXIXIXIXIXIXIXIXIXIXIXIXIXIXIXIXIXIXIXIXIXIXIXIXIXIXW 1 1 g 2 0 e 1 1 h < - $ H zXFX*X'.XX[.].oXoXoXoXoXoXoXoXoXoXoXoXoXoXoXoXoXoXoXoXoXoXoXoXoXoXoXoXoXoXoXoXoXoXoXoXoXoXoXXX<X|.XXXX=X2X~.k.| O.+.:.0.6.6.:.6.6.6.6.6.6.6.6.6.6.6.6.$.$.$.$.} y.W.6X4XoXXX'.].].oXoXoX].oXoXoXoXoXoXoXoXoXoXoXoXoXoXoXoXoXoXoXoXoXoXoXoXoXoXoXoXoXoXoXoXoXoXoXoXoXoXoXoXoXoXoXoXoXoXoXoXoX].'.[.+X6X6XQ.x.( o.+.6.w.$.$.6.w.$.O.-.x. XCXoXXXoXXX<X<XOXOXXX'.oXXXXXXXoXoXoXXXXX<XXX'.rX6XR.j.| O.$.6.6.6.6.6.6.6.6.6.6.6.6.7.6.6.6.6.6.6.6.6.6.6.6.6.6.6.6.6.6.6.6.6.6.6.6.6.6.6.6.6.6.6.6.6.6.6.6.6.6.6.6.6.6.6.6.6.6.6.6.6.6.6.6.6.6.6.6.6.6.6.6.6.6.6.6.6.6.6.6.6.6.6.6.6.6.6.6.6.6.6.6.6.6.6.6.6.6.6.6.6.6.6.6.6.6.6.6.6.%.&.@.@.@.@.6.6.$.$.&.@.+.+.6.6.:.:.>.t.*.} g.%X5X1XXX|.'.[.XXXX`.<XsX7XG.<.X.O.6.:.@.@.@.@.&.&.X.u.^.NX1X].<XXX+X+XoX].*X*XXXXXXXXXoXoXoXoXXXXXXX'.-XGXxXD % - y 1 1 e g y 1 1 1 e IXIXIXIXIXIXIXIXIXIXIXIXIXIXIXIXIXIXIXIXIXIXIXIXIXIXIXIXIXIXIXIXIXIXIX",
"IXIXIXIXIXIXIXIXIXIXIXIXIXIXIXIXIXIXIXIXIXIXIXIXIXIXIXIXIXIXIXIXIXIXIX! 1 1 g 2 0 e 1 1 h y - $ H zXFX].XXXX[.].oXoXoXoXoXoXoXoXoXoXoXoXoXoXoXoXoXoXoXoXoXoXoXoXoXoXoXoXoXoXoXoXoXoXoXoXoXoXoXXX<X|.XXXX=X2X~.k.| O.+.:.7.6.6.:.6.6.6.6.6.6.6.6.6.6.6.6.$.6.$.$.} u.W.6X4XoXXX_.*X].XXXXoX].oXoXoXoXoXoXoXoXoXoXoXoXoXoXoXoXoXoXoXoXoXoXoXoXoXoXoXoXoXoXoXoXoXoXoXoXoXoXoXoXoXoXoXoXoXoXoXoXoX].'.[.+X6X6XQ.x.( o.+.6.w.$.$.6.w.$.O.-.x. XCX<XoXoXXX<X<XOXOXXXXXoXXXXXXXoXoXoXXXXX<XXX'.rX6XR.j.| O.$.6.6.6.6.6.6.6.6.6.6.6.6.7.6.6.6.6.6.6.6.6.6.6.6.6.6.6.6.6.6.6.6.6.6.6.6.6.6.6.6.6.6.6.6.6.6.6.6.6.6.6.6.6.6.6.6.6.6.6.6.6.6.6.6.6.6.6.6.6.6.6.6.6.6.6.6.6.6.6.6.6.6.6.6.6.6.6.6.6.6.6.6.6.6.6.6.6.6.6.6.6.6.6.6.6.6.6.6.6.$.$.+.+.@.+.6.6.6.$.@.@.+.+.$.$.>.>.;.:.X./ g.%X6X1X<XXX'.'.oXoXXX<XtX&XF.>./ %.+.+.+.+.+.+.$.$. .u.R.NX1X].<XXXoXoXoX].*X*X<XoXXXXXoXoXoXoXXXXXXX[.-XGXxXF % - y 1 4 e y y 1 1 1 e IXIXIXIXIXIXIXIXIXIXIXIXIXIXIXIXIXIXIXIXIXIXIXIXIXIXIXIXIXIXIXIXIXIXIX",
"IXIXIXIXIXIXIXIXIXIXIXIXIXIXIXIXIXIXIXIXIXIXIXIXIXIXIXIXIXIXIXIXIXIXIXW 1 1 g 2 0 e 1 1 h y - $ H zXFX].XXXX[.].oXoXoXoXoXoXoXoXoXoXoXoXoXoXoXoXoXoXoXoXoXoXoXoXoXoXoXoXoXoXoXoXoXoXoXoXoXoXoXXX<X|.XXXX=X2X~.k.| +.+.6.7.6.6.:.6.6.6.6.6.6.6.6.6.6.6.6.6.6.$.$.} u.T.6X4X+XXX_.*X].oXoXoX].oXoXoXoXoXoXoXoXoXoXoXoXoXoXoXoXoXoXoXoXoXoXoXoXoXoXoXoXoXoXoXoXoXoXoXoXoXoXoXoXoXoXoXoXoXoXoXoXoX].'.[.+X6X6XQ.x.( o.+.6.w.$.$.6.w.$.O.-.x. XCX<XXXoXXX<X<XOXOXXXXXoXXXXXXXoXoXoXXXXX<XXX'.rX6XR.j.| O.$.6.6.6.6.6.6.6.6.6.:.:.7.7.6.6.6.6.6.6.6.6.6.6.6.6.6.6.6.6.6.6.6.6.6.6.6.6.6.6.6.6.6.6.6.6.6.6.6.6.6.6.6.6.6.6.6.6.6.6.6.6.6.6.6.6.6.6.6.6.6.6.6.6.6.6.6.6.6.6.6.6.6.6.6.6.6.6.6.6.6.6.6.6.6.6.6.6.6.6.6.6.6.6.6.6.6.6.6.6.6.6.:.:.:.:.7.0.7.6.:.:.w.w.0.0.7.7.7.$.%.} j.~.4XwX+XXX'.'.'.XXXX[.]._.F.,.X.*.$.6.6.6.:.:.7.7.| y.R.NX4X].<X'.oXoXoX].*X*XoXoXoXXXoXoX].oXXXXXXX[.-XGXxXD % - y 1 1 1 1 1 1 1 1 1 IXIXIXIXIXIXIXIXIXIXIXIXIXIXIXIXIXIXIXIXIXIXIXIXIXIXIXIXIXIXIXIXIXIXIX",
"IXIXIXIXIXIXIXIXIXIXIXIXIXIXIXIXIXIXIXIXIXIXIXIXIXIXIXIXIXIXIXIXIXIXIXW 1 1 g 2 0 e 1 1 h y - $ H zXFX'.'.XX[.].oXoXoXoXoXoXoXoXoXoXoXoXoXoXoXoXoXoXoXoXoXoXoXoXoXoXoXoXoXoXoXoXoXoXoXoXoXoXoXXX<X|.XXXX=X2X~.k.| +.+.:.6.6.6.3.6.6.6.6.6.6.6.6.6.6.6.6.6.6.6.$.} u.T.6X4X+XXX_.*X].oXoXoX].oXoXoXoXoXoXoXoXoXoXoXoXoXoXoXoXoXoXoXoXoXoXoXoXoXoXoXoXoXoXoXoXoXoXoXoXoXoXoXoXoXoXoXoXoXoXoXoXoX].'.[.+X6X6XQ.x.( o.+.6.w.$.$.6.w.$.O.-.x. XCX<XXXoXXX<X<XOXOXXXXXoXXXXXXXoXoXoXXXXX<XXX'.rX2XR.j.| O.$.6.6.6.6.6.6.6.:.:.:.:.7.7.6.6.6.6.6.6.6.6.6.6.6.6.6.6.6.6.6.6.6.6.6.6.6.6.6.6.6.6.6.6.6.6.6.6.6.6.6.6.6.6.6.6.6.6.6.6.6.6.6.6.6.6.6.6.6.6.6.6.6.6.6.6.6.6.6.6.6.6.6.6.6.6.6.6.6.6.6.6.6.6.6.6.6.6.6.6.6.6.6.6.6.6.6.6.6.6.7.7.:.:.:.:.6.9.t.6.:.+.:.w.9.9.;.7.w.*.=.} j.(.4XwX+XoX'.[.'.'.'.[.sX7XG.,.X.d.$.6.$.6.:.:.7.7.| 5.R.NX6X<X*X`.oXoXoX].*X*XoXoXoXXXoXoX].].XXXXXX[.-XGXxXD % - y 1 1 1 1 1 1 1 1 1 IXIXIXIXIXIXIXIXIXIXIXIXIXIXIXIXIXIXIXIXIXIXIXIXIXIXIXIXIXIXIXIXIXIXIX",
"IXIXIXIXIXIXIXIXIXIXIXIXIXIXIXIXIXIXIXIXIXIXIXIXIXIXIXIXIXIXIXIXIXIXIXW 1 1 l 2 0 e 1 1 h y - $ H zXFX].XXoX[.].oXoXoXoXoXoXoXoXoXoXoXoXoXoXoXoXoXoXoXoXoXoXoXoXoXoXoXoXoXoXoXoXoXoXoXoXoXoXoXXX<X_.XX'.=X5X^.k.| +.:.6.6.6.6.3.6.6.6.6.6.6.6.6.6.6.6.6.6.6.6.$.} u.T.6X4XoX<X_.*X].oXoXoX].oXoXoXoXoXoXoXoXoXoXoXoXoXoXoXoXoXoXoXoXoXoXoXoXoXoXoXoXoXoXoXoXoXoXoXoXoXoXoXoXoXoXoXoXoXoXoXoXoX].'.[.+X6X6XQ.x.( o.+.6.w.$.$.6.w.$.+.-.x. XCX<XXXoXXX<X<XOXOXXXXXoXoXoXXXoXoXoXXXXX<XXX'.rX6XR.j.| O.$.6.6.6.6.6.6.6.6.6.:.:.:.7.6.6.6.6.6.6.6.6.6.6.6.6.6.6.6.6.6.6.6.6.6.6.6.6.6.6.6.6.6.6.6.6.6.6.6.6.6.6.6.6.6.6.6.6.6.6.6.6.6.6.6.6.6.6.6.6.6.6.6.6.6.6.6.6.6.6.6.6.6.6.6.6.6.6.6.6.6.6.6.6.6.6.6.6.6.6.6.6.6.6.6.6.6.6.6.6.7.7.:.:.:.+.$.%.%.O. .} [  .O.X.^ O.%.{ { ^ j.(.ZXZXiXyXiXaXsXiX1XuXAXMXG.` ^ O. . .{ { [ } } } / 2.J.5X6X1X<X_.XXoXoX].*XoX+X+XoXXXoXoX].].XXXXXX[.-XGXxXF % - p e g y d g e e 1 1 IXIXIXIXIXIXIXIXIXIXIXIXIXIXIXIXIXIXIXIXIXIXIXIXIXIXIXIXIXIXIXIXIXIXIX",
"IXIXIXIXIXIXIXIXIXIXIXIXIXIXIXIXIXIXIXIXIXIXIXIXIXIXIXIXIXIXIXIXIXIXIXW 1 1 g 2 0 e 1 1 h < - $ H zXFX].XXoX[.].oXoXoXoXoXoXoXoXoXoXoXoXoXoXoXoXoXoXoXoXoXoXoXoXoXoXoXoXoXoXoXoXoXoXoXoXoXoXoXXX<X_.XX'.=X2X~.k.| +.:.6.6.6.6.3.6.6.6.6.6.6.6.6.6.6.6.6.6.6.6.$.} u.T.6X4XoX<X_.*X].oXoXoX].oXoXoXoXoXoXoXoXoXoXoXoXoXoXoXoXoXoXoXoXoXoXoXoXoXoXoXoXoXoXoXoXoXoXoXoXoXoXoXoXoXoXoXoXoXoXoXoXoX].'.[.+X6X6XQ.x.( o.+.6.w.$.$.6.w.$.+.-.x. XuX<XXXoXXX<X<XOXOXXXXXoXoXoXoXoXoXoXXXXX<XXX'.rX6XR.j.| O.$.6.6.6.6.6.6.6.6.6.:.:.6.7.6.6.6.6.6.6.6.6.6.6.6.6.6.6.6.6.6.6.6.6.6.6.6.6.6.6.6.6.6.6.6.6.6.6.6.6.6.6.6.6.6.6.6.6.6.6.6.6.6.6.6.6.6.6.6.6.6.6.6.6.6.6.6.6.6.6.6.6.6.6.6.6.6.6.6.6.6.6.6.6.6.6.6.6.6.6.6.6.6.6.6.6.6.6.6.6.6.:.:.:.+.+.%.%.O.....| | | } | ( o./ ^ ^ ( z.(.JXZXCXMXMXaXuXCX6XBXDXmXG.2.) ) ( | } } } } } | ( 2.S.,X1X*X<X*XXXoX].].=XoX+X+XoXXXoXoXoX].XXXXXX[.-XGXxXF % - y 1 d y y g e 1 1 1 IXIXIXIXIXIXIXIXIXIXIXIXIXIXIXIXIXIXIXIXIXIXIXIXIXIXIXIXIXIXIXIXIXIXIX",
"IXIXIXIXIXIXIXIXIXIXIXIXIXIXIXIXIXIXIXIXIXIXIXIXIXIXIXIXIXIXIXIXIXIXIXW < g g 2 0 e 1 1 g < - $ H zXFX].XXoX[.].oXoXoXoXoXoXoXoXoXoXoXoXoXoXoXoXoXoXoXoXoXoXoXoXoXoXoXoXoXoXoXoXoXoXoXoXoXoXoXXX<X|.XX'.=X2X^.k.| +.:.6.0.6.6.6.6.6.6.6.6.6.6.6.6.6.6.6.6.$.6.$.} u.W.6X4XoX<X_.*X].oXoXoX].oXoXoXoXoXoXoXoXoXoXoXoXoXoXoXoXoXoXoXoXoXoXoXoXoXoXoXoXoXoXoXoXoXoXoXoXoXoXoXoXoXoXoXoXoXoXoXoXoX].XX'.+X6X6XQ.x.( ;.:.6.w.$.$.6.w.$.O.-.x. XuX<XXXoXXX<X<XOXOXXXXXoXoXXXXXoXoXoXXXXX<XXX'.rX6XR.j.| O.$.6.6.6.6.6.6.6.6.6.:.:.6.6.6.6.6.6.6.6.6.6.6.6.6.6.6.6.6.6.6.6.6.6.6.6.6.6.6.6.6.6.6.6.6.6.6.6.6.6.6.6.6.6.6.6.6.6.6.6.6.6.6.6.6.6.6.6.6.6.6.6.6.6.6.6.6.6.6.6.6.6.6.6.6.6.6.6.6.6.6.6.6.6.6.6.6.6.6.6.6.6.6.6.6.6.6.6.6.6.+.+.@.@.+.6.6.6.>.y.x.c.v.z.v.x.v.v.g.k.x.v.n.Y.(.~.R.^.^.^.^.^.W.~.W.Y.A.v.z.k.z.z.z.z.l.l.l.l.b.v.T.<X*X*X<X*XXXoX].].=XoXoXoXoXXXoXoXoXoXXXXXXX[.-XGXxXF % - y 1 1 1 1 1 1 1 1 1 IXIXIXIXIXIXIXIXIXIXIXIXIXIXIXIXIXIXIXIXIXIXIXIXIXIXIXIXIXIXIXIXIXIXIX",
"IXIXIXIXIXIXIXIXIXIXIXIXIXIXIXIXIXIXIXIXIXIXIXIXIXIXIXIXIXIXIXIXIXIXIXW < g g 2 1 e 1 1 g < = $ H zXFX].'.oX[.].oXoXoXoXoXoXoXoXoXoXoXoXoXoXoXoXoXoXoXoXoXoXoXoXoXoXoXoXoXoXoXoXoXoXoXoXoXoXoXXX<X|.XX'.=X2X~.k.| +.:.:.0.6.6.6.6.6.6.6.6.6.6.6.6.6.6.6.6.$.$.$.} u.W.6X4XoX<X_.*X].oXoXoX].oXoXoXoXoXoXoXoXoXoXoXoXoXoXoXoXoXoXoXoXoXoXoXoXoXoXoXoXoXoXoXoXoXoXoXoXoXoXoXoXoXoXoXoXoXoXoXoXoX].'.'.+X6X6XQ.x.( ;.:.6.w.$.$.6.w.$.O.-.x. XuX<X'.XXXX<X<XOXOXXXXXoXXXXXXXoXoXoXXXXX<XXX'.rX6XR.j.| O.$.6.6.6.6.6.6.6.6.6.:.:.6.7.6.6.6.6.6.6.6.6.6.6.6.6.6.6.6.6.6.6.6.6.6.6.6.6.6.6.6.6.6.6.6.6.6.6.6.6.6.6.6.6.6.6.6.6.6.6.6.6.6.6.6.6.6.6.6.6.6.6.6.6.6.6.6.6.6.6.6.6.6.6.6.6.6.6.6.6.6.6.6.6.6.6.6.6.6.6.6.6.6.6.6.6.6.6.6.6.+.%.@.@.:.:.6.7.j.F.^.(.(.(.(.(.E.W.W./.mX(.J.F.z.g.g.y.j.j.k.k.g.g.b.b.m.^.~.(.~.~.~.~.~.~.^.^.R.W..X2X].[.*X'.XXoX].].*X].oXoXoXXXoXoXoXoXXXXXXX[.-XGXxXF % - y 1 1 1 1 1 1 1 1 1 IXIXIXIXIXIXIXIXIXIXIXIXIXIXIXIXIXIXIXIXIXIXIXIXIXIXIXIXIXIXIXIXIXIXIX",
"IXIXIXIXIXIXIXIXIXIXIXIXIXIXIXIXIXIXIXIXIXIXIXIXIXIXIXIXIXIXIXIXIXIXIXW 1 y g 2 1 g 1 g g < = $ H zXHX=XXXoX[.=XoXoXoXoXoXoXoXoXoXoXoXoXoXoXoXoXoXoXoXoXoXoXoXoXoXoXoXoXoXoXoXoXoXoXoXoXoXoXoXXX<X_.XX<XrX6X~.k.| O.+.:.7.6.6.:.6.6.6.6.6.6.6.6.6.6.$.6.6.6.6.$.} u.W.6X4XoXXX_.=X].oXoXoX].oXoXoXoXoXoXoXoXoXoXoXoXoXoXoXoXoXoXoXoXoXoXoXoXoXoXoXoXoXoXoXoXoXoXoXoXoXoXoXoXoXoXoXoXoXoXoXoXoX].'.[.+X6X6XQ.x.( :.:.:.$.$.$.6.6.$.| ;.x./.uXyX'.XXXX<X<XOXOXXXXXoXXXXXXXoXoXoXXX<X'.XXXX0X2X^.j.| O.$.6.6.6.6.6.6.6.6.6.6.6.7.6.6.6.6.6.6.6.6.6.6.6.6.6.6.6.6.6.6.6.6.6.6.6.6.6.6.6.6.6.6.6.6.6.6.6.6.6.6.6.6.6.6.6.6.6.6.6.6.6.6.6.6.6.6.6.6.6.6.6.6.6.6.6.6.6.6.6.6.6.6.6.6.6.6.6.6.6.6.6.6.6.6.6.6.6.6.6.6.6.6.6.6.6.6.6.6.6.6.$.+.+.6.7.;.,.f.^.JXSX6XMXZXZX6X6X4XyXSXJX(.b.( / } } X.o.o.( o.| ( 2.F.mXJXMXCXCXCXCXCXMXMXMXmX>X7X<X].].'.'.XXoX].].*X].oXoXoXXXoXoXoX].oXoXXX[.=XGXxXD & - y 1 1 1 1 1 1 1 1 1 IXIXIXIXIXIXIXIXIXIXIXIXIXIXIXIXIXIXIXIXIXIXIXIXIXIXIXIXIXIXIXIXIXIXIX",
"IXIXIXIXIXIXIXIXIXIXIXIXIXIXIXIXIXIXIXIXIXIXIXIXIXIXIXIXIXIXIXIXIXIXIX! 1 y g 1 1 g 1 1 g < = $ H zXHX=XXXoX[.=XoXoXoXoXoXoXoXoXoXoXoXoXoXoXoXoXoXoXoXoXoXoXoXoXoXoXoXoXoXoXoXoXoXoXoXoXoXoXoXXX<X_.'.<XtX6X~.k.| O.+.:.7.6.6.:.6.6.6.6.6.6.6.6.6.6.$.$.6.6.6.$.} u.W.6X4XoXXX_.*X].oXoXoX].oXoXoXoXoXoXoXoXoXoXoXoXoXoXoXoXoXoXoXoXoXoXoXoXoXoXoXoXoXoXoXoXoXoXoXoXoXoXoXoXoXoXoXoXoXoXoXoXoX].'.[.+X6X6XQ.x.( :.:.:.$.$.$.6.6.$.| ;.x./.uXyX'.oXXX<X<XOXOXXXXXoXXXXXXXoXoXoXXX<X'.XXXX0X2X^.j.| O.$.6.6.6.6.6.6.6.6.6.6.6.7.7.6.6.6.6.6.6.6.6.6.6.6.6.6.6.6.6.6.6.6.6.6.6.6.6.6.6.6.6.6.6.6.6.6.6.6.6.6.6.6.6.6.6.6.6.6.6.6.6.6.6.6.6.6.6.6.6.6.6.6.6.6.6.6.6.6.6.6.6.6.6.6.6.6.6.6.6.6.6.6.6.6.6.6.6.6.6.6.6.6.6.6.6.6.6.6.6.6.6.+.$.7.7.;.-.f.Y.CXZXwXwXyXyX1XrXwXeXZXZX^.f./ [ { =.%.%.O.O.%.O./ ,.F.mXDXrXrXrXeXwXyXyXrX4X3X3X<X].].].].XXoXoX].].*XoXoXoXoXXXoXoXoX].oXoXXX[.=XGXxXD & - y 1 1 1 e 0 1 1 1 1 IXIXIXIXIXIXIXIXIXIXIXIXIXIXIXIXIXIXIXIXIXIXIXIXIXIXIXIXIXIXIXIXIXIXIX",
"IXIXIXIXIXIXIXIXIXIXIXIXIXIXIXIXIXIXIXIXIXIXIXIXIXIXIXIXIXIXIXIXIXIXIXW 1 y g 1 1 g 1 1 g < = $ H zXHX=XXXoX[.=XoXoXoXoXoXoXoXoXoXoXoXoXoXoXoXoXoXoXoXoXoXoXoXoXoXoXoXoXoXoXoXoXoXoXoXoXoXoXoXXX<X_.'.<XrX6X~.k.| O.+.:.7.6.6.:.6.6.6.6.6.6.6.6.6.6.6.$.6.6.6.$.} u.T.6X4X+XXX_.*X].oXoXoX].oXoXoXoXoXoXoXoXoXoXoXoXoXoXoXoXoXoXoXoXoXoXoXoXoXoXoXoXoXoXoXoXoXoXoXoXoXoXoXoXoXoXoXoXoXoXoXoXoX].'.[.+X6X6XQ.x.( :.:.:.$.$.$.6.6.+.| ;.x.Q.6XyX'.oXXX<X<XOXOXXXXXoXXXXXXXoXoXoXXX<X'.XXXX0X2X^.j.| O.$.6.6.6.6.6.6.6.6.6.6.6.7.7.6.6.6.6.6.6.6.6.6.6.6.6.6.6.6.6.6.6.6.6.6.6.6.6.6.6.6.6.6.6.6.6.6.6.6.6.6.6.6.6.6.6.6.6.6.6.6.6.6.6.6.6.6.6.6.6.6.6.6.6.6.6.6.6.6.6.6.6.6.6.6.6.6.6.6.6.6.6.6.6.6.6.6.6.6.6.6.6.6.6.6.6.6.6.6.6.6.6.+.&.6.7.+.| 2.G.5XuX*X'.<X<XXXoXoX+XiXMXR.1.} { O.+.$.6.:.+.%.%.X.;.F.>XaX=X=X=X=X=X=X<X<X<X<X<X<X].].].].oXoXoX].].*X'.oXoXXXXXoXoXoXoXXXXXXX`.=XGXxXD & - y 1 p g g y 1 1 1 1 IXIXIXIXIXIXIXIXIXIXIXIXIXIXIXIXIXIXIXIXIXIXIXIXIXIXIXIXIXIXIXIXIXIXIX",
"IXIXIXIXIXIXIXIXIXIXIXIXIXIXIXIXIXIXIXIXIXIXIXIXIXIXIXIXIXIXIXIXIXIXIXW 1 y g 1 1 g 1 4 h < = $ H zXHX=XXXoX[.=XoXoXoXoXoXoXoXoXoXoXoXoXoXoXoXoXoXoXoXoXoXoXoXoXoXoXoXoXoXoXoXoXoXoXoXoXoXoXoXXX<X_.'.<XrX6X~.k.| O.+.:.7.6.6.:.6.6.6.6.6.6.6.6.6.6.6.$.$.6.6.$.} u.T.6X4X+XXX_.*X].oXoXoX].oXoXoXoXoXoXoXoXoXoXoXoXoXoXoXoXoXoXoXoXoXoXoXoXoXoXoXoXoXoXoXoXoXoXoXoXoXoXoXoXoXoXoXoXoXoXoXoXoX].'.[.+X4X6XQ.x.( :.:.:.$.$.$.6.6.+.| ,.x.Q.uXyX'.oXXX<X<XOXOXXXXXoXXXXXXXoXoXoXXX<X'.XXXX0X2X^.j.| O.$.6.6.6.6.6.6.6.6.6.6.6.7.7.6.6.6.6.6.6.6.6.6.6.6.6.6.6.6.6.6.6.6.6.6.6.6.6.6.6.6.6.6.6.6.6.6.6.6.6.6.6.6.6.6.6.6.6.6.6.6.6.6.6.6.6.6.6.6.6.6.6.6.6.6.6.6.6.6.6.6.6.6.6.6.6.6.6.6.6.6.6.6.6.6.6.6.6.6.6.6.6.6.6.6.6.6.6.6.6.6.6.+.&.6.6.+.| 2.S.7XtX[._.*X<XXXXXXXoXyX6XK.5. .=.+.:.7.7.6.6.*.%.X.;.F.,XuX=X-X&X&X&X'.*X*X*X<XoXoX].].].oXoXoXoX].].].*XXXXXXXXXoXoXoXoXXXXXXX[.=XGXxXD & - y 1 y g y y 1 1 1 1 IXIXIXIXIXIXIXIXIXIXIXIXIXIXIXIXIXIXIXIXIXIXIXIXIXIXIXIXIXIXIXIXIXIXIX",
"IXIXIXIXIXIXIXIXIXIXIXIXIXIXIXIXIXIXIXIXIXIXIXIXIXIXIXIXIXIXIXIXIXIXIXW 1 y h 1 1 g 1 1 h < = $ H zXHX=XXXoX'.<XoXoXoXoXoXoXoXoXoXoXoXoXoXoXoXoXoXoXoXoXoXoXoXoXoXoXoXoXoXoXoXoXoXoXoXoXoXoXoXXX<X_.'.<XrX6X~.k.| O.+.:.7.6.6.:.6.6.6.6.6.6.6.6.6.6.6.6.$.6.6.$.} u.T.6X4XoX<X_.*X].oXoXoX].oXoXoXoXoXoXoXoXoXoXoXoXoXoXoXoXoXoXoXoXoXoXoXoXoXoXoXoXoXoXoXoXoXoXoXoXoXoXoXoXoXoXoXoXoXoXoXoXoX].'.[.+X4X6XQ.x.| :.:.:.$.$.$.6.6.+...-.x.Q.uXyX'.oXXX<X<XOXOXXXXXoXoXoXXXoXoXXXXX<X'.XXXX0X2X^.j.| O.$.6.6.6.6.6.6.6.6.6.6.6.7.7.6.6.6.6.6.6.6.6.6.6.6.6.6.6.6.6.6.6.6.6.6.6.6.6.6.6.6.6.6.6.6.6.6.6.6.6.6.6.6.6.6.6.6.6.6.6.6.6.6.6.6.6.6.6.6.6.6.6.6.6.6.6.6.6.6.6.6.6.6.6.6.6.6.6.6.6.6.6.6.6.6.6.6.6.6.6.6.6.6.6.6.6.6.6.6.6.6.+.#.#.$.$.O. .2.G.7XrX[.[.*X'.'.*X'.[.tX5XK.y.X.%.+.7.0.0.7.6.t.%.X.;.A.,XuX].*X*X*X'.XXXX'.'.oXoX].].].oXoX+XoXoX].].].].XXXXXXXXoXoX'.'.XXXXXX[.=XGXxXD & - y 1 1 4 1 1 1 1 1 1 IXIXIXIXIXIXIXIXIXIXIXIXIXIXIXIXIXIXIXIXIXIXIXIXIXIXIXIXIXIXIXIXIXIXIX",
"IXIXIXIXIXIXIXIXIXIXIXIXIXIXIXIXIXIXIXIXIXIXIXIXIXIXIXIXIXIXIXIXIXIXIXW 1 y h 1 1 g 1 1 h < = $ H zXHX=XXXoX'.<XoXoXoXoXoXoXoXoXoXoXoXoXoXoXoXoXoXoXoXoXoXoXoXoXoXoXoXoXoXoXoXoXoXoXoXoXoXoXoXXX<X_.'.<XrX6X~.k.| O.+.:.7.6.6.:.6.6.6.6.6.6.6.6.6.6.$.6.$.6.6.$.} u.T.6X4XoX<X_.*X].oXoXoX].oXoXoXoXoXoXoXoXoXoXoXoXoXoXoXoXoXoXoXoXoXoXoXoXoXoXoXoXoXoXoXoXoXoXoXoXoXoXoXoXoXoXoXoXoXoXoXoXoX].'.[.+X6X6XQ.x.| :.:.:.$.$.$.6.6.+...,.x.Q.uXyX[.oXXX<X<XOXOXXXXXoXoXoXoXoXoXXXXX<X_.XXXX0X2X^.j.| O.$.6.6.6.6.6.6.6.6.6.6.6.7.7.6.6.6.6.6.6.6.6.6.6.6.6.6.6.6.6.6.6.6.6.6.6.6.6.6.6.6.6.6.6.6.6.6.6.6.6.6.6.6.6.6.6.6.6.6.6.6.6.6.6.6.6.6.6.6.6.6.6.6.6.6.6.6.6.6.6.6.6.6.6.6.6.6.6.6.6.6.6.6.6.6.6.6.6.6.6.6.6.6.6.6.6.6.6.6.6.6.:.@.&.6.6.O. .2.G.1XsX[.].oXXX'.<X*X[.sX2XR.l.o.%.+.7.0.9.6.$.w.%.X.;.A.,XuX].XX<X<XXXXXoX].].'.'.'.[.'.XX+X+XoXoX].].].].XXXXXXXXoXoXXXXXXXXXXX[.=XGXxXD & - y 1 1 1 d 1 1 1 1 1 IXIXIXIXIXIXIXIXIXIXIXIXIXIXIXIXIXIXIXIXIXIXIXIXIXIXIXIXIXIXIXIXIXIXIX",
"IXIXIXIXIXIXIXIXIXIXIXIXIXIXIXIXIXIXIXIXIXIXIXIXIXIXIXIXIXIXIXIXIXIXIXW 1 y h 1 1 g 1 1 h < = $ H zXHX=XXXoX'.<XoXoXoXoXoXoXoXoXoXoXoXoXoXoXoXoXoXoXoXoXoXoXoXoXoXoXoXoXoXoXoXoXoXoXoXoXoXoXoXXX<X_.'.<X1X6X~.k.| O.+.:.7.6.6.:.6.6.6.6.6.6.6.6.6.6.$.6.6.6.6.$.} u.W.6X4XoX<X_.*X].oXoXoX].oXoXoXoXoXoXoXoXoXoXoXoXoXoXoXoXoXoXoXoXoXoXoXoXoXoXoXoXoXoXoXoXoXoXoXoXoXoXoXoXoXoXoXoXoXoXXXXXoX].'.[.+X6X6XQ.x.| :.:.:.$.$.$.6.6.$...,.x.Q.uXyX[.oXXX<X<XOXOXXXXXoXoXXXXXoXoXXXXX<X_.XXXX0X2X^.j.| O.$.6.6.6.6.6.6.6.:.:.6.6.7.7.6.6.6.6.6.6.6.6.6.6.6.6.6.6.6.6.6.6.6.6.6.6.6.6.6.6.6.6.6.6.6.6.6.6.6.6.6.6.6.6.6.6.6.6.6.6.6.6.6.6.6.6.6.6.6.6.6.6.6.6.6.6.6.6.6.6.6.6.6.6.6.6.6.6.6.6.6.6.6.6.6.6.6.6.6.6.6.6.6.6.6.6.6.6.6.:.>.:.+.+.6.6.%...2.J.4XrX].].<XXXXX<X<X'.sX6X^.l.o.O.+.6.7.7.:...3...{ ;.m.,XiXwXXXOXOXXX+X+XoX'.'.'.'.'.'.'.+X+XoXoX].].].].XXXXXXXXoXoX'.XXXXXXXX[.=XGXxXF & - y 1 1 1 g g 1 1 1 1 IXIXIXIXIXIXIXIXIXIXIXIXIXIXIXIXIXIXIXIXIXIXIXIXIXIXIXIXIXIXIXIXIXIXIX",
"IXIXIXIXIXIXIXIXIXIXIXIXIXIXIXIXIXIXIXIXIXIXIXIXIXIXIXIXIXIXIXIXIXIXIX! 1 y h 1 1 g 1 1 g < = $ H zXHX=XXXoX[.<XoXoXoXoXoXoXoXoXoXoXoXoXoXoXoXoXoXoXoXoXoXoXoXoXoXoXoXoXoXoXoXoXoXoXoXoXoXoXoXXX<X'.'.<X1X6X~.k.| O.+.:.6.6.6.:.6.6.6.6.6.6.6.6.6.6.6.6.6.6.6.$.} u.W.6X4XoX<X'.*X].oXoXoX].oXoXoXoXoXoXoXoXoXoXoXoXoXoXoXoXoXoXoXoXoXoXoXoXoXoXoXoXoXoXoXoXoXoXoXoXoXoXoXoXoXoXoXoXoXoXoXoXoX].'.[.+XyX6XQ.x.| :.:.:.$.$.&.6.6.$...,.x.Q.uXyX'.XXXX<X<XOXOXXXXXoXXXXXXXoXoXoXXX<X'.XXXX0X2X^.j.| O.$.6.6.6.6.6.6.6.:.+.:.:.7.7.6.6.6.6.6.6.6.6.6.6.6.6.6.6.6.6.6.6.6.6.6.6.6.6.6.6.6.6.6.6.6.6.6.6.6.6.6.6.6.6.6.6.6.6.6.6.6.6.6.6.6.6.6.6.6.6.6.6.6.6.6.6.6.6.6.6.6.6.6.6.6.6.6.6.6.6.6.6.6.6.6.6.6.6.6.6.6.6.6.6.6.6.6.6.6.:.:.:.:.6.0.6.O...2.G.3XrX].'.<XXXXXoXXX'.rX4XE.z.;.o.$.6.6.6.@...3...[ ;.A.,XiXwXXXOXXXXXXXXXoX'.XX'.'.&X&XXX+X+XoXoX].].].oXXXXXXXXXoXoX'.].XXXXXX'.-XGXxXD & - y 1 1 1 d g 1 1 1 1 IXIXIXIXIXIXIXIXIXIXIXIXIXIXIXIXIXIXIXIXIXIXIXIXIXIXIXIXIXIXIXIXIXIXIX",
"IXIXIXIXIXIXIXIXIXIXIXIXIXIXIXIXIXIXIXIXIXIXIXIXIXIXIXIXIXIXIXIXIXIXIXW < 1 g 1 1 g 1 1 g < = $ H zXFX=X'.oX[.<XoXoXoXoXoXoXoXoXoXoXoXoXoXoXoXoXoXoXoXoXoXoXoXoXoXoXoXoXoXoXoXoXoXoXoXoXoXoXoXoXoXXXXX'.].4X~.k.-.+.+.:.6.6.6.:.6.6.6.6.6.6.6.6.6.6.6.6.6.6.6.6.} u.W.6X4XXXXX'.'.].XXXXXX].oXoXoXoXoXoXoXoXoXoXoXoXoXoXoXoXoXoXoXoXoXoXoXoXoXoXoXoXoXoXoXoXoXoXoXoXoXoXoXoXoXoXoXoXoXoXoXoXoX].'.[.+X6X6XQ.x.( o.+.6.$.+.+.6.6.$.O.-.x. XuX<XXXoXXX<X<XOXOXXXXXoXXXXXXXoXoXoXXX'.<XXX'.rX6XR.j.| O.$.w.6.6.6.6.6.6.6.6.:.:.:.6.6.6.6.6.6.6.6.6.6.6.6.6.6.6.6.6.6.6.6.6.6.6.6.6.6.6.6.6.6.6.6.6.6.6.6.6.6.6.6.6.6.6.6.6.6.6.6.6.6.6.6.6.6.6.6.6.6.6.6.6.6.6.6.6.6.6.6.6.6.6.6.6.6.6.6.6.6.6.6.6.6.6.6.6.6.6.6.6.6.6.6.6.6.6.6.6.&.%.$.$.6.$.O...2.G.,X2X[.[.[.`.'.XX[.`.oXCX~.z.-.+.$.6.7.6.@.@.3.@. .| A.,XrX[.'.'.&X&X&X*XXXoX+X'.[.&X*X<XXX@XoXoX].'.oXoXXXXXXXXXoXoXoXoX'.XXXX_.-XGXxXD & - y y y y 0 0 0 e 1 p IXIXIXIXIXIXIXIXIXIXIXIXIXIXIXIXIXIXIXIXIXIXIXIXIXIXIXIXIXIXIXIXIXIXIX",
"IXIXIXIXIXIXIXIXIXIXIXIXIXIXIXIXIXIXIXIXIXIXIXIXIXIXIXIXIXIXIXIXIXIXIXW < 1 g 1 1 g 1 1 g < = $ H zXFX].'.oX'.<XoXoXoXoXoXoXoXoXoXoXoXoXoXoXoXoXoXoXoXoXoXoXoXoXoXoXoXoXoXoXoXoXoXoXoXoXoXoXoXoXoXXXXX'.].4X~.z.-.+.+.+.6.6.6.:.6.6.6.6.6.6.6.6.6.6.6.6.6.6.6.6.} u.W.5X4XXXXX'.].].XX<XXX].oXoXoXoXoXoXoXoXoXoXoXoXoXoXoXoXoXoXoXoXoXoXoXoXoXoXoXoXoXoXoXoXoXoXoXoXoXoXoXoXoXoXoXoXoXoXoXoXoX].'.[.+X4X6XQ.x.( o.+.6.$.+.+.6.6.$.O.-.x. XCX<XXXoXXX<X<XOXOXXXXXoXXXXXXXoXoXoXXX'.<XXX'.rX6XR.j.| O.$.w.6.6.6.6.6.6.6.6.:.:.:.6.6.6.6.6.6.6.6.6.6.6.6.6.6.6.6.6.6.6.6.6.6.6.6.6.6.6.6.6.6.6.6.6.6.6.6.6.6.6.6.6.6.6.6.6.6.6.6.6.6.6.6.6.6.6.6.6.6.6.6.6.6.6.6.6.6.6.6.6.6.6.6.6.6.6.6.6.6.6.6.6.6.6.6.6.6.6.6.6.6.6.6.6.6.6.6.6.&.#.$.$.6.$.O...2.G.5XaXtX=X=X*X1X4X<X'.uXDXE.f.-.} +.%.+.+. . .+.X./ | A.,XpXqXoX<X<X&X*X*XoX+XCX4X*X&X*XXXXX+XoXoX].'.oXoXXXXXXXXXoXoXoXoX].XXXX_.-XGXxXD & - y y 1 1 1 1 0 0 1 y IXIXIXIXIXIXIXIXIXIXIXIXIXIXIXIXIXIXIXIXIXIXIXIXIXIXIXIXIXIXIXIXIXIXIX",
"IXIXIXIXIXIXIXIXIXIXIXIXIXIXIXIXIXIXIXIXIXIXIXIXIXIXIXIXIXIXIXIXIXIXIXW < 1 g 1 1 g 1 1 g < = $ H zXFX].'.oX'.<XoXoXoXoXoXoXoXoXoXoXoXoXoXoXoXoXoXoXoXoXoXoXoXoXoXoXoXoXoXoXoXoXoXoXoXoXoXoXoXoXoXXXXX'.=X4X~.z.-.+.+.+.6.6.6.:.6.6.6.6.6.6.6.6.6.6.6.6.6.6.$.$.} u.W.5X4XXXXX'.].].XX<XXX].oXoXoXoXoXoXoXoXoXoXoXoXoXoXoXoXoXoXoXoXoXoXoXoXoXoXoXoXoXoXoXoXoXoXoXoXoXoXoXoXoXoXoXoXoXoXoXoXoX].XX'.+X6X6XQ.x.( o.+.6.$.$.$.6.6.$.+.-.x. XCX<XXXoXXX<X<XOXOXXXXXoXXXXXXXoXoXoXXX'.<XXX'.rX6XR.j.| O.$.6.6.6.6.6.6.6.6.6.:.:.6.6.6.6.6.6.6.6.6.6.6.6.6.6.6.6.6.6.6.6.6.6.6.6.6.6.6.6.6.6.6.6.6.6.6.6.6.6.6.6.6.6.6.6.6.6.6.6.6.6.6.6.6.6.6.6.6.6.6.6.6.6.6.6.6.6.6.6.6.6.6.6.6.6.6.6.6.6.6.6.6.6.6.6.6.6.6.6.6.6.6.6.6.6.6.6.6.6.&.@.6.7.0.0.:.-.2.K.BXSXZXyX6X5XCXuX1X6XSXDXE.f.` ( } X.o.X. . .} / ^ ` A.mXFXZXeXyX4X6X2XyXyXZXZXMX7X*X'.'.+XOXoXoX].].oXoXoXXXXXXXoXoXoXoX].XXXX_.=XGXxXD & - y 1 1 1 1 1 1 1 1 1 IXIXIXIXIXIXIXIXIXIXIXIXIXIXIXIXIXIXIXIXIXIXIXIXIXIXIXIXIXIXIXIXIXIXIX",
"IXIXIXIXIXIXIXIXIXIXIXIXIXIXIXIXIXIXIXIXIXIXIXIXIXIXIXIXIXIXIXIXIXIXIXW < 1 g 1 1 g 1 1 g < = $ H zXFX].'.oX[.<XoXoXoXoXoXoXoXoXoXoXoXoXoXoXoXoXoXoXoXoXoXoXoXoXoXoXoXoXoXoXoXoXoXoXoXoXoXoXoXoXoXXXXX'.=X4X~.z.-.+.+.+.6.6.6.:.6.6.6.6.6.6.6.6.6.6.6.6.6.6.6.$.} u.W.5X4XXXXX'.].].XX<XXX].oXoXoXoXoXoXoXoXoXoXoXoXoXoXoXoXoXoXoXoXoXoXoXoXoXoXoXoXoXoXoXoXoXoXoXoXoXoXoXoXoXoXoXoXoXoXoXoXoX].XX'.+X4X6XQ.x.( o.+.6.$.$.$.6.6.$.O.-.x. XCX<XXXoXXX<X<XOXOXXXXXoXXXXXXXoXoXoXXX'.<XXX'.rX6XR.j.| O.$.6.6.6.6.6.6.6.6.6.:.:.6.7.6.6.6.6.6.6.6.6.6.6.6.6.6.6.6.6.6.6.6.6.6.6.6.6.6.6.6.6.6.6.6.6.6.6.6.6.6.6.6.6.6.6.6.6.6.6.6.6.6.6.6.6.6.6.6.6.6.6.6.6.6.6.6.6.6.6.6.6.6.6.6.6.6.6.6.6.6.6.6.6.6.6.6.6.6.6.6.6.6.6.6.6.6.6.6.:.@.:.:.7.0.0.:.-.1.F.mXBXNX|. X:X>X,X X;XmXmXE.n.2.,.,.,.,.,.,.,.,.,.,.h.F.$XMX4X+XzX>X>X,X,XOXlXmXmX3X<X'.XX+XOXXX'.].].oXoXoXXXXXXXoXoXoXoX].XXXX_.=XGXxXD & - y 1 1 1 1 1 1 1 1 1 IXIXIXIXIXIXIXIXIXIXIXIXIXIXIXIXIXIXIXIXIXIXIXIXIXIXIXIXIXIXIXIXIXIXIX",
"IXIXIXIXIXIXIXIXIXIXIXIXIXIXIXIXIXIXIXIXIXIXIXIXIXIXIXIXIXIXIXIXIXIXIXW < 1 g 1 1 g 1 1 g < = $ H zXFX].'.oX[.<XoXoXoXoXoXoXoXoXoXoXoXoXoXoXoXoXoXoXoXoXoXoXoXoXoXoXoXoXoXoXoXoXoXoXoXoXoXoXoXoXoXXXXX*X=X2X~.z.-.+.+.+.6.6.6.:.6.6.6.6.6.6.6.6.6.6.6.6.6.6.$.$.} y.W.6X4XXXXX'.].].XX<XXX].oXoXoXoXoXoXoXoXoXoXoXoXoXoXoXoXoXoXoXoXoXoXoXoXoXoXoXoXoXoXoXoXoXoXoXoXoXoXoXoXoXoXoXoXoXoXoXoXoX].'.[.+X4X6XQ.x.( o.+.6.6.+.+.6.w.$.O.-.x. XCXoXoXoXXX<X<XOXOXXXXXoXXXXXXXoXoXoXXX'.<XXX'.rXuXR.k.| O.$.6.6.6.6.6.6.6.6.6.6.6.7.7.6.6.6.6.6.6.6.6.6.6.6.6.6.6.6.6.6.6.6.6.6.6.6.6.6.6.6.6.6.6.6.6.6.6.6.6.6.6.6.6.6.6.6.6.6.6.6.6.6.6.6.6.6.6.6.6.6.6.6.6.6.6.6.6.6.6.6.6.6.6.6.6.6.6.6.6.6.6.6.6.6.6.6.6.6.6.6.6.6.6.6.6.6.6.6.:.:.:.:.7.0.7.6.:.,.l.H.K.J.G.F.H.H.F.F.F.F.F.H.H.A.A.A.A.A.A.A.A.A.A.F.G.J.J.S.A.G.H.F.F.F.F.F.F.V.K./.<X<XoXoXXX<X*X].].oXoXoXXXXXXXoXoXoXoX].XXXX_.=XGXxXD & - y 1 1 1 1 1 p y 1 1 IXIXIXIXIXIXIXIXIXIXIXIXIXIXIXIXIXIXIXIXIXIXIXIXIXIXIXIXIXIXIXIXIXIXIX",
"IXIXIXIXIXIXIXIXIXIXIXIXIXIXIXIXIXIXIXIXIXIXIXIXIXIXIXIXIXIXIXIXIXIXIXW < 1 g 1 1 g 1 1 g < = $ H zXFX].'.oX[.<XoXoXoXoXoXoXoXoXoXoXoXoXoXoXoXoXoXoXoXoXoXoXoXoXoXoXoXoXoXoXoXoXoXoXoXoXoXoXoXoXoXXXXX'.=X2X~.k.-.+.+.+.6.6.6.:.6.6.6.6.6.6.6.6.6.6.6.6.6.6.$.$.} q.W.6X4XXXXX'.].].XX<XXX].oXoXoXoXoXoXoXoXoXoXoXoXoXoXoXoXoXoXoXoXoXoXoXoXoXoXoXoXoXoXoXoXoXoXoXoXoXoXoXoXoXoXoXoXoXoXoXoXoX].'.[.+X6X6XQ.x.( o.+.6.6.+.+.6.w.$.+.-.x. XCX<XoXoXXX<X<XOXOXXXXXoXXXXXXXoXoXoXXX'.<XXX'.rXuXR.k.| O.$.6.6.6.6.6.6.6.6.6.6.6.7.7.6.6.6.6.6.6.6.6.6.6.6.6.6.6.6.6.6.6.6.6.6.6.6.6.6.6.6.6.6.6.6.6.6.6.6.6.6.6.6.6.6.6.6.6.6.6.6.6.6.6.6.6.6.6.6.6.6.6.6.6.6.6.6.6.6.6.6.6.6.6.6.6.6.6.6.6.6.6.6.6.6.6.6.6.6.6.6.6.6.6.6.6.6.6.6.:.:.:.:.7.7.7.$.+.} >.y.h.1.<.<.u.q.<.>.>.,.2.c.R.$X$X$X$X;X;X;X;X.X,XmX/.G.f.,.-.<.>.>.>.>.>.<.<.] b.T._.+X+XoXXX*X*X].].oXoXoXXXXXXXoXoXoXoX].XXXX_.=XGXxXD & - y 0 1 1 0 1 p p 1 1 IXIXIXIXIXIXIXIXIXIXIXIXIXIXIXIXIXIXIXIXIXIXIXIXIXIXIXIXIXIXIXIXIXIXIX",
"IXIXIXIXIXIXIXIXIXIXIXIXIXIXIXIXIXIXIXIXIXIXIXIXIXIXIXIXIXIXIXIXIXIXIXW < 1 g 1 1 g 1 g g < = $ H zXFX].'.oX[.<XoXoXoXoXoXoXoXoXoXoXoXoXoXoXoXoXoXoXoXoXoXoXoXoXoXoXoXoXoXoXoXoXoXoXoXoXoXoXoXoXoXXXXX'.=X2X~.k.-.+.+.+.6.6.6.:.6.6.6.6.6.6.6.6.6.6.$.$.6.6.6.$.} q.W.6X4X+XXX'.].].XX<XXX].oXoXoXoXoXoXoXoXoXoXoXoXoXoXoXoXoXoXoXoXoXoXoXoXoXoXoXoXoXoXoXoXoXoXoXoXoXoXoXoXoXoXoXoXoXoXoXoXoX].'.[.+X6X6XQ.x.( o.+.6.6.+.+.6.w.$.O.-.x. XCX<XXXoXXX<X<XOXOXXXXXoXXXXXXXoXoXoXXX'.<XXX'.rXuXR.k.| O.$.6.6.6.6.6.6.6.6.6.6.6.7.7.6.6.6.6.6.6.6.6.6.6.6.6.6.6.6.6.6.6.6.6.6.6.6.6.6.6.6.6.6.6.6.6.6.6.6.6.6.6.6.6.6.6.6.6.6.6.6.6.6.6.6.6.6.6.6.6.6.6.6.6.6.6.6.6.6.6.6.6.6.6.6.6.6.6.6.6.6.6.6.6.6.6.6.6.6.6.6.6.6.6.6.6.6.6.6.:.:.:.:.6.7.w.&.#.O. .| | | }  .O.o.} X.O./ ( z.~.BX6X6X2X2X2XuXuX<XuXSXmXS.,.^ [  .X.X.X.} } o.( ) f.T.|.rXwXXXXX*X*X*X].oXoXoXoXXXXXoXoXoXoX].XXXX_.-XGXxXD & - y y y 4 0 0 0 y 1 1 IXIXIXIXIXIXIXIXIXIXIXIXIXIXIXIXIXIXIXIXIXIXIXIXIXIXIXIXIXIXIXIXIXIXIX",
"IXIXIXIXIXIXIXIXIXIXIXIXIXIXIXIXIXIXIXIXIXIXIXIXIXIXIXIXIXIXIXIXIXIXIXW < 1 g 1 1 g 1 p g < = $ H zXFX].'.oX[.<XoXoXoXoXoXoXoXoXoXoXoXoXoXoXoXoXoXoXoXoXoXoXoXoXoXoXoXoXoXoXoXoXoXoXoXoXoXoXoXoXoXXXXX*X=X5X~.k.-.+.+.+.6.6.6.:.6.6.6.6.6.6.6.6.6.6.$.$.6.6.6.6.} q.W.6X4XXXXX'.].].XX<XXX].oXoXoXoXoXoXoXoXoXoXoXoXoXoXoXoXoXoXoXoXoXoXoXoXoXoXoXoXoXoXoXoXoXoXoXoXoXoXoXoXoXoXoXoXoXoXoXoXoX].'.[.+X6X6XQ.x.( o.+.6.6.+.+.6.w.$.O.-.x. XuX<X'.oXXX<X<XOXOXXX'.oXXXXXXXoXoXoXXX'.<XXX'.rXuXR.k.| O.$.6.6.6.6.6.6.6.6.6.6.6.7.7.6.6.6.6.6.6.6.6.6.6.6.6.6.6.6.6.6.6.6.6.6.6.6.6.6.6.6.6.6.6.6.6.6.6.6.6.6.6.6.6.6.6.6.6.6.6.6.6.6.6.6.6.6.6.6.6.6.6.6.6.6.6.6.6.6.6.6.6.6.6.6.6.6.6.6.6.6.6.6.6.6.6.6.6.6.6.6.6.6.6.6.6.6.6.6.:.@.@.:.6.w.w.&.#.*.+.o.| O.O.O.=.&.O.O.*.{ / v.$X3X<X*X[.].oX+X+X[.0XAXNXA.,.[ =.*.*.&.&.%.$.6.6./ j.E.3XiXeXXX_.*X*X*X].oXoXoXoXXXXXoXoXoXoX].XXXX_.-XGXxXD & - y y 4 4 0 0 d y 1 1 IXIXIXIXIXIXIXIXIXIXIXIXIXIXIXIXIXIXIXIXIXIXIXIXIXIXIXIXIXIXIXIXIXIXIX",
"IXIXIXIXIXIXIXIXIXIXIXIXIXIXIXIXIXIXIXIXIXIXIXIXIXIXIXIXIXIXIXIXIXIXIXW 1 y g 1 1 g 1 1 g < = $ H zXFX=XXXoX'.].oXoXoXoXoXoXoXoXoXoXoXoXoXoXoXoXoXoXoXoXoXoXoXoXoXoXoXoXoXoXoXoXoXoXoXoXoXoXoXoXoXXX<X<X1X6X(.z.-.O.O.+.6.6.6.:.6.6.6.6.6.6.6.6.6.6.6.6.$.$.6.6.} 1.W.6X4X+XXX'.].].XX<XXX].oXoXoXoXoXoXoXoXoXoXoXoXoXoXoXoXoXoXoXoXoXoXoXoXoXoXoXoXoXoXoXoXoXoXoXoXoXoXoXoXoXoXoXoXoXoXoXoXoX].'.[.+X4X6XQ.x.( :.:.6.$.&.&.6.6.$.o.;.x./.uXyX'.oXXX<X<XOXXXXX'.oXoXoXoXoXoXoXXX<X_.XXXX0X2X^.j.| O.$.6.6.6.6.6.6.6.6.6.6.6.6.7.6.6.6.6.6.6.6.6.6.6.6.6.6.6.6.6.6.6.6.6.6.6.6.6.6.6.6.6.6.6.6.6.6.6.6.6.6.6.6.6.6.6.6.6.6.6.6.6.6.6.6.6.6.6.6.6.6.6.6.6.6.6.6.6.6.6.6.6.6.6.6.6.6.6.6.6.6.6.6.6.6.6.6.6.6.6.6.6.6.6.6.6.6.6.6.6.@.@.+.6.6.$.%.%.$.$.6.:.6.+.&.@.:.+.@.&.{ } z.~.6X1X].[.XXoX+X+X'.oXZXNXF.,.[ *.$.6.6.6.6.:.:.:.} 5.Y.NXeXwXoX|.*X*X*X].oXoXoXoXXXXXoXoXoXoX].XXXX_.-XGXxXD % = y 1 1 1 y 1 1 1 1 1 IXIXIXIXIXIXIXIXIXIXIXIXIXIXIXIXIXIXIXIXIXIXIXIXIXIXIXIXIXIXIXIXIXIXIX",
"IXIXIXIXIXIXIXIXIXIXIXIXIXIXIXIXIXIXIXIXIXIXIXIXIXIXIXIXIXIXIXIXIXIXIXW 1 y g 1 1 g 1 1 g < = $ H zXFX=XXXoX'.].oXoXoXoXoXoXoXoXoXoXoXoXoXoXoXoXoXoXoXoXoXoXoXoXoXoXoXoXoXoXoXoXoXoXoXoXoXoXoXoXoXXX<X<X1X6X~.z.-.O.O.+.6.6.6.:.6.6.6.6.6.6.6.6.6.6.6.6.$.$.$.6.} 1.T.5X4X+XXX'.].].XX<XXX].oXoXoXoXoXoXoXoXoXoXoXoXoXoXoXoXoXoXoXoXoXoXoXoXoXoXoXoXoXoXoXoXoXoXoXoXoXoXoXoXoXoXoXoXoXoXoXoXoX].'.[.+X4X6XQ.x.( :.:.6.$.$.&.6.6.$.o.;.x./.uXyX'.oXXX<X<XXXXXXX*XoXoXoXXXoXoXoXXX<X_.XXXX0X2X^.j.| O.+.6.6.6.6.6.6.6.6.6.6.6.6.7.6.6.6.6.6.6.6.6.6.6.6.6.6.6.6.6.6.6.6.6.6.6.6.6.6.6.6.6.6.6.6.6.6.6.6.6.6.6.6.6.6.6.6.6.6.6.6.6.6.6.6.6.6.6.6.6.6.6.6.6.6.6.6.6.6.6.6.6.6.6.6.6.6.6.6.6.6.6.6.6.6.6.6.6.6.6.6.6.6.6.6.6.6.6.6.6.$.$.$.6.6.6.6.6.6.6.7.7.6.6.+.+.:.+.@.&.[ } z.~.6XwX].[.'.oXOXOX'.<XCXmXF.>.[ &.9.7.7.6.6.+.+.@.[ u.K.NXeXwXoX|.*X*X].].oXoXoXoXXXXXoXoXoXoX].XXXX_.-XGXxXD * = y 1 1 1 d 1 1 1 1 1 IXIXIXIXIXIXIXIXIXIXIXIXIXIXIXIXIXIXIXIXIXIXIXIXIXIXIXIXIXIXIXIXIXIXIX",
"IXIXIXIXIXIXIXIXIXIXIXIXIXIXIXIXIXIXIXIXIXIXIXIXIXIXIXIXIXIXIXIXIXIXIXW 1 y g 1 1 e 1 1 g < = $ H zXFX=XXXoX'.].oXoXoXoXoXoXoXoXoXoXoXoXoXoXoXoXoXoXoXoXoXoXoXoXoXoXoXoXoXoXoXoXoXoXoXoXoXoXoXoXoXXX<X<X1X6X~.k.-.O.O.+.6.6.6.:.6.6.6.6.6.6.6.6.6.6.6.6.$.$.6.6.} 1.T.5X4X+XXX'.].].XX<XXX].oXoXoXoXoXoXoXoXoXoXoXoXoXoXoXoXoXoXoXoXoXoXoXoXoXoXoXoXoXoXoXoXoXoXoXoXoXoXoXoXoXoXoXoXoXoXoXoXoX].XX'.+X6X6XQ.x.( :.:.6.$.$.$.6.6.$.o.;.x./.6X4X'.oXXX<X<XXXXXXX*XoXoXXXXXoXoXoXXX<X_.XXXX0X2X^.j.| O.+.6.6.6.6.6.6.6.6.6.:.:.7.7.6.6.6.6.6.6.6.6.6.6.6.6.6.6.6.6.6.6.6.6.6.6.6.6.6.6.6.6.6.6.6.6.6.6.6.6.6.6.6.6.6.6.6.6.6.6.6.6.6.6.6.6.6.6.6.6.6.6.6.6.6.6.6.6.6.6.6.6.6.6.6.6.6.6.6.6.6.6.6.6.6.6.6.6.6.6.6.6.6.6.6.6.6.6.6.6.:.6.6.7.7.7.7.7.6.7.7.7.:.:.:.$.6.$.$.&.{ } z.).4XwX[.[.[.'.XXXX&X<XyXmXF.>.} *.7.7.7.6.6.+.@.#.[ u.K.3XrXoX<X|.*X*X].].oXoXoXoXXXXXoXoXoXoX].XXXX_.-XGXxXD % - y 1 4 1 d d 1 1 1 1 W IXIXIXIXIXIXIXIXIXIXIXIXIXIXIXIXIXIXIXIXIXIXIXIXIXIXIXIXIXIXIXIXIXIX",
"IXIXIXIXIXIXIXIXIXIXIXIXIXIXIXIXIXIXIXIXIXIXIXIXIXIXIXIXIXIXIXIXIXIXIXW 1 y g 1 1 g 1 1 g < = $ H zXFX=XXXoX'.].oXoXoXoXoXoXoXoXoXoXoXoXoXoXoXoXoXoXoXoXoXoXoXoXoXoXoXoXoXoXoXoXoXoXoXoXoXoXoXoXoXXX<X<X1X6X~.z.-.O.O.+.6.6.6.:.6.6.6.6.6.6.6.6.6.6.6.6.6.$.6.6.| q.T.5X4X+XXX'.].].XXXXXX].oXoXoXoXoXoXoXoXoXoXoXoXoXoXoXoXoXoXoXoXoXoXoXoXoXoXoXoXoXoXoXoXoXoXoXoXoXoXoXoXoXoXoXoXoXoXoXoXoX].XX'.+X4X6XQ.x.( :.:.6.$.$.$.6.6.$.o.;.x./.6X4X'.oXXX*X<XOXXXXX*X].oXXXXXoXoXoXXX<X_.XXXX0X2X^.j.| O.+.6.6.6.6.6.6.6.:.:.:.:.7.7.6.6.6.6.6.6.6.6.6.6.6.6.6.6.6.6.6.6.6.6.6.6.6.6.6.6.6.6.6.6.6.6.6.6.6.6.6.6.6.6.6.6.6.6.6.6.6.6.6.6.6.6.6.6.6.6.6.6.6.6.6.6.6.6.6.6.6.6.6.6.6.6.6.6.6.6.6.6.6.6.6.6.6.6.6.6.6.6.6.6.6.6.6.6.6.6.7.7.7.:.:.7.7.7.7.7.6.6.6.:.+.$.6.$.9.6.{ } z.~.4XwX[.[.[.[.'._.&X*XuX>XF.>./ 9.0.0.6.6.6.$.@.@.[ <.K.3XrXoX<X|.*X*X].oXXXXXoX].oXXXoXoXoXoX].XXXX_.-XGXxXD % - y 1 4 e g g 1 1 1 1 W IXIXIXIXIXIXIXIXIXIXIXIXIXIXIXIXIXIXIXIXIXIXIXIXIXIXIXIXIXIXIXIXIXIX",
"IXIXIXIXIXIXIXIXIXIXIXIXIXIXIXIXIXIXIXIXIXIXIXIXIXIXIXIXIXIXIXIXIXIXIXW 1 y g 1 1 e 1 1 g < = $ H zXFX=XXXoX'.].oXoXoXoXoXoXoXoXoXoXoXoXoXoXoXoXoXoXoXoXoXoXoXoXoXoXoXoXoXoXoXoXoXoXoXoXoXoXoXoXoXXX<X<X1X6X~.z.-.O.+.+.6.6.6.:.6.6.6.6.6.6.6.6.6.6.$.6.6.6.6.6.| y.T.6X4XoXoX'.].].XXXXXX].oXoXoXoXoXoXoXoXoXoXoXoXoXoXoXoXoXoXoXoXoXoXoXoXoXoXoXoXoXoXoXoXoXoXoXoXoXoXoXoXoXoXoXoXoXoXoXoXoX].'.[.+X4X6XQ.x.( :.:.6.$.$.$.6.6.$.o.;.x./.uXyX'.oXXX*X<XXXXXXX*X].XXXXXXoXoXoXXX<X'.XXXX0X2X^.j.| O.+.6.6.6.6.6.6.6.6.6.:.:.:.7.6.6.6.6.6.6.6.6.6.6.6.6.6.6.6.6.6.6.6.6.6.6.6.6.6.6.6.6.6.6.6.6.6.6.6.6.6.6.6.6.6.6.6.6.6.6.6.6.6.6.6.6.6.6.6.6.6.6.6.6.6.6.6.6.6.6.6.6.6.6.6.6.6.6.6.6.6.6.6.6.6.6.6.6.6.6.6.6.6.6.6.6.6.6.6.7.7.7.7.7.7.:.:.:.6.6.$.$.%.@.@.$.6.:.7.6. .} z.~.NX+X'._.'.*X<X&X_.*XuX>XF.,./ 6.7.7.6.6.0.0.7.6. .5.R.3XrXoX<X|.<XoXoXoXXXXXoX].oXXXoXoXoXoX].XXXX_.=XGXxXD * = y g 4 1 0 4 1 1 1 1 W IXIXIXIXIXIXIXIXIXIXIXIXIXIXIXIXIXIXIXIXIXIXIXIXIXIXIXIXIXIXIXIXIXIX",
"IXIXIXIXIXIXIXIXIXIXIXIXIXIXIXIXIXIXIXIXIXIXIXIXIXIXIXIXIXIXIXIXIXIXIXW 1 y g 1 1 g 1 1 g < = $ H zXFX=XXXoX'.].oXoXoXoXoXoXoXoXoXoXoXoXoXoXoXoXoXoXoXoXoXoXoXoXoXoXoXoXoXoXoXoXoXoXoXoXoXoXoXoXoXXX<X<X1X6X~.z.-.O.+.+.6.6.6.:.6.6.6.6.6.6.6.6.6.6.6.6.6.6.6.6.| y.T.6X4XoXoX'.].].XXXXXX].oXoXoXoXoXoXoXoXoXoXoXoXoXoXoXoXoXoXoXoXoXoXoXoXoXoXoXoXoXoXoXoXoXoXoXoXoXoXoXoXoXoXoXoXoXoXoXoXoX].'.[.+X6X6XQ.x.( :.:.6.$.$.$.6.6.$.o.,.x./.uXyX'.XXXX*X*XXXXXXX*X].XXXXXXoXoXoXXX<X'.XXXX0X2X^.j.| O.+.6.6.6.6.6.6.6.6.6.:.:.6.7.6.6.6.6.6.6.6.6.6.6.6.6.6.6.6.6.6.6.6.6.6.6.6.6.6.6.6.6.6.6.6.6.6.6.6.6.6.6.6.6.6.6.6.6.6.6.6.6.6.6.6.6.6.6.6.6.6.6.6.6.6.6.6.6.6.6.6.6.6.6.6.6.6.6.6.6.6.6.6.6.6.6.6.6.6.6.6.6.6.6.6.6.6.6.6.7.7.7.7.:.:.:.:.:.6.$.%.%.%.%.$.$.$.+.7.6.} } k.~.NX4XXX<X'.<X<X&X[.=XuX>XF.,./ 6.7.:.+.$.0.0.0.7.} 5.Y.5X1XoX<XXXXXoXoXoX<X<XoX].].XXoXoXoXoX].XXXX_.=XGXxXD * = y d 1 1 d y 4 1 1 1 W IXIXIXIXIXIXIXIXIXIXIXIXIXIXIXIXIXIXIXIXIXIXIXIXIXIXIXIXIXIXIXIXIXIX",
"IXIXIXIXIXIXIXIXIXIXIXIXIXIXIXIXIXIXIXIXIXIXIXIXIXIXIXIXIXIXIXIXIXIXIXW 1 y g 1 1 g 1 1 g < = $ H zXFX=XXXoX'.].oXoXoXoXoXoXoXoXoXoXoXoXoXoXoXoXoXoXoXoXoXoXoXoXoXoXoXoXoXoXoXoXoXoXoXoXoXoXoXoXXXXX<X<X1X5X~.k.-.O.+.+.6.6.6.:.6.6.6.6.6.6.6.6.6.6.6.6.$.$.6.6.} q.T.6X4XoXoX'.].].XXXXXX].oXoXoXoXoXoXoXoXoXoXoXoXoXoXoXoXoXoXoXoXoXoXoXoXoXoXoXoXoXoXoXoXoXoXoXoXoXoXoXoXoXoXoXoXoXoXoXoXoX].'.[.+X6X6XQ.x.( :.:.6.$.$.$.6.6.$.o.,.x./.uXyX'.XXXX*X*XXXXX'.*X].XXXXXXoXoXXXXX<X'.XXXX0X2X^.j.| O.+.6.6.6.6.6.6.6.6.6.:.:.6.6.6.6.6.6.6.6.6.6.6.6.6.6.6.6.6.6.6.6.6.6.6.6.6.6.6.6.6.6.6.6.6.6.6.6.6.6.6.6.6.6.6.6.6.6.6.6.6.6.6.6.6.6.6.6.6.6.6.6.6.6.6.6.6.6.6.6.6.6.6.6.6.6.6.6.6.6.6.6.6.6.6.6.6.6.6.6.6.6.6.6.6.6.6.6.6.6.:.:.6.:.:.:.:.:.6.6.$.$.$.6.7.6.%.+.6.:. .} g.^.NXyX3XXXoX<X<X<X'.<XyXmXF.,.) 6.:.@.#.#.6.9.6.:.} 1.Y.5X1X].<XXXoXoXoXXX<X<XoX].].XXoXoXoXoX].XXXX_.-XGXxXD * = y 1 1 1 1 0 1 1 1 1 W IXIXIXIXIXIXIXIXIXIXIXIXIXIXIXIXIXIXIXIXIXIXIXIXIXIXIXIXIXIXIXIXIXIX",
"IXIXIXIXIXIXIXIXIXIXIXIXIXIXIXIXIXIXIXIXIXIXIXIXIXIXIXIXIXIXIXIXIXIXIXW 1 y g 1 1 g 1 1 g < = $ H zXFX=XXXoX'.].oXoXoXoXoXoXoXoXoXoXoXoXoXoXoXoXoXoXoXoXoXoXoXoXoXoXoXoXoXoXoXoXoXoXoXoXoXoXoXoXoXXX<X<X1X5X~.k.-.O.+.+.6.6.6.:.6.6.6.6.6.6.6.6.6.6.6.6.$.$.$.6.} q.T.6X4XoXoX'.].].XXXXXX].oXoXoXoXoXoXoXoXoXoXoXoXoXoXoXoXoXoXoXoXoXoXoXoXoXoXoXoXoXoXoXoXoXoXoXoXoXoXoXoXoXoXoXoXoXoXoXoXoX].'.[.+X6X6XQ.x.( :.:.6.$.$.$.6.6.$.o.,.x./.uXyX'.XXXX<X<XXXXXXX'.oXXXXXXXoXoXoXXX<X'.XXXX0X2X^.j.| O.+.6.6.6.6.6.6.6.6.6.:.:.6.7.6.6.6.6.6.6.6.6.6.6.6.6.6.6.6.6.6.6.6.6.6.6.6.6.6.6.6.6.6.6.6.6.6.6.6.6.6.6.6.6.6.6.6.6.6.6.6.6.6.6.6.6.6.6.6.6.6.6.6.6.6.6.6.6.6.6.6.6.6.6.6.6.6.6.6.6.6.6.6.6.6.6.6.6.6.6.6.6.6.6.6.6.6.6.6.6.+.+.:.:.:.:.6.6.$.$.6.6.6.6.7.7.6.%.6.3. .} l.R.NXMX4XoXoX<X<X<X'.+XCXmXF.2.( 6.:.+.#.#.&.$.:.:.| 1.Y.7X1X'.<XXXoXoXoXXX<X<XoXoX].XXoXoXoXoX'.XXXX_.-XGXxXD * = y 1 1 1 1 1 1 1 1 1 W IXIXIXIXIXIXIXIXIXIXIXIXIXIXIXIXIXIXIXIXIXIXIXIXIXIXIXIXIXIXIXIXIXIX",
"IXIXIXIXIXIXIXIXIXIXIXIXIXIXIXIXIXIXIXIXIXIXIXIXIXIXIXIXIXIXIXIXIXIXIXW 1 1 g 1 1 g 1 g g < = $ H zXFX=XXXoX'.].oXoXoXoXoXoXoXoXoXoXoXoXoXoXoXoXoXoXoXoXoXoXoXoXoXoXoXoXoXoXoXoXoXoXoXoXoXoXoXoXXX'.'.*X=X5X~.k.-.+.+.+.6.6.6.6.6.6.6.6.6.6.6.6.6.6.6.6.6.$.6.6.} q.T.6X4XoXXX'.].].XXXXXX].oXoXoXoXoXoXoXoXoXoXoXoXoXoXoXoXoXoXoXoXoXoXoXoXoXoXoXoXoXoXoXoXoXoXoXoXoXoXoXoXoXoXoXoXoXoXoXoXoX].'.[.+X4X6XQ.x.( o.+.6.$.+.+.$.6.$.O.;.x. XuX<X'.oXXX<X<XOXOXXXXXoXXXXXXXoXoXoXXXXX<XXX'.rX6XR.j.| O.$.6.6.6.6.6.6.6.6.6.6.6.7.6.6.6.6.6.6.6.6.6.6.6.6.6.6.6.6.6.6.6.6.6.6.6.6.6.6.6.6.6.6.6.6.6.6.6.6.6.6.6.6.6.6.6.6.6.6.6.6.6.6.6.6.6.6.6.6.6.6.6.6.6.6.6.6.6.6.6.6.6.6.6.6.6.6.6.6.6.6.6.6.6.6.6.6.6.6.6.6.6.6.6.6.6.6.6.6.:.@.+.:.:.:.6.$.%.=.O.| ( | o.o.) ' ) X.[ ^ ^ g.%XBXJXZXCXuXuXuXuX4XCXJXBXJ.] ) | ) / / [ [ [ ( ` ` f.T.;X6X<X'.[.].].'.XXXXXXoXoXoXXXoXoXoXoX'.'.XX[.-XFXxXD * - y 1 d g 1 1 1 1 e e W IXIXIXIXIXIXIXIXIXIXIXIXIXIXIXIXIXIXIXIXIXIXIXIXIXIXIXIXIXIXIXIXIXIX",
"IXIXIXIXIXIXIXIXIXIXIXIXIXIXIXIXIXIXIXIXIXIXIXIXIXIXIXIXIXIXIXIXIXIXIXW < 1 g 1 1 g 1 g g < = $ H zXFX=XXXoX'.].oXoXoXoXoXoXoXoXoXoXoXoXoXoXoXoXoXoXoXoXoXoXoXoXoXoXoXoXoXoXoXoXoXoXoXoXoXoXoXoXXX'.'.*X=X5X~.k.-.+.+.+.6.6.6.6.6.6.6.6.6.6.6.6.6.6.6.6.6.$.$.$.} q.T.6X4XoXXX'.].].XX<XoX].oXoXoXoXoXoXoXoXoXoXoXoXoXoXoXoXoXoXoXoXoXoXoXoXoXoXoXoXoXoXoXoXoXoXoXoXoXoXoXoXoXoXoXoXoXoXoXoXoX].'.[.+X4X6XQ.x.( o.+.6.$.+.+.$.6.$.O.;.x. XuX<X'.oXOX<X<XOXOXXXXXoXXXXXXXoXoXoXXXXX<XXX'.rX6XR.j.| O.$.6.6.6.6.6.6.6.6.6.6.6.7.7.6.6.6.6.6.6.6.6.6.6.6.6.6.6.6.6.6.6.6.6.6.6.6.6.6.6.6.6.6.6.6.6.6.6.6.6.6.6.6.6.6.6.6.6.6.6.6.6.6.6.6.6.6.6.6.6.6.6.6.6.6.6.6.6.6.6.6.6.6.6.6.6.6.6.6.6.6.6.6.6.6.6.6.6.6.6.6.6.6.6.6.6.6.6.6.:.@.@.+.:.:.7.$.%.#.e.g.g.l.x.l.h.B.l.y.u.5.g.C.G.~.(.(.!.E.!.~.!.!.!.(.^.G.b.f.z.l.h.j.y.u.u.k.z.f.M.E.,X5X<X'.[.].*X'.*XXXoXoXoXoX'.oXoXoXoX'.'.XX[.2XHXxXD * = y 1 g g 1 1 1 1 d g W IXIXIXIXIXIXIXIXIXIXIXIXIXIXIXIXIXIXIXIXIXIXIXIXIXIXIXIXIXIXIXIXIXIX",
"IXIXIXIXIXIXIXIXIXIXIXIXIXIXIXIXIXIXIXIXIXIXIXIXIXIXIXIXIXIXIXIXIXIXIXW < 1 g 1 1 g 1 p g < = $ H zXFX=XXXoX'.].oXoXoXoXoXoXoXoXoXoXoXoXoXoXoXoXoXoXoXoXoXoXoXoXoXoXoXoXoXoXoXoXoXoXoXoXoXoXoXoXXX'.'.*X=X5X~.k.-.+.+.$.6.6.6.6.6.6.6.6.6.6.6.6.6.6.6.6.6.6.6.6.| y.T.6X4XoXXX'.].].XX<XXX].oXoXoXoXoXoXoXoXoXoXoXoXoXoXoXoXoXoXoXoXoXoXoXoXoXoXoXoXoXoXoXoXoXoXoXoXoXoXoXoXoXoXoXoXoXoXoXoXoX].XX'.+X6X6XQ.x.( o.+.6.$.+.+.$.6.$.O.;.x. XuX<X'.oXOX<X<XOXOXXXXXoXXXXXXXoXoXoXXXXX<XXX'.rX6XR.j.| O.$.6.6.6.6.6.6.6.6.6.6.6.7.7.6.6.6.6.6.6.6.6.6.6.6.6.6.6.6.6.6.6.6.6.6.6.6.6.6.6.6.6.6.6.6.6.6.6.6.6.6.6.6.6.6.6.6.6.6.6.6.6.6.6.6.6.6.6.6.6.6.6.6.6.6.6.6.6.6.6.6.6.6.6.6.6.6.6.6.6.6.6.6.6.6.6.6.6.6.6.6.6.6.6.6.6.6.6.6.:.@.@.+.6.:.:.:.o.4.C.R.Q.~.^.^.).).).W.W.Q.Q.S.b.z.k.k.k.j.l.l.l.j.k.k.z.A.R.~.E.E.).).^.R.R.).).E.Q.;X,X3XoX].].].*X'.*XXXoXoXoX].XXoXoXoXoX'.'.XX[.2XHXxXD & = y 1 p y 1 1 1 y y 1 W IXIXIXIXIXIXIXIXIXIXIXIXIXIXIXIXIXIXIXIXIXIXIXIXIXIXIXIXIXIXIXIXIXIX",
"IXIXIXIXIXIXIXIXIXIXIXIXIXIXIXIXIXIXIXIXIXIXIXIXIXIXIXIXIXIXIXIXIXIXIXW 1 1 g 1 1 g 1 p g < = $ H zXFX=XXXoX'.].oXoXoXoXoXoXoXoXoXoXoXoXoXoXoXoXoXoXoXoXoXoXoXoXoXoXoXoXoXoXoXoXoXoXoXoXoXoXoXoXXX'.'.*X=X5X~.k.-.+.+.&.6.6.6.6.6.6.6.6.6.6.6.6.6.6.6.$.6.6.6.6.} y.T.6X4XoXXX'.].].XX<XoX].oXoXoXoXoXoXoXoXoXoXoXoXoXoXoXoXoXoXoXoXoXoXoXoXoXoXoXoXoXoXoXoXoXoXoXoXoXoXoXoXoXoXoXoXoXoXoXoXoX].XX'.+X4X6XQ.x.( ;.+.6.$.+.+.$.6.$.O.;.x. XuX<X].OXOX<X<XOXOXXXXXoXXXXXXXoXoXoXXXXX<XXX'.rX2XR.j.| O.$.6.6.6.6.6.6.6.6.6.6.6.7.7.6.6.6.6.6.6.6.6.6.6.6.6.6.6.6.6.6.6.6.6.6.6.6.6.6.6.6.6.6.6.6.6.6.6.6.6.6.6.6.6.6.6.6.6.6.6.6.6.6.6.6.6.6.6.6.6.6.6.6.6.6.6.6.6.6.6.6.6.6.6.6.6.6.6.6.6.6.6.6.6.6.6.6.6.6.6.6.6.6.6.6.6.6.6.6.6.%.+.$.6.:.:.;.-.5.G.mXAX6X3X3X6XyXyX<X*XaXDX~.b.` ( | } } X.X.%.} | ) ,.A.mXBX5X4X6X6X5X5X5XNXNXmX>X>X<XXXoXoX].].'.*X<XXXXXoXoX].XXoX+XoXoX'.'.XX[.2XHXxXD * = y 1 1 1 1 1 1 y 1 1 W IXIXIXIXIXIXIXIXIXIXIXIXIXIXIXIXIXIXIXIXIXIXIXIXIXIXIXIXIXIXIXIXIXIX",
"IXIXIXIXIXIXIXIXIXIXIXIXIXIXIXIXIXIXIXIXIXIXIXIXIXIXIXIXIXIXIXIXIXIXIXW 1 1 g 1 1 e 1 1 g < = $ H zXFX=XXXoX'.].oXoXoXoXoXoXoXoXoXoXoXoXoXoXoXoXoXoXoXoXoXoXoXoXoXoXoXoXoXoXoXoXoXoXoXoXoXoXoXoXoX'.'.*X=X5X~.k.-.+.+.&.6.6.6.6.6.6.6.6.6.6.6.6.6.6.$.$.6.6.$.$.} q.T.5X4X+XXX'.].].XX<XXX].oXoXoXoXoXoXoXoXoXoXoXoXoXoXoXoXoXoXoXoXoXoXoXoXoXoXoXoXoXoXoXoXoXoXoXoXoXoXoXoXoXoXoXoXoXoXoXoXoX].'.[.+X4X6XQ.x.( ;.:.6.$.+.+.$.6.$.+.;.x. XuX<X].OXOX<X<XXXXXXXXXoXXXXXXXoXoXoXXX'.<XXX'.rX6XR.j.| O.$.6.6.6.6.6.6.6.6.6.6.6.7.7.6.6.6.6.6.6.6.6.6.6.6.6.6.6.6.6.6.6.6.6.6.6.6.6.6.6.6.6.6.6.6.6.6.6.6.6.6.6.6.6.6.6.6.6.6.6.6.6.6.6.6.6.6.6.6.6.6.6.6.6.6.6.6.6.6.6.6.6.6.6.6.6.6.6.6.6.6.6.6.6.6.6.6.6.6.6.6.6.6.6.6.6.:.:.6.6.$.$.$.6.:.:.:.-.2.K.8XpX2X<X2XuXyXCX1X<XpXSX/.b.( [ [ [ [ { X.X.X.X.^ ( A.BXDX-XtXuXyXuX2X2XCXMXMX5X<XXXoX+XoXoXoXXX<X<XXXXXoXoX].XXoX+XoXoX=X'.'.[.2XHXxXD * = y 1 1 1 1 1 g g 1 1 W IXIXIXIXIXIXIXIXIXIXIXIXIXIXIXIXIXIXIXIXIXIXIXIXIXIXIXIXIXIXIXIXIXIX",
"IXIXIXIXIXIXIXIXIXIXIXIXIXIXIXIXIXIXIXIXIXIXIXIXIXIXIXIXIXIXIXIXIXIXIXW 1 1 g 1 1 e 1 1 g < = $ H zXFX=XXXoX'.].oXoXoXoXoXoXoXoXoXoXoXoXoXoXoXoXoXoXoXoXoXoXoXoXoXoXoXoXoXoXoXoXoXoXoXoXoXoXoXoXoX'.'.*X=X5X~.k.-.+.+.$.6.6.6.6.6.6.6.6.6.6.6.6.6.6.$.$.6.$.$.$.} q.T.6X4X+XXX'.].].XX<XXX].oXoXoXoXoXoXoXoXoXoXoXoXoXoXoXoXoXoXoXoXoXoXoXoXoXoXoXoXoXoXoXoXoXoXoXoXoXoXoXoXoXoXoXoXoXoXoXoXoX].'.[.+X6X6XQ.x.( o.+.6.$.+.+.$.6.$.O.;.x. XuX<XoXOXOX<X<X<XXXXXXXoXXXXXXXoXoXoXXX'.<XXX'.rX6XR.j.| O.$.6.6.6.6.6.6.6.6.6.6.6.7.7.6.6.6.6.6.6.6.6.6.6.6.6.6.6.6.6.6.6.6.6.6.6.6.6.6.6.6.6.6.6.6.6.6.6.6.6.6.6.6.6.6.6.6.6.6.6.6.6.6.6.6.6.6.6.6.6.6.6.6.6.6.6.6.6.6.6.6.6.6.6.6.6.6.6.6.6.6.6.6.6.6.6.6.6.6.6.6.6.6.6.6.6.6.6.6.6.6.$.$.6.:.:.:.-.2.G.2XrX[.[.].].XX4X'.[.wXZX~.k.-.O.O.#.#.&.&.&.9.*.X.-.A.mXaX[.[.].].].[.'.XXXX4X<XXXoXoXoXoXoXoXXX<X<XXXoXoX].].XXoXoXoXoX*X'.'.[.2XHXxXD * = y 1 1 y 1 1 g e 1 1 W IXIXIXIXIXIXIXIXIXIXIXIXIXIXIXIXIXIXIXIXIXIXIXIXIXIXIXIXIXIXIXIXIXIX",
"IXIXIXIXIXIXIXIXIXIXIXIXIXIXIXIXIXIXIXIXIXIXIXIXIXIXIXIXIXIXIXIXIXIXIXW 1 1 g 1 1 e 1 1 g < = $ H zXFX=XXXoX'.].oXoXoXoXoXoXoXoXoXoXoXoXoXoXoXoXoXoXoXoXoXoXoXoXoXoXoXoXoXoXoXoXoXoXoXoXoXoXoXoXoX'.'.*X=X5X~.k.-.+.+.+.6.6.6.6.6.6.6.6.6.6.6.6.6.6.6.6.6.6.6.$.} q.T.6X4X+XXX'.].].XX<XXX].oXoXoXoXoXoXoXoXoXoXoXoXoXoXoXoXoXoXoXoXoXoXoXoXoXoXoXoXoXoXoXoXoXoXoXoXoXoXoXoXoXoXoXoXoXoXoXoXoX].'.[.+X6X6XQ.x.( o.+.6.$.+.+.$.6.$.+.;.x. XuX<X'.oXOX<X<X<XXXXXXXoXoXXXXXoXoXoXXX'.<XXX'.rX6XR.j.| O.$.6.6.6.6.6.6.6.:.:.6.6.7.7.6.6.6.6.6.6.6.6.6.6.6.6.6.6.6.6.6.6.6.6.6.6.6.6.6.6.6.6.6.6.6.6.6.6.6.6.6.6.6.6.6.6.6.6.6.6.6.6.6.6.6.6.6.6.6.6.6.6.6.6.6.6.6.6.6.6.6.6.6.6.6.6.6.6.6.6.6.6.6.6.6.6.6.6.6.6.6.6.6.6.6.6.6.6.6.6.6.6.$.$.+.+.:.;.2.J.<XwX[.].oX'.@XXX_.`.4XMX^.f.:.&.&.w.w.w.w.w.t.t.O.;.m.>XuX[.].].'.'.'.'.XXXXXX].].oX].].oXoXoXXXXX<XoX].].].].'.oXoXoXoX'.'.XX`.2XHXxXD * = y 1 0 p 1 1 1 0 1 1 W IXIXIXIXIXIXIXIXIXIXIXIXIXIXIXIXIXIXIXIXIXIXIXIXIXIXIXIXIXIXIXIXIXIX",
"IXIXIXIXIXIXIXIXIXIXIXIXIXIXIXIXIXIXIXIXIXIXIXIXIXIXIXIXIXIXIXIXIXIXIXW 1 1 g 1 1 e 1 1 g < = $ H zXFX=XXXoX'.].oXoXoXoXoXoXoXoXoXoXoXoXoXoXoXoXoXoXoXoXoXoXoXoXoXoXoXoXoXoXoXoXoXoXoXoXoXoXoXoXXX'.'.*X=X5X~.k.-.+.+.+.6.6.6.6.6.6.6.6.6.6.6.6.6.6.6.6.6.6.6.6.} q.T.5X4X+XXX'.].].XX<XXX].oXoXoXoXoXoXoXoXoXoXoXoXoXoXoXoXoXoXoXoXoXoXoXoXoXoXoXoXoXoXoXoXoXoXoXoXoXoXoXoXoXoXoXoXoXoXoXoXoX].'.[.+X6X6XQ.x.( o.+.6.$.+.+.$.6.$.+.;.x. X6X<X'.oXOX<X<X<XXXXXXXoXoXoXoXoXoXoXXX'.<XXX'.rX6XR.j.| O.$.6.6.6.6.6.6.6.:.+.:.:.7.7.6.6.6.6.6.6.6.6.6.6.6.6.6.6.6.6.6.6.6.6.6.6.6.6.6.6.6.6.6.6.6.6.6.6.6.6.6.6.6.6.6.6.6.6.6.6.6.6.6.6.6.6.6.6.6.6.6.6.6.6.6.6.6.6.6.6.6.6.6.6.6.6.6.6.6.6.6.6.6.6.6.6.6.6.6.6.6.6.6.6.6.6.6.6.6.6.7.:.$.$.@.@.+.;.1.K.6XeXwXeXeX@XXX<X*X*XCXMXR.1.o.O.$.7.6.6.$.$.6.6.X.,.n.>XZXyX+X+XoXoXoX<X<X<X'.].oXoX].].oXoXXXXXXXXXoX].].].].'.oXoXoXoX'.'.XX`.2XHXxXD * = y 1 e p 1 1 1 0 1 1 W IXIXIXIXIXIXIXIXIXIXIXIXIXIXIXIXIXIXIXIXIXIXIXIXIXIXIXIXIXIXIXIXIXIX",
"IXIXIXIXIXIXIXIXIXIXIXIXIXIXIXIXIXIXIXIXIXIXIXIXIXIXIXIXIXIXIXIXIXIXIX! 1 y g 1 1 g 1 1 g < = $ H zXFX=XXXoX'.].oXoXoXoXoXoXoXoXoXoXoXoXoXoXoXoXoXoXoXoXoXoXoXoXoXoXoXoXoXoXoXoXoXoXoXoXoXoXoXoXXX'.'.*X1X5X~.k.-.O.+.+.6.6.6.6.6.6.6.6.6.6.6.6.6.6.6.6.6.6.6.6.| y.E.6X6XoXoX'.].].oXXXXX].oXoXoXoXoXoXoXoXoXoXoXoXoXoXoXoXoXoXoXoXoXoXoXoXoXoXoXoXoXoXoXoXoXoXoXoXoXoXoXoXoXoXoXoXoXoXoXoXoX].oX[.XX4X6XQ.x.| :.:.:.$.$.&.6.6.$.o.;.x./.uXyX[.oXXX<X<X<XXXXXXXoXXXXXXXoXoXoXXX<X'.XXXX0X2X^.j.| O.$.6.6.6.6.6.6.6.6.6.:.:.:.6.6.6.6.6.6.6.6.6.6.6.6.6.6.6.6.6.6.6.6.6.6.6.6.6.6.6.6.6.6.6.6.6.6.6.6.6.6.6.6.6.6.6.6.6.6.6.6.6.6.6.6.6.6.6.6.6.6.6.6.6.6.6.6.6.6.6.6.6.6.6.6.6.6.6.6.6.6.6.6.6.6.6.6.6.6.6.6.6.6.6.6.6.6.6.6.7.:.:.6.$.@.@.%.o.2.H.MXiX+X+X+XXX_.*X*X*XuXNXR.j.o.O.9.0.0.0.$.$.w.+.} ;.F.mXZX+X+XOXXXoX].'.XX<X<X*X'.[.'.'.oX<XXXXXXXXXoX].].].].'.oXoXoXoX'.'.'.[.=XFXxXD & = y 1 1 1 1 y 1 1 1 1 W IXIXIXIXIXIXIXIXIXIXIXIXIXIXIXIXIXIXIXIXIXIXIXIXIXIXIXIXIXIXIXIXIXIX",
"IXIXIXIXIXIXIXIXIXIXIXIXIXIXIXIXIXIXIXIXIXIXIXIXIXIXIXIXIXIXIXIXIXIXIX! 1 y g 1 1 g 1 1 g < = $ H zXFX=XXXoX'.].oXoXoXoXoXoXoXoXoXoXoXoXoXoXoXoXoXoXoXoXoXoXoXoXoXoXoXoXoXoXoXoXoXoXoXoXoXoXoXoXXX'.XX<X1X5X~.k.-.O.+.:.6.6.6.6.6.6.6.6.6.6.6.6.6.6.6.6.6.6.6.6.| y.E.6X6XoXoX'.].].XXXXXX].oXoXoXoXoXoXoXoXoXoXoXoXoXoXoXoXoXoXoXoXoXoXoXoXoXoXoXoXoXoXoXoXoXoXoXoXoXoXoXoXoXoXoXoXoXoXoXoXoX].oX[.+X4X6XQ.x.( :.:.:.$.$.$.6.6.$.o.;.x./.uXyX[.oXOX<X<X<XXXXXXXoXXXXXXXoXoXoXXX<X'.XXXX0X2X^.j.| O.$.6.6.6.6.6.6.6.6.6.:.:.:.6.6.6.6.6.6.6.6.6.6.6.6.6.6.6.6.6.6.6.6.6.6.6.6.6.6.6.6.6.6.6.6.6.6.6.6.6.6.6.6.6.6.6.6.6.6.6.6.6.6.6.6.6.6.6.6.6.6.6.6.6.6.6.6.6.6.6.6.6.6.6.6.6.6.6.6.6.6.6.6.6.6.6.6.6.6.6.6.6.6.6.6.6.6.6.6.7.:.:.6.$.@.@.O.o.,.H.5XyXXXXX3X3X<X<X'.'.yXNX^.l.o.%.7.0.7.7.6.6.6.+.} ,.F.mXZX+XXX|.XX'.[.[.'.'.*X*X'.'.XX<XXXXXXXXXXXoXoX].].].].'.oXoXoXoXXXXX'.`.=XFXxXD & = y 1 1 1 1 1 1 1 1 1 W IXIXIXIXIXIXIXIXIXIXIXIXIXIXIXIXIXIXIXIXIXIXIXIXIXIXIXIXIXIXIXIXIXIX",
"IXIXIXIXIXIXIXIXIXIXIXIXIXIXIXIXIXIXIXIXIXIXIXIXIXIXIXIXIXIXIXIXIXIXIX! 1 y g 1 1 g 1 1 g < = $ H zXFX=XXXoX'.].oXoXoXoXoXoXoXoXoXoXoXoXoXoXoXoXoXoXoXoXoXoXoXoXoXoXoXoXoXoXoXoXoXoXoXoXoXoXoXoXXX'.XX<X1X5X~.k.-.O.+.+.6.6.6.6.6.6.6.6.6.6.6.6.6.6.6.6.6.6.$.$.| y.E.6X6XoXoX'.].].XXXXXX].oXoXoXoXoXoXoXoXoXoXoXoXoXoXoXoXoXoXoXoXoXoXoXoXoXoXoXoXoXoXoXoXoXoXoXoXoXoXoXoXoXoXoXoXoXoXoXoXoX].<X[.+X4X6XQ.x.( :.:.:.$.$.&.6.6.$.o.;.x./.uXyX[.oXOX<X<X<XXXXXXXoXXXXXXXoXoXoXXX<X'.XXXX0X2X^.j.| O.$.6.6.6.6.6.6.6.6.6.:.:.6.6.6.6.6.6.6.6.6.6.6.6.6.6.6.6.6.6.6.6.6.6.6.6.6.6.6.6.6.6.6.6.6.6.6.6.6.6.6.6.6.6.6.6.6.6.6.6.6.6.6.6.6.6.6.6.6.6.6.6.6.6.6.6.6.6.6.6.6.6.6.6.6.6.6.6.6.6.6.6.6.6.6.6.6.6.6.6.6.6.6.6.6.6.6.6.6.7.:.7.6.6.@.@.+.| <.G.5XuX'.*X3X,X3X<X'.'.yXBX^.l.| O.$.:.,.:.:.:.+.o.} >.F.mXCXoX<X<X&X*X&X'.*X*X`.'.'.*X<X<XXXXXXXXXXXoXoX].].].].XXoXoXoXoXXXXXXX`.2XFXxXD & = y 1 4 4 d d 1 1 1 0 W IXIXIXIXIXIXIXIXIXIXIXIXIXIXIXIXIXIXIXIXIXIXIXIXIXIXIXIXIXIXIXIXIXIX",
"IXIXIXIXIXIXIXIXIXIXIXIXIXIXIXIXIXIXIXIXIXIXIXIXIXIXIXIXIXIXIXIXIXIXIX! 1 y g 1 1 g 1 1 g < = $ H zXFX=XXXoX'.].oXoXoXoXoXoXoXoXoXoXoXoXoXoXoXoXoXoXoXoXoXoXoXoXoXoXoXoXoXoXoXoXoXoXoXoXoXoXoXoXXXXXXX<X2X5X~.k.-.O.+.:.6.6.6.6.6.6.6.6.6.6.6.6.6.6.6.6.6.6.6.$.| y.E.6X4XoXoX'.].].XXXXXX].oXoXoXoXoXoXoXoXoXoXoXoXoXoXoXoXoXoXoXoXoXoXoXoXoXoXoXoXoXoXoXoXoXoXoXoXoXoXoXoXoXoXoXoXoXoXoXoXoX].<X[.+X4X6XQ.x.| :.:.:.$.$.&.6.6.$.o.;.x./.uXyX[.oXOX<X*X<X<XXXXXoXXXXXXXoXoXoXXX<X'.XXXX0X2X^.j.| O.$.6.6.6.6.6.6.6.6.6.:.:.6.7.6.6.6.6.6.6.6.6.6.6.6.6.6.6.6.6.6.6.6.6.6.6.6.6.6.6.6.6.6.6.6.6.6.6.6.6.6.6.6.6.6.6.6.6.6.6.6.6.6.6.6.6.6.6.6.6.6.6.6.6.6.6.6.6.6.6.6.6.6.6.6.6.6.6.6.6.6.6.6.6.6.6.6.6.6.6.6.6.6.6.6.6.6.6.6.6.:.6.6.6.@.+.+.| 2.G.7XtX'._._.`.|.|.`.'.yXZX^.k.| +.$.w.:.:.:.6.7.6.X.,.A.>XuX].'._._._.[.[.'.'.`._._._._.'.XXXXXXXXoXoXoXoXoX].].XXoX+XoXoXXXXXXX`.2XFXxXD & = y 1 e g g d 1 1 1 1 W IXIXIXIXIXIXIXIXIXIXIXIXIXIXIXIXIXIXIXIXIXIXIXIXIXIXIXIXIXIXIXIXIXIX",
"IXIXIXIXIXIXIXIXIXIXIXIXIXIXIXIXIXIXIXIXIXIXIXIXIXIXIXIXIXIXIXIXIXIXIX! < y g 1 e g 1 1 g < = $ H zXFX=XXXoX'.].oXoXoXoXoXoXoXoXoXoXoXoXoXoXoXoXoXoXoXoXoXoXoXoXoXoXoXoXoXoXoXoXoXoXoXoXoXoXoXoXXX'.'.*X1X5X~.k.-.O.+.+.6.6.6.6.6.6.6.6.6.6.6.6.6.6.6.6.6.6.$.$.| y.E.6X6XoXoX'.].].XX<XXX].oXoXoXoXoXoXoXoXoXoXoXoXoXoXoXoXoXoXoXoXoXoXoXoXoXoXoXoXoXoXoXoXoXoXoXoXoXoXoXoXoXoXoXoXoXoXoXoXoX].<X[.+X4X6XQ.x.| :.:.:.$.$.&.6.6.$.o.;.x./.6X1X[.oXXX<X*X<X<XXXXXoXXXXXXXoXoXoXXX<X'.XXXX0X2X^.j.| O.$.6.6.6.6.6.6.6.6.6.6.6.7.7.6.6.6.6.6.6.6.6.6.6.6.6.6.6.6.6.6.6.6.6.6.6.6.6.6.6.6.6.6.6.6.6.6.6.6.6.6.6.6.6.6.6.6.6.6.6.6.6.6.6.6.6.6.6.6.6.6.6.6.6.6.6.6.6.6.6.6.6.6.6.6.6.6.6.6.6.6.6.6.6.6.6.6.6.6.6.6.6.6.6.6.6.6.6.6.6.6.6.$.6.:.:.+.-.2.G.2XiX0X=X].[.XXXX'.].iXCXY.f.| +.@.&.3.:.6.w.t.$.} ,.M.|.iXqX[.].].[.[.[.XXXX4X<X<X_.'.'.XX<XXXoXoXoXoXoXoXoX*X'.oXoXoXoX'.'.XX[.2XFXxXD & - y d p 4 0 d 4 1 1 1 W IXIXIXIXIXIXIXIXIXIXIXIXIXIXIXIXIXIXIXIXIXIXIXIXIXIXIXIXIXIXIXIXIXIX",
"IXIXIXIXIXIXIXIXIXIXIXIXIXIXIXIXIXIXIXIXIXIXIXIXIXIXIXIXIXIXIXIXIXIXIX! 1 y g 1 e g 1 1 g < = $ H zXFX=XXXoX'.].oXoXoXoXoXoXoXoXoXoXoXoXoXoXoXoXoXoXoXoXoXoXoXoXoXoXoXoXoXoXoXoXoXoXoXoXoXoXoXoXXX'.'.*X1X5X~.k.-.O.+.:.6.6.6.6.6.6.6.6.6.6.6.6.6.6.6.6.6.6.$.$.| y.E.6X6XoXoX'.].].XX<XXX].oXoXoXoXoXoXoXoXoXoXoXoXoXoXoXoXoXoXoXoXoXoXoXoXoXoXoXoXoXoXoXoXoXoXoXoXoXoXoXoXoXoXoXoXoXoXoXoXoX].<X[.+X4X6XQ.x.| :.:.6.$.$.&.6.6.$.o.;.x./.6X1X[.oXXX<X*X<X<X'.XXoXoXXXXXoXoXoXXX<X_.XXXX0X2X^.j.| O.$.6.6.6.6.6.6.6.6.6.6.6.7.7.6.6.6.6.6.6.6.6.6.6.6.6.6.6.6.6.6.6.6.6.6.6.6.6.6.6.6.6.6.6.6.6.6.6.6.6.6.6.6.6.6.6.6.6.6.6.6.6.6.6.6.6.6.6.6.6.6.6.6.6.6.6.6.6.6.6.6.6.6.6.6.6.6.6.6.6.6.6.6.6.6.6.6.6.6.6.6.6.6.6.6.6.6.6.6.6.$.$.$.6.6.:.;.;.1.K.MXpXpXpXpXyXuXAXuXuXAXCXE.f.) / } } } / } / } } / ` M.3XGXpXiXuXuXuX6X6XCXCXCX6X4X<X'.'.XX'.].].oXoXoXXXXX<X*X'.oXoXoXoX'.'.XX[.2XFXxXD & = y d 1 1 1 y 1 4 1 1 W IXIXIXIXIXIXIXIXIXIXIXIXIXIXIXIXIXIXIXIXIXIXIXIXIXIXIXIXIXIXIXIXIXIX",
"IXIXIXIXIXIXIXIXIXIXIXIXIXIXIXIXIXIXIXIXIXIXIXIXIXIXIXIXIXIXIXIXIXIXIX! , y g 1 e g 1 1 g < = $ H zXFX=XXXoX'.].oXoXoXoXoXoXoXoXoXoXoXoXoXoXoXoXoXoXoXoXoXoXoXoXoXoXoXoXoXoXoXoXoXoXoXoXoXoXoXoXXX'.'.*X1X5X~.k.-.O.+.:.6.6.6.6.6.6.6.6.6.6.6.6.6.6.$.$.6.6.6.$.| y.T.6X6XoXoX'.].].XX<XXX].oXoXoXoXoXoXoXoXoXoXoXoXoXoXoXoXoXoXoXoXoXoXoXoXoXoXoXoXoXoXoXoXoXoXoXoXoXoXoXoXoXoXoXoXoXoXoXoXoX].<X[.+X4X6XQ.x.| :.:.6.$.$.&.6.6.$.o.;.x./.uXyX[.oXXX<X*X<X<XXXXXoXXXXXXXoXoXoXXX<X_.XXXX0X2X^.j.| O.$.6.6.6.6.6.6.6.6.6.6.6.7.7.6.6.6.6.6.6.6.6.6.6.6.6.6.6.6.6.6.6.6.6.6.6.6.6.6.6.6.6.6.6.6.6.6.6.6.6.6.6.6.6.6.6.6.6.6.6.6.6.6.6.6.6.6.6.6.6.6.6.6.6.6.6.6.6.6.6.6.6.6.6.6.6.6.6.6.6.6.6.6.6.6.6.6.6.6.6.6.6.6.6.6.6.6.6.6.6.+.$.$.6.6.6.0.;.<.H.,X6X3X5X5X,X>X5X7X&X7X3XE.z.( } | | | -.;.;.;.:.| 2.M.>XCX1X3X3X>X5X5X3XNXNXXXXXXXXX<XXX'.'.].].].oXoXXX<X<X*XXXoXoXoXoX'.'.XX[.2XFXxXD & = y 1 1 1 1 0 1 1 1 1 W IXIXIXIXIXIXIXIXIXIXIXIXIXIXIXIXIXIXIXIXIXIXIXIXIXIXIXIXIXIXIXIXIXIX",
"IXIXIXIXIXIXIXIXIXIXIXIXIXIXIXIXIXIXIXIXIXIXIXIXIXIXIXIXIXIXIXIXIXIXIX! < 1 g 2 1 g 1 1 g < - $ H zXFX=XXXoX'.].oXoXoXoXoXoXoXoXoXoXoXoXoXoXoXoXoXoXoXoXoXoXoXoXoXoXoXoXoXoXoXoXoXoXoXoXoXoXoXoXXX'.'.*X<X6X~.k.-.O.+.+.6.6.6.6.6.6.6.6.6.6.6.6.6.6.$.$.6.6.6.6.} q.E.6X6XoXoX'.].].XXXXXX].oXoXoXoXoXoXoXoXoXoXoXoXoXoXoXoXoXoXoXoXoXoXoXoXoXoXoXoXoXoXoXoXoXoXoXoXoXoXoXoXoXoXoXoXoXoXoXoXoX].<X[.+X4X6XQ.x.| :.:.:.$.$.&.6.6.$.o.;.x./.uXyX[.oXXX<X<X<XXXXX'.oXXXXXXXoXoXoXXX<X'.XXXX0X2X^.j.| O.$.6.6.6.6.6.6.6.6.6.6.6.7.7.6.6.6.6.6.6.6.6.6.6.6.6.6.6.6.6.6.6.6.6.6.6.6.6.6.6.6.6.6.6.6.6.6.6.6.6.6.6.6.6.6.6.6.6.6.6.6.6.6.6.6.6.6.6.6.6.6.6.6.6.6.6.6.6.6.6.6.6.6.6.6.6.6.6.6.6.6.6.6.6.6.6.6.6.6.6.6.6.6.6.6.6.6.6.6.6.:.:.6.6.6.6.$.o.-.C.R.W.Y.R.R.J.J.Y.Y.J.T.~.J.b.g.x.C.C.C.c.x.C.C.x.k.f.m.E.E.S.J.J.G.J.J.J.Y.Y.T.E.`.XXXXXXXX'.].].].oXoXoXXX<X<XXXoXoXoXoXXXXXXX[.=XFXxXD & - y 1 1 1 1 1 1 1 1 1 W IXIXIXIXIXIXIXIXIXIXIXIXIXIXIXIXIXIXIXIXIXIXIXIXIXIXIXIXIXIXIXIXIXIX",
"IXIXIXIXIXIXIXIXIXIXIXIXIXIXIXIXIXIXIXIXIXIXIXIXIXIXIXIXIXIXIXIXIXIXIXW 1 1 g 1 1 e 1 1 h < - $ H zXFX].'.XX[.].oXoXoXoXoXoXoXoXoXoXoXoXoXoXoXoXoXoXoXoXoXoXoXoXoXoXoXoXoXoXoXoXoXoXoXoXoXoXoXoXoX'.'.'.=X6X~.k.-.+.+.+.6.6.6.:.6.6.6.6.6.6.6.6.6.6.6.6.6.6.$.$.} q.T.6X4XoXXX'.].].oXoXoX].oXoXoXoXoXoXoXoXoXoXoXoXoXoXoXoXoXoXoXoXoXoXoXoXoXoXoXoXoXoXoXoXoXoXoXoXoXoXoXoXoXoXoXoXoXoXoXoXoX].'.[.+X4X6XQ.x.( o.+.6.$.+.+.6.6.$.+.-.x. XuX<XXXoXXX<X<XOXOXXXXXoXoXoXoXoXoXoXXX'.<XXX'.rX2XR.k.| O.+.6.6.6.6.6.6.6.6.6.6.6.7.7.6.6.6.6.6.6.6.6.6.6.6.6.6.6.6.6.6.6.6.6.6.6.6.6.6.6.6.6.6.6.6.6.6.6.6.6.6.6.6.6.6.6.6.6.6.6.6.6.6.6.6.6.6.6.6.6.6.6.6.6.6.6.6.6.6.6.6.6.6.6.6.6.6.6.6.6.6.6.6.6.6.6.6.6.6.6.6.6.6.6.6.6.6.6.6.6.:.:.:.:.:.:.:.:.:.:.2.2.2.2.<.2.2.<.2.2.,.,.b.%XmX:X;X X.X|.;X;X$X,XMXmXG.2.` 2.<.<.>.>.<.<.2.2.` g.T.<X1XoXXXXXXXXXoXoXoXoX].*XXXXXoXoXoX].XXXXXX[.-XGXxXD * - y 1 1 1 1 1 1 d g g IXIXIXIXIXIXIXIXIXIXIXIXIXIXIXIXIXIXIXIXIXIXIXIXIXIXIXIXIXIXIXIXIXIXIX",
"IXIXIXIXIXIXIXIXIXIXIXIXIXIXIXIXIXIXIXIXIXIXIXIXIXIXIXIXIXIXIXIXIXIXIXW 1 1 g 1 1 e 1 1 g < - $ H zXFX].'.XX[.'.oXoXoXoXoXoXoXoXoXoXoXoXoXoXoXoXoXoXoXoXoXoXoXoXoXoXoXoXoXoXoXoXoXoXoXoXoXoXoXoXoX'.'.'.=X6X~.k.-.+.+.+.6.6.6.:.6.6.6.6.6.6.6.6.6.6.6.6.6.6.$.$.} u.T.6X4XoX<X_.*X].oXoXoX].oXoXoXoXoXoXoXoXoXoXoXoXoXoXoXoXoXoXoXoXoXoXoXoXoXoXoXoXoXoXoXoXoXoXoXoXoXoXoXoXoXoXoXoXoXoXoXoXoX].'.[.+X4X6XQ.x.( o.+.6.$.+.+.6.6.$.O.-.x. XCX<XXXoXXX<X<XOXOXXXXXoXoXoXXXoXoXoXXX'.<XXX'.rX2XR.k.| O.+.6.6.6.6.6.6.6.6.6.6.6.7.7.6.6.6.6.6.6.6.6.6.6.6.6.6.6.6.6.6.6.6.6.6.6.6.6.6.6.6.6.6.6.6.6.6.6.6.6.6.6.6.6.6.6.6.6.6.6.6.6.6.6.6.6.6.6.6.6.6.6.6.6.6.6.6.6.6.6.6.6.6.6.6.6.6.6.6.6.6.6.6.6.6.6.6.6.6.6.6.6.6.6.6.6.6.6.6.6.:.:.:.:.:.:.:.:.o.X.X.X.o.o.o.o.+.:.;.;. .| g.~.DXCX4X4XrXyX2X2X_.<XiX3XF.2.( 6.o.}  .X.O.o.} } } y.E.<X1XoXXXXXXXXXoXoXoXoX].*XXXXXoXoX].].XXXXXX`.=XGXxXF % - y 1 1 1 1 1 y y 4 g IXIXIXIXIXIXIXIXIXIXIXIXIXIXIXIXIXIXIXIXIXIXIXIXIXIXIXIXIXIXIXIXIXIXIX",
"IXIXIXIXIXIXIXIXIXIXIXIXIXIXIXIXIXIXIXIXIXIXIXIXIXIXIXIXIXIXIXIXIXIXIXW 1 1 g 1 1 e 1 1 g y - $ H zXFX].XXXX[.].oXoXoXoXoXoXoXoXoXoXoXoXoXoXoXoXoXoXoXoXoXoXoXoXoXoXoXoXoXoXoXoXoXoXoXoXoXoXoXoXoX'.'.'.=X6X~.k.-.+.+.+.6.6.6.:.6.6.6.6.6.6.6.6.6.6.6.6.6.6.$.$.} u.W.6X4XoX<X_.*X].oXoXoX].oXoXoXoXoXoXoXoXoXoXoXoXoXoXoXoXoXoXoXoXoXoXoXoXoXoXoXoXoXoXoXoXoXoXoXoXoXoXoXoXoXoXoXoXoXoXoXoXoX].XX'.+X6X6XQ.x.( o.+.6.$.$.$.6.6.$.+.-.x. XCX<XXXoXXX<X<XOXOXXXXXoXoXXXXXoXoXoXXX'.<XXX'.rX2XR.k.| O.+.6.6.6.6.6.6.6.:.:.6.:.7.7.6.6.6.6.6.6.6.6.6.6.6.6.6.6.6.6.6.6.6.6.6.6.6.6.6.6.6.6.6.6.6.6.6.6.6.6.6.6.6.6.6.6.6.6.6.6.6.6.6.6.6.6.6.6.6.6.6.6.6.6.6.6.6.6.6.6.6.6.6.6.6.6.6.6.6.6.6.6.6.6.6.6.6.6.6.6.6.6.6.6.6.6.6.6.6.6.6.7.7.7.7.7.6.6.+.+.O.O.+.+.+.+.O.6.0.%.O.} g.~.CXyX1X<X1XrX1X2X'.oXiX3XF.,.} $.O.O.O.O.$.%.o.} } y.E.3X1XoXXXXX<X<XoXoXoXoX'.*X<XoXoXoXoXoXXXXXXX[.-XGXxXF % - y 1 1 1 1 1 1 1 1 g IXIXIXIXIXIXIXIXIXIXIXIXIXIXIXIXIXIXIXIXIXIXIXIXIXIXIXIXIXIXIXIXIXIXIX",
"IXIXIXIXIXIXIXIXIXIXIXIXIXIXIXIXIXIXIXIXIXIXIXIXIXIXIXIXIXIXIXIXIXIXIXW 1 1 g 1 1 e 1 1 h < = $ H zXFX].XXoX[.].oXoXoXoXoXoXoXoXoXoXoXoXoXoXoXoXoXoXoXoXoXoXoXoXoXoXoXoXoXoXoXoXoXoXoXoXoXoXoXoXoX'.'.'.=X6X~.k.-.+.+.+.6.6.6.:.6.6.6.6.6.6.6.6.6.6.6.6.6.:.6.$.} u.W.6X4XoX<X_.*X].oXoXoX].oXoXoXoXoXoXoXoXoXoXoXoXoXoXoXoXoXoXoXoXoXoXoXoXoXoXoXoXoXoXoXoXoXoXoXoXoXoXoXoXoXoXoXoXoXoXoXoXoX].XX'.+X4X6XQ.x.( o.+.6.$.$.$.6.6.$.O.-.x. XCX<XXXoXXX<X<XOXOXXXXXoXoXXXXXoXoXoXXX'.<XXX'.rX2XR.k.| O.+.6.6.6.6.:.6.6.:.+.:.:.7.7.6.6.6.6.6.6.6.6.6.6.6.6.6.6.6.6.6.6.6.6.6.6.6.6.6.6.6.6.6.6.6.6.6.6.6.6.6.6.6.6.6.6.6.6.6.6.6.6.6.6.6.6.6.6.6.6.6.6.6.6.6.6.6.6.6.6.6.6.6.6.6.6.6.6.6.6.6.6.6.6.6.6.6.6.6.6.6.6.6.6.6.6.6.6.6.6.6.9.7.7.7.6.6.6.$.$.&.&.&.$.$.$.$.w.9.$.=.} k.(.4XoX[.[.[.'.'.'.'.+XiX3XF.,.} %.&.&.&.*.t.9.6.$./ j.R.3X1XoXXXXX<X*X].oXoXoX*X*X<XoXoXoX].oXXXXXXX`.=XGXxXF % - y 1 1 1 1 1 1 1 1 g IXIXIXIXIXIXIXIXIXIXIXIXIXIXIXIXIXIXIXIXIXIXIXIXIXIXIXIXIXIXIXIXIXIXIX",
"IXIXIXIXIXIXIXIXIXIXIXIXIXIXIXIXIXIXIXIXIXIXIXIXIXIXIXIXIXIXIXIXIXIXIXW 1 1 g 1 1 e 1 0 h y - $ H zXFX].'.oX[.].oXoXoXoXoXoXoXoXoXoXoXoXoXoXoXoXoXoXoXoXoXoXoXoXoXoXoXoXoXoXoXoXoXoXoXoXoXoXoXoXoX'.'.'.=X6X~.k.-.+.+.+.6.6.6.:.6.6.6.6.6.6.6.6.6.6.$.$.6.6.6.$.} u.W.6X4XoX<X_.*X].oXoXoX].oXoXoXoXoXoXoXoXoXoXoXoXoXoXoXoXoXoXoXoXoXoXoXoXoXoXoXoXoXoXoXoXoXoXoXoXoXoXoXoXoXoXoXoXoXoXoXoXoX].'.[.+X4X6XQ.x.( o.+.6.6.+.+.6.w.$.O.-.x. XCXoXoXoXXX<X<XOXOXXXXXoXXXXXXXoXoXoXXX'.<XXX'.rX2XR.k.| O.+.6.6.6.6.:.6.6.6.6.:.:.:.7.6.6.6.6.6.6.6.6.6.6.6.6.6.6.6.6.6.6.6.6.6.6.6.6.6.6.6.6.6.6.6.6.6.6.6.6.6.6.6.6.6.6.6.6.6.6.6.6.6.6.6.6.6.6.6.6.6.6.6.6.6.6.6.6.6.6.6.6.6.6.6.6.6.6.6.6.6.6.6.6.6.6.6.6.6.6.6.6.6.6.6.6.6.6.6.6.6.6.7.6.6.6.6.6.6.$.$.$.+.+.$.+.&.w.t.*.=.O.z.(.6XwX].[.'.oXoXoX@X+XiX3XF.,.} +.&.@.&.$.9.9.$.+./ j.R.3X4XoXXXXX'.'.].oXoXoX<X<X<XXXoXoX].].XXXXXX`.=XGXxXF % - y y 1 1 1 1 e 4 1 g IXIXIXIXIXIXIXIXIXIXIXIXIXIXIXIXIXIXIXIXIXIXIXIXIXIXIXIXIXIXIXIXIXIXIX",
"IXIXIXIXIXIXIXIXIXIXIXIXIXIXIXIXIXIXIXIXIXIXIXIXIXIXIXIXIXIXIXIXIXIXIXW < 1 g 1 1 e 1 0 h < - $ H zXFX].'.oX[.].oXoXoXoXoXoXoXoXoXoXoXoXoXoXoXoXoXoXoXoXoXoXoXoXoXoXoXoXoXoXoXoXoXoXoXoXoXoXoXoXoX'.'.'.=X6X~.k.-.+.+.+.6.6.6.:.6.6.6.6.6.6.6.6.6.6.$.$.6.6.6.$.} u.W.6X4XoX<X_.*X].oXoXoX].oXoXoXoXoXoXoXoXoXoXoXoXoXoXoXoXoXoXoXoXoXoXoXoXoXoXoXoXoXoXoXoXoXoXoXoXoXoXoXoXoXoXoXoXoXoXoXoXoX].'.[.+X6X6XQ.x.( o.+.6.6.+.+.6.w.$.+.-.x. XCX<XoXoXXX<X<XOXOXXXXXoXXXXXXXoXoXoXXX'.<XXX'.rX2XR.k.| O.+.6.6.6.6.:.6.6.6.6.:.:.6.6.6.6.6.6.6.6.6.6.6.6.6.6.6.6.6.6.6.6.6.6.6.6.6.6.6.6.6.6.6.6.6.6.6.6.6.6.6.6.6.6.6.6.6.6.6.6.6.6.6.6.6.6.6.6.6.6.6.6.6.6.6.6.6.6.6.6.6.6.6.6.6.6.6.6.6.6.6.6.6.6.6.6.6.6.6.6.6.6.6.6.6.6.6.6.6.6.6.6.6.6.6.6.6.6.:.:.6.+.:.:.$.+.+.&.%.*.=.} k.(.CXrX=X*XoXoX+X+X@X+XiX3XF.,.( +.+.+.+.+.9.$.+.O./ j.R.3X4XoXXXXX].].].oXoXoX<X<X<XXXoXoX].].XXXXXX`.=XGXxXF % - y y 1 1 1 1 e g 1 g IXIXIXIXIXIXIXIXIXIXIXIXIXIXIXIXIXIXIXIXIXIXIXIXIXIXIXIXIXIXIXIXIXIXIX",
"IXIXIXIXIXIXIXIXIXIXIXIXIXIXIXIXIXIXIXIXIXIXIXIXIXIXIXIXIXIXIXIXIXIXIXW 1 1 g 1 1 e 1 4 g < - $ H zXFX].'.oX[.].oXoXoXoXoXoXoXoXoXoXoXoXoXoXoXoXoXoXoXoXoXoXoXoXoXoXoXoXoXoXoXoXoXoXoXoXoXoXoXoXoXXX'.'.=X6X~.k.-.+.+.+.6.6.6.:.6.6.6.6.6.6.6.6.6.6.$.6.6.6.6.$.} u.W.6X4XoX<X_.*X].oXoXoX].oXoXoXoXoXoXoXoXoXoXoXoXoXoXoXoXoXoXoXoXoXoXoXoXoXoXoXoXoXoXoXoXoXoXoXoXoXoXoXoXoXoXoXoXoXoXoXoXoX].'.[.+X6X6XQ.x.( o.+.6.6.+.+.6.w.$.O.-.x. XCX<XXXoXXX<X<XOXOXXXXXoXXXXXXXoXoXoXXX'.<XXX'.rX2XR.k.| O.+.6.6.6.6.:.6.6.6.6.:.:.6.6.6.6.6.6.6.6.6.6.6.6.6.6.6.6.6.6.6.6.6.6.6.6.6.6.6.6.6.6.6.6.6.6.6.6.6.6.6.6.6.6.6.6.6.6.6.6.6.6.6.6.6.6.6.6.6.6.6.6.6.6.6.6.6.6.6.6.6.6.6.6.6.6.6.6.6.6.6.6.6.6.6.6.6.6.6.6.6.6.6.6.6.6.6.6.6.:.:.:.:.:.:.:.:.:.:.:.7.:.:.:.:.:...@.$.%.%.| z.(.4XrX*X'.XXoX+X+X'.oXyX3XF.,./ :.:.:.,.:.6.6.+.../ j.R.,X1XoXXX'.].].].].+XoXXX<X<XXXoXoX].].XXXXXX`.=XGXxXF % - y d g 4 1 1 1 d 1 g IXIXIXIXIXIXIXIXIXIXIXIXIXIXIXIXIXIXIXIXIXIXIXIXIXIXIXIXIXIXIXIXIXIXIX",
"IXIXIXIXIXIXIXIXIXIXIXIXIXIXIXIXIXIXIXIXIXIXIXIXIXIXIXIXIXIXIXIXIXIXIXW 1 1 g 1 1 e 1 4 g < = $ H zXFX].'.oX[.].oXoXoXoXoXoXoXoXoXoXoXoXoXoXoXoXoXoXoXoXoXoXoXoXoXoXoXoXoXoXoXoXoXoXoXoXoXoXoXoXoXXX'.'.=X6X~.k.-.+.+.+.6.6.6.:.6.6.6.6.6.6.6.6.6.6.6.6.6.$.6.$.} u.T.6X4XoX<X_.*X].oXoXoX].oXoXoXoXoXoXoXoXoXoXoXoXoXoXoXoXoXoXoXoXoXoXoXoXoXoXoXoXoXoXoXoXoXoXoXoXoXoXoXoXoXoXoXoXoXoXoXoXoX].'.[.+X6X6XQ.x.( o.+.6.6.+.+.6.w.$.O.-.x. XuX<X'.oXXX<X<XOXOXXX'.oXXXXXXXoXoXXXXX'.<XXX'.rX2XR.k.| O.+.6.6.6.6.:.6.6.6.6.:.:.6.6.6.6.6.6.6.6.6.6.6.6.6.6.6.6.6.6.6.6.6.6.6.6.6.6.6.6.6.6.6.6.6.6.6.6.6.6.6.6.6.6.6.6.6.6.6.6.6.6.6.6.6.6.6.6.6.6.6.6.6.6.6.6.6.6.6.6.6.6.6.6.6.6.6.6.6.6.6.6.6.6.6.6.6.6.6.6.6.6.6.6.6.6.6.6.6.:.:.:.:.:.:.:.:.:.:.:.:.:.:.:.:.+...3.$.$.%.| z.(.4X=X[.'.'.XX+X+X'.=XyX3XF.,./ $.6.:.>.>.6.@...../ j.R.,X1X=X'.'.].].].].+XoXXX<X<XXXoXoXoX].XXXXXX`.=XGXxXF % - y d 0 4 1 1 y d 1 g IXIXIXIXIXIXIXIXIXIXIXIXIXIXIXIXIXIXIXIXIXIXIXIXIXIXIXIXIXIXIXIXIXIXIX",
"IXIXIXIXIXIXIXIXIXIXIXIXIXIXIXIXIXIXIXIXIXIXIXIXIXIXIXIXIXIXIXIXIXIXIX! , y g 2 1 g 1 1 g < = $ H zXFX].'.XX[.].oXoXoXoXoXoXoXoXoXoXoXoXoXoXoXoXoXoXoXoXoXoXoXoXoXoXoXoXoXoXoXoXoXoXoXoXoXoXoXoXoXXXoX<X1X6X(.z.-.O.O.+.6.6.6.:.6.6.6.6.6.6.6.6.6.6.6.6.6.6.$.$.} u.W.6X4X+XXX_.*X].oXoXoX].oXoXoXoXoXoXoXoXoXoXoXoXoXoXoXoXoXoXoXoXoXoXoXoXoXoXoXoXoXoXoXoXoXoXoXoXoXoXoXoXoXoXoXoXoXoXoXoXoX].'.[.+X4X6XQ.x.( :.:.6.$.&.&.6.6.$.o.;.x./.6X4X'.oXXX<X<XOXXXXX'.oXXXXXXXoXoXoXXX<X_.XXXX0X2X^.j.| O.$.6.6.6.6.6.6.6.6.6.6.6.7.7.6.6.6.6.6.6.6.6.6.6.6.6.6.6.6.6.6.6.6.6.6.6.6.6.6.6.6.6.6.6.6.6.6.6.6.6.6.6.6.6.6.6.6.6.6.6.6.6.6.6.6.6.6.6.6.6.6.6.6.6.6.6.6.6.6.6.6.6.6.6.6.6.6.6.6.6.6.6.6.6.6.6.6.6.6.6.6.6.6.6.6.6.6.6.6.:.:.:.:.:.+.+.$.$.o.+.6.6.6.$.+.+.t.:.6.$.O.;.v.T.<X=X=X=X*XXXoXoX*X*XrX3XF.-.^ $.6.:.0.7.$.&.+...} l.R.>X7X'.'.'.].].].].oXoXoXXXXXXXoXoXoXoXXXXXXX`.-XGXxXD % - y 1 g g 1 1 1 1 1 1 IXIXIXIXIXIXIXIXIXIXIXIXIXIXIXIXIXIXIXIXIXIXIXIXIXIXIXIXIXIXIXIXIXIXIX",
"IXIXIXIXIXIXIXIXIXIXIXIXIXIXIXIXIXIXIXIXIXIXIXIXIXIXIXIXIXIXIXIXIXIXIX! < y g 1 1 g 1 1 g < = $ H zXFX].XXXX[.].oXoXoXoXoXoXoXoXoXoXoXoXoXoXoXoXoXoXoXoXoXoXoXoXoXoXoXoXoXoXoXoXoXoXoXoXoXoXoXoXoXXXXXoX1X6X(.z.-.O.+.+.6.6.6.:.6.6.6.6.6.6.6.6.6.6.6.6.$.6.$.$.} u.T.6X4X+XXX_.*X].oXoXoX].oXoXoXoXoXoXoXoXoXoXoXoXoXoXoXoXoXoXoXoXoXoXoXoXoXoXoXoXoXoXoXoXoXoXoXoXoXoXoXoXoXoXoXoXoXoXoXoXoX].'.[.+X6X6XQ.x.( :.:.6.$.&.&.6.6.$.o.;.x./.uX4X'.XXXX<X<XXXXXXX*XoXXXXXXXoXoXoXXX<X_.XXXX0X2X^.j.| O.$.6.6.6.6.6.6.6.6.6.6.6.7.7.6.6.6.6.6.6.6.6.6.6.6.6.6.6.6.6.6.6.6.6.6.6.6.6.6.6.6.6.6.6.6.6.6.6.6.6.6.6.6.6.6.6.6.6.6.6.6.6.6.6.6.6.6.6.6.6.6.6.6.6.6.6.6.6.6.6.6.6.6.6.6.6.6.6.6.6.6.6.6.6.6.6.6.6.6.6.6.6.6.6.6.6.6.6.6.:.:.:.:.+.+.%.$.$.t.9.6.6.9.*.&.&.e.6.6.t.+.;.x.~.<X].].].[.'.].[.`.[.rX3XF.,.X.d.t.9.9.9.*.*.&.:./ j.R.,X7X*X'.'.].].].].+X+XoXXXXXXXoXoX].].XXXXXX`.-XGXxXD % - y d g e 1 1 1 y 1 1 IXIXIXIXIXIXIXIXIXIXIXIXIXIXIXIXIXIXIXIXIXIXIXIXIXIXIXIXIXIXIXIXIXIXIX",
"IXIXIXIXIXIXIXIXIXIXIXIXIXIXIXIXIXIXIXIXIXIXIXIXIXIXIXIXIXIXIXIXIXIXIX! 1 y g 1 1 g 1 1 g < = $ H zXFX].XXXX[.].oXoXoXoXoXoXoXoXoXoXoXoXoXoXoXoXoXoXoXoXoXoXoXoXoXoXoXoXoXoXoXoXoXoXoXoXoXoXoXoXoXXXXXoX1X6X(.z.-.O.+.+.6.6.6.:.6.6.6.6.6.6.6.6.6.6.$.$.6.6.6.$.} u.T.6X4XoXXX_.*X].oXoXoX].oXoXoXoXoXoXoXoXoXoXoXoXoXoXoXoXoXoXoXoXoXoXoXoXoXoXoXoXoXoXoXoXoXoXoXoXoXoXoXoXoXoXoXoXoXoXoXoXoX].XX'.+X6X6XQ.x.( :.:.6.$.$.$.6.6.$.o.;.x./.uXyX'.oXXX<X<XXXXXXX*XoXXXXXXXoXoXoXXX<X_.XXXX0X2X^.j.| O.$.6.6.6.6.6.6.6.6.6.6.6.7.7.6.6.6.6.6.6.6.6.6.6.6.6.6.6.6.6.6.6.6.6.6.6.6.6.6.6.6.6.6.6.6.6.6.6.6.6.6.6.6.6.6.6.6.6.6.6.6.6.6.6.6.6.6.6.6.6.6.6.6.6.6.6.6.6.6.6.6.6.6.6.6.6.6.6.6.6.6.6.6.6.6.6.6.6.6.6.6.6.6.6.6.6.6.6.6.7.7.7.6.$.&.&.%.%.t.*.$.$.%.%.%.%.+.o.%.%.[ } l.%X5XrXrXrXrXrX0X0X].rXpX3XG.,.) %.%.%.%.%.*.=.=.O.) f.Y.,X7X*X'.'.].].].oXoX+XoXoXXXXXoXoX].].XXXXXX`.-XGXxXD % - y 1 1 4 1 1 g d 1 1 IXIXIXIXIXIXIXIXIXIXIXIXIXIXIXIXIXIXIXIXIXIXIXIXIXIXIXIXIXIXIXIXIXIXIX",
"IXIXIXIXIXIXIXIXIXIXIXIXIXIXIXIXIXIXIXIXIXIXIXIXIXIXIXIXIXIXIXIXIXIXIX! < y g 1 1 g 1 1 h < = $ H zXFX'.'.XX[.].oXoXoXoXoXoXoXoXoXoXoXoXoXoXoXoXoXoXoXoXoXoXoXoXoXoXoXoXoXoXoXoXoXoXoXoXoXoXoXoXoXXXXX<X1X6X(.z.-.O.O.+.6.6.6.:.6.6.6.6.6.6.6.6.6.6.6.$.6.6.6.$.} u.W.6X4XoX<X_.*X].oXoXoX].oXoXoXoXoXoXoXoXoXoXoXoXoXoXoXoXoXoXoXoXoXoXoXoXoXoXoXoXoXoXoXoXoXoXoXoXoXoXoXoXoXoXoXoXoXoXoXoXoX].XX'.+X4X6XQ.x.( :.:.6.$.$.$.6.6.$.o.;.x./.uXyX'.oXXX*X<XOXXXXX*X].XXXXXXoXoXoXXX<X_.XXXX0X2X^.j.| O.$.6.6.6.6.6.6.6.6.6.6.6.7.7.6.6.6.6.6.6.6.6.6.6.6.6.6.6.6.6.6.6.6.6.6.6.6.6.6.6.6.6.6.6.6.6.6.6.6.6.6.6.6.6.6.6.6.6.6.6.6.6.6.6.6.6.6.6.6.6.6.6.6.6.6.6.6.6.6.6.6.6.6.6.6.6.6.6.6.6.6.6.6.6.6.6.6.6.6.6.6.6.6.6.6.6.6.6.6.7.7.7.6.$.&.&.&.%.X.o.o.( ( | o.| | / o.+./ / g.R.BXCXCXZXuXuXtXtX6XDXSXNXG.] ) / }  .} X.X.X.X.| ( f.T.&X7X<XXX'.].].].oXoXoX].].XXXXoXoX].].XXXXXX`.-XGXxXD % - y 1 1 1 1 1 g d 1 1 IXIXIXIXIXIXIXIXIXIXIXIXIXIXIXIXIXIXIXIXIXIXIXIXIXIXIXIXIXIXIXIXIXIXIX",
"IXIXIXIXIXIXIXIXIXIXIXIXIXIXIXIXIXIXIXIXIXIXIXIXIXIXIXIXIXIXIXIXIXIXIX! 1 y g 1 1 e 1 1 h < = $ H zXFX].XXoX[.].oXoXoXoXoXoXoXoXoXoXoXoXoXoXoXoXoXoXoXoXoXoXoXoXoXoXoXoXoXoXoXoXoXoXoXoXoXoXoXoXoXXXXX<X1X6X(.k.-.O.+.+.6.6.6.:.6.6.6.6.6.6.6.6.6.6.$.$.6.6.6.$.} u.W.6X4XoX<X_.=X].oXoXoX].oXoXoXoXoXoXoXoXoXoXoXoXoXoXoXoXoXoXoXoXoXoXoXoXoXoXoXoXoXoXoXoXoXoXoXoXoXoXoXoXoXoXoXoXoXoXoXoXoX].].[.+X4X6XQ.x.( :.:.6.$.$.$.6.6.$.o.;.x./.uXyX'.oXXX*X<XXXXXXX*X].XXXXXXoXoXoXXX<X'.XXXX0X2X^.j.| O.$.6.6.6.6.6.6.6.6.6.6.6.7.7.6.6.6.6.6.6.6.6.6.6.6.6.6.6.6.6.6.6.6.6.6.6.6.6.6.6.6.6.6.6.6.6.6.6.6.6.6.6.6.6.6.6.6.6.6.6.6.6.6.6.6.6.6.6.6.6.6.6.6.6.6.6.6.6.6.6.6.6.6.6.6.6.6.6.6.6.6.6.6.6.6.6.6.6.6.6.6.6.6.6.6.6.6.6.6.6.6.6.$.$.&.&.%.6.| >.q.1.1.f.g.1.2.2.1.j.<.2.g.L.$X/..X.X X X;X;X X:X>X(.M.f.2.2.5.5.<.1.q.u.<.<.1.m.T._.=X=XXX'.oXoXXX<XoXoX].].'.XXoXoX].].XXXXXX[.-XGXxXD % - y 1 1 1 1 1 1 1 1 1 IXIXIXIXIXIXIXIXIXIXIXIXIXIXIXIXIXIXIXIXIXIXIXIXIXIXIXIXIXIXIXIXIXIXIX",
"IXIXIXIXIXIXIXIXIXIXIXIXIXIXIXIXIXIXIXIXIXIXIXIXIXIXIXIXIXIXIXIXIXIXIX! 1 y h 1 1 e 1 1 h < = $ H zXFX].XXoX[.].oXoXoXoXoXoXoXoXoXoXoXoXoXoXoXoXoXoXoXoXoXoXoXoXoXoXoXoXoXoXoXoXoXoXoXoXoXoXoXoXoXXXXX<X1X6X(.k.-.O.+.+.6.6.6.:.6.6.6.6.6.6.6.6.6.6.$.$.6.6.6.$.} u.W.6X4XXX<X_.*X].oXoXoX].oXoXoXoXoXoXoXoXoXoXoXoXoXoXoXoXoXoXoXoXoXoXoXoXoXoXoXoXoXoXoXoXoXoXoXoXoXoXoXoXoXoXoXoXoXoXoXoXoX].'.[.+X4X6XQ.x.( :.:.6.$.$.$.6.6.$.o.,.x./.uXyX'.XXXX*X*XXXXXXX*X].XXXXXXoXoXoXXX<X'.XXXX0X2X^.j.| O.$.6.6.6.6.6.6.6.6.6.6.6.7.6.6.6.6.6.6.6.6.6.6.6.6.6.6.6.6.6.6.6.6.6.6.6.6.6.6.6.6.6.6.6.6.6.6.6.6.6.6.6.6.6.6.6.6.6.6.6.6.6.6.6.6.6.6.6.6.6.6.6.6.6.6.6.6.6.6.6.6.6.6.6.6.6.6.6.6.6.6.6.6.6.6.6.6.6.6.6.6.6.6.6.6.6.6.6.6.6.6.6.$.&.&.&.:.:.<.x.L.L.G.J.J.J.A.G.K.K.H.G.F.F.n.n.V.V.n.n.A.A.n.n.m.M.S.J.Y.K.G.F.S.J.H.H.F.F.F.T.`.[.=X=XXXXXoXoX<X<XoXoX].].XXXXoXoX].].XXXXXX[.-XGXxXD % - y 1 1 1 1 1 1 1 1 1 IXIXIXIXIXIXIXIXIXIXIXIXIXIXIXIXIXIXIXIXIXIXIXIXIXIXIXIXIXIXIXIXIXIXIX",
"IXIXIXIXIXIXIXIXIXIXIXIXIXIXIXIXIXIXIXIXIXIXIXIXIXIXIXIXIXIXIXIXIXIXIX! 1 y h 1 1 g 1 1 h < = $ H zXFX].XXoX[.].oXoXoXoXoXoXoXoXoXoXoXoXoXoXoXoXoXoXoXoXoXoXoXoXoXoXoXoXoXoXoXoXoXoXoXoXoXoXoXoXoXXXXX<X=X6X(.z.-.O.O.+.6.6.6.:.6.6.6.6.6.6.6.6.6.6.6.6.6.6.6.$.} u.W.6X4X+X<X_.*X].oXoXoX].oXoXoXoXoXoXoXoXoXoXoXoXoXoXoXoXoXoXoXoXoXoXoXoXoXoXoXoXoXoXoXoXoXoXoXoXoXoXoXoXoXoXoXoXoXoXoXoXoX].'.[.+X6X6XQ.x.( :.:.6.$.$.$.6.6.$.o.,.x./.uXyX'.XXXX*X*XXXXX'.*X].oXXXXXoXoXoXXX<X'.XXXX0X2X^.j.| O.$.6.6.6.6.6.6.6.6.6.6.6.6.6.6.6.6.6.6.6.6.6.6.6.6.6.6.6.6.6.6.6.6.6.6.6.6.6.6.6.6.6.6.6.:.6.6.6.6.6.6.6.6.6.6.6.6.6.6.6.6.6.6.6.6.6.6.6.6.6.6.6.6.6.6.6.6.6.6.6.6.6.6.6.6.6.6.6.6.6.6.6.:.:.6.6.6.6.6.6.6.6.6.6.6.6.6.6.6.6.:.6.@.@.@.+.,.2.1.G.$XmX,X<X<X&X;X;X<XXXNXmXR.v.2.,.>.0.7.:.,.,.:.-.-.2.A.VXMX5X;X&X&X'.XXXX,X;X(. X'.].[.].].oXoXoX<X<XXXXX*X*XXXXXoXoX].oXXXXXXX[.-XHXxXD & - y 1 4 p 1 1 1 1 1 1 IXIXIXIXIXIXIXIXIXIXIXIXIXIXIXIXIXIXIXIXIXIXIXIXIXIXIXIXIXIXIXIXIXIXIX",
"IXIXIXIXIXIXIXIXIXIXIXIXIXIXIXIXIXIXIXIXIXIXIXIXIXIXIXIXIXIXIXIXIXIXIXW 1 y h 1 1 g 1 y h < = $ H xXFX=X'.oX'.oXoXoXoXoXoXoXoXoXoXoXoXoXoXoXoXoXoXoXoXoXoXoXoXoXoXoXoXoXoXoXoXoXoXoXoXoXoXoXoXoXoX'.<X<X1X6X(.z.-.O.+.$.6.6.:.:.:.6.6.6.6.6.6.6.6.6.6.6.6.6.6.$.} 5.T.6XrXoXXX_.'.].oXoXoX].oXoXoXoXoXoXoXoXoXoXoXoXoXoXoXoXoXoXoXoXoXoXoXoXoXoXoXoXoXoXoXoXoXoXoXoXoXoXoXoXoXoXoXoXoXoXoXoXoXXX'.[.XX6X6XQ.x.( :.+.:.:.:.6.6.6.$.o.,.x.(.MX6X'.XX<X<X<X<XXX'.'.].oXoXoXoXoXoXoX<X'.XXXXwX4X^.g.| O.$.w.6.6.6.6.:.6.6.6.6.6.6.6.6.6.6.6.6.6.6.6.6.6.6.6.6.6.6.6.6.6.6.6.6.6.6.6.6.6.6.6.6.6.:.:.6.6.6.6.6.6.6.6.6.6.6.6.6.6.6.6.6.6.6.6.6.6.6.6.6.6.6.6.6.6.6.6.6.6.6.6.6.6.6.6.6.6.6.6.6.6.:.:.6.6.6.6.6.6.6.6.6.6.6.6.6.6.6.:.:.:.+.+.@.+.,.2.2.G.BXDXuXrXuXyX7XuXiXiXSXSXW.2.` / / X.{ { } } #.[ ^ ( A.mXSXuX7X-X0XsXiXiXyX4XBXMX1X[.].].].oXoXoX<X<XXXXX*X*X].oXoXoXoXoXXXXXXX[.2XHXxXD * - y y y y 1 1 1 1 1 1 IXIXIXIXIXIXIXIXIXIXIXIXIXIXIXIXIXIXIXIXIXIXIXIXIXIXIXIXIXIXIXIXIXIXIX",
"IXIXIXIXIXIXIXIXIXIXIXIXIXIXIXIXIXIXIXIXIXIXIXIXIXIXIXIXIXIXIXIXIXIXIXW < 1 g 1 1 g 1 y h < - $ I zXGX-X[.oXXXoXoXoXoXoX+XoXoXoXoXXXXXXXXXXXXXXXXXXXXXXXXXXXXXXXXXXXXXXXXXXXXXXXXXXXXXXXXXXXXXXX<X'.'.'.1X6X~.b.-.+.%.$.6.:.:.,.:.+.:.+.+.+.:.:.:.+.+.+.+.+.+.:.} 1.T.6XrX].*X_.<XoXoX+XoXXXXXXXXXXXXXXXXXXXXXXXXXXXXXXXXXXXXXXXXXXXXXXXXXXXXXXXXXXXXXXXXXXXXXXXXXXXXXXXXXXXXXXXXXXXXXXXXXXXXXXX<X'.'.yXyX/.v.| ..+.:.:.:.:.6.w.%.X.-.Z.~.MX6X[.<X<X<X<X<XXX'.].].].oX<X<XoXoXoX'.<XXXXXrXNXE.k.| O.@.&.+.+.:.:.:.:.:.:.:.+.+.+.6.6.6.6.6.6.6.6.6.6.6.6.6.:.:.:.:.+.:.+.:.+.:.+.:.+.:.+.:.+.:.+.:.+.:.+.:.:.:.:.:.+.:.+.:.:.:.:.6.6.6.6.6.6.6.6.6.6.6.6.6.:.:.:.:.:.+.+.+.+.:.:.:.+.:.+.:.:.:.:.+.+.+.+.:.:.:.:.:.+.:.:.:.:.:.:.:.:.:.:.:.:.+.-.2.G.5XrX].'.<X<X'.'.].].yX6XW.g.,.:.6.0.6.6.:...@.#.[ -.A.:XuX].*X&X*X].].].].XXXXXXoXoXoXoXoXoXoXoXXXXXXXXXXX].].oXoX+XoX].=X=X[.*X2XSXbXD # > y 0 0 0 1 1 1 y d g IXIXIXIXIXIXIXIXIXIXIXIXIXIXIXIXIXIXIXIXIXIXIXIXIXIXIXIXIXIXIXIXIXIXIX",
"IXIXIXIXIXIXIXIXIXIXIXIXIXIXIXIXIXIXIXIXIXIXIXIXIXIXIXIXIXIXIXIXIXIXIXW < 1 g 1 1 g 1 y h y - * I xXGX-X[.oXXXoXoXoXoXoX+XoXoXoXoXXXXXXXXXXXXXXXXXXXXXXXXXXXXXXXXXXXXXXXXXXXXXXXXXXXXXXXXXXXXXXX<X_._.'.1X6X~.b.-.+.%.$.$.:.:.,.:.6.6.:.:.:.6.6.6.6.$.$.6.6.6.:.} 1.E.MXrX].*X_.XXoX+XoXXX<XoXoXXXXXXXXXXXXXXXXXXXXXXXXXXXXXXXXXXXXXXXXXXXXXXXXXXXXXXXXXXXXXXXXXXXXXXXXXXXXXXXXXXXXXXXXXXXXXXXXX<X'.'.yXyX/.v.|  .+.@.:.:.:.$.&.$.o.;.x.(.MX6X[.<X<XOXXX<XXX'.].].].].<X<X].].].'.<XXXXXyXNXE.g.| O.%.&.$.6.6.6.6.6.6.6.6.6.6.+.6.6.6.6.6.:.6.6.6.6.6.6.:.:.:.:.6.6.6.6.6.:.6.6.6.6.6.:.6.6.6.6.:.6.6.6.6.6.6.6.:.6.6.6.6.6.6.6.6.6.6.6.:.:.6.6.6.6.6.6.:.:.:.:.6.6.$.$.$.:.6.6.6.6.6.:.6.6.6.6.6.$.$.$.6.6.6.6.:.6.6.6.6.6.6.:.:.:.:.:.6.$.+.| 2.G.6XiX].'.OX<XXX<X].].yX6XR.g.-.+.6.0.6.6.:...@.+.{ :.F.>XuX].*X<X<X<XoXXXoXoXoXXXXXXXXXXXXXXXXXXXXXXXXXXXXX].].oX+X+XoX].=X=X[.*X2XSXbXD # - y 0 0 0 1 1 y y 4 g IXIXIXIXIXIXIXIXIXIXIXIXIXIXIXIXIXIXIXIXIXIXIXIXIXIXIXIXIXIXIXIXIXIXIX",
"IXIXIXIXIXIXIXIXIXIXIXIXIXIXIXIXIXIXIXIXIXIXIXIXIXIXIXIXIXIXIXIXIXIXIXW < 1 g 1 1 g 1 y h y - $ U zXGX-X[.oXXXoXoXoX].].oXoXoX].].].oXoXoX].oX].oX].oX].oXoXoX].oX].oX].oX].oX].oX].oX].oX].oXXX<X'._.'.1XMX~.g.| O.%.&.&.&.:.:.7.7.7.7.6.7.7.7.6.6.6.6.6.6.6.6.} q.E.MXrX].*X_.XXoXoXoXXXXXoXoXoX].oXoXoX].oX].oX].oX].oXoXoX].oX].oX].oX].oX].oX].oX].oX].oXoXoX].oX].oXoXoX].oX].oX].oX].oXXX<X'.'.yXCX/.x.} O.O.&.3.:.$.&.*.9.o.,.c./.CXyX'.XX<XXXXXXX<XXX].].].].*X*X].].].'.*XXXXXyXNXW.g.| +.$.6.6.6.7.6.7.7.7.7.7.6.7.7.7.7.7.7.:.:.7.:.7.7.7.7.7.7.:.7.7.7.7.7.7.7.7.7.7.7.7.7.7.7.7.7.7.7.7.7.7.7.7.7.7.7.7.7.7.7.7.7.7.7.7.7.:.:.7.7.7.7.7.7.7.7.:.7.7.7.7.7.6.7.7.7.7.7.7.7.7.7.7.7.6.6.6.6.7.7.7.7.7.7.7.7.7.7.7.7.6.+.$.$.&.%.%.| 2.G.5XrX].XXOXOX|.<XXX].yXMXR.g.| +.$.9.*.$.$.+.6.+.X.,.F.mXCX].XX<XXXXXXXXXXXXXoX].oXoXoX].oX].oX].oX].oXoXoX].].oX+X+XoXoX].=X'.<X1XSXbXD # , y y 0 0 1 0 4 4 4 g IXIXIXIXIXIXIXIXIXIXIXIXIXIXIXIXIXIXIXIXIXIXIXIXIXIXIXIXIXIXIXIXIXIXIX",
"IXIXIXIXIXIXIXIXIXIXIXIXIXIXIXIXIXIXIXIXIXIXIXIXIXIXIXIXIXIXIXIXIXIXIXW < 1 g 1 1 g 1 1 h < - $ H zXAX-X[.oX'.oXoX].].].].oX].].oXoXoXoX].].].].].].].].oXoXoX].].].].].].].oXoX].].].].].].oXoX<X'.'.XX4XMX~.g.| O.%.*.*.$.:.:.7.7.7.7.6.6.7.7.6.6.6.6.6.6.6.6.} u.R.NXrX].*X_.XXXXoXoX<X<XoXoXoXoXoXoX].].].].].].].].oXoXoX].].].].].].].oXoX].].].].].].oXoX].].].].oXoXoX].].].].].].].].].XX'.'.4XCX/.x.} O.%.$.6.6.6.&.*.9.;.,.c./.CXyX[.oX<X<X<X<X<X<X].].].].*X*X].].].'.*X*XXX4XMXE.g.| +.6.6.6.7.0.7.0.7.0.7.0.7.0.7.7.7.7.7.:.:.:.:.7.7.7.7.7.7.7.7.7.7.7.7.7.7.7.7.7.7.7.7.7.7.7.7.7.7.7.7.7.7.7.7.7.7.7.7.7.7.7.7.7.7.7.7.:.:.:.7.7.7.7.7.7.7.7.7.7.7.7.7.7.7.7.7.7.7.7.7.7.7.7.7.7.7.6.7.7.7.7.7.7.7.7.7.7.7.7.7.6.$.$.$.$.%.%.o.2.G.5XyX].XX+XOXXX<XXXoXyXMXR.g.| +.$.*.*.$.6.6.6.6.X.,.V.mXCX].].XXXX<XXX<XXXXXoXoXoXoX].].oXoX].].].].oXoXoX].].oX+XOXoXXX].*X_.<X1XSXbXD # , y 4 4 e 1 1 1 4 1 g IXIXIXIXIXIXIXIXIXIXIXIXIXIXIXIXIXIXIXIXIXIXIXIXIXIXIXIXIXIXIXIXIXIXIX",
"IXIXIXIXIXIXIXIXIXIXIXIXIXIXIXIXIXIXIXIXIXIXIXIXIXIXIXIXIXIXIXIXIXIXIXW < 1 g 1 1 g 1 1 h < - $ H zXGX-X[.<X'.'.XX*X=X*X*XXX*X].].].].].].].].].].].].].].].].].].].].].].].].].].].].].].].].oX<X'.'.XX4XMX~.k.-.+.$.$.9.6.7.:.:.:.:.:.:.:.:.:.:.:.:.:.+.+.+.+.} 5.R.MXrX].*X_.*X<X=X=X*X*X].oXoX].].].].].].].].].].].].].].].].].].].].].].].].].].].].].].].].].].].].].].].].].].].].].].].XX'.'.6XCX(.x.| +.%.6.7.7.6.6.*.$.o.,.c./.uXrX[.].*X<X<X<X*X*X].].].].*X<XXX].].'.*X*XXX4XMXW.g.| %.$.6.9.6.9.6.0.0.9.9.9.9.9.9.6.6.6.7.7.7.6.6.7.7.7.7.6.6.6.6.:.:.:.:.:.:.:.:.:.:.:.:.:.:.:.:.:.:.:.:.:.:.:.:.:.:.:.:.:.:.:.:.6.6.6.6.6.6.6.6.6.6.6.6.6.6.6.6.:.:.:.:.:.:.:.:.:.:.:.:.:.:.:.:.:.:.:.:.:.:.:.:.:.:.:.:.:.:.:.7.7.9.$.$.*.$.$.o.2.H.MXyXXXXXOXOX|.<X'.].yXMXR.g.| O.$.6.6.6.7.:.6.+.} ,.m.>XuX].].*X'.'.*X*X*X*XoX].].].].].].].].].].].].].].].].*XoXXX*X*X*X*X_.*X-XAXbXD # , y y 4 4 1 1 0 0 1 g IXIXIXIXIXIXIXIXIXIXIXIXIXIXIXIXIXIXIXIXIXIXIXIXIXIXIXIXIXIXIXIXIXIXIX",
"IXIXIXIXIXIXIXIXIXIXIXIXIXIXIXIXIXIXIXIXIXIXIXIXIXIXIXIXIXIXIXIXIXIXIXW < 1 g 1 1 g 1 1 g < = $ H zXGX=X[.oX'.XXXXXX=X*XXXXX'.*XoXoXoXoX].].].].].].].].oXoX].].].].].].oXoXoXoX].].].].].].oXoXoX'.'.XX<XMX^.g.-.+.$.9.9.7.:.:.:.:.:.:.:.:.:.:.:.+.+.+.+.@.@.@.} 5.R.MXrX].[._.*X*X*X*X*X*X].oXoXoXoXoX].].].].].].].].oXoX].].].].].].oXoXoXoX].].].].].].].oX].].].].oXoX].].oXoXoXoX].].].].oX'.'.4XMX/.x.( +.%.6.6.7.7.6.*.%.X.,.v./.uXrX[.].*X*X*X*X*X*X].].oXoX<XXXXXoXoX'.<XXXXX4XNXW.g.| O.$.6.6.6.6.6.9.6.9.6.6.6.6.6.6.6.:.:.:.:.6.6.:.:.:.6.6.6.6.:.:.:.:.:.:.:.:.:.:.:.:.:.:.:.:.:.:.:.:.:.:.:.:.:.:.:.:.:.:.:.:.:.:.$.+.+.:.:.6.6.:.:.:.6.6.6.6.:.:.:.:.:.:.:.:.:.:.:.:.:.:.:.:.:.:.:.:.:.:.:.:.:.:.:.:.:.:.:.:.7.7.0.6.6.$.$.$.;.2.H.mXyXXXXX+XXXXX*X'.].yXMXW.g.| O.+.$.6.6.>.:.w.+. .;.A.,XuX].=X*X].*X*X*X*X<XoXoXoXoX].].].].].].oX].oXoX].].*X*X'.'.*X*X*X*X_.*X-XAXbXD # - y y 4 1 1 1 0 d 1 g W IXIXIXIXIXIXIXIXIXIXIXIXIXIXIXIXIXIXIXIXIXIXIXIXIXIXIXIXIXIXIXIXIXIX",
"IXIXIXIXIXIXIXIXIXIXIXIXIXIXIXIXIXIXIXIXIXIXIXIXIXIXIXIXIXIXIXIXIXIXIXW < 1 g 1 1 e 1 1 g < = $ H zXFX=XXX+XXXXXXXXXXXXXXXXXXXXXoXoXoXoXoXoXoXoXoXoXoXoXoXoXoXoXoXoXoXoXoXoXoXoXoXoXoXoXoXoXoXoXoX[.'.*X<X5X~.g.-...+.6.6.6.:.:.:.:.7.:.6.:.6.:.6.:.6.+.$.+.$.+.} q.R.MXrX].'._.*X*X*X*X*X'.oXoXoXoXoXoXoXoXoXoXoXoXoXoXoXoXoXoXoXoXoXoXoXoXoXoXoXoXoXoXoXoXoXoXoXoXoXoXoXoXoXoXoXoXoXoXoXoXoXoX].[.[.1XMX/.x.| O.+.6.w.:.:.+.&.*.O...x.(.MXyX[.*X*X*X<X<X<X'.oXXXXXXXXXOXOX+XoXXX<XXXXXMXNXE.b.| O.$.w.6.+.6.:.6.:.6.:.6.:.6.:.:.:.:.:.:.:.:.:.:.:.:.:.:.:.:.:.:.:.6.:.:.:.6.:.6.:.:.:.6.:.6.:.6.:.6.:.6.:.6.:.6.:.6.:.6.:.6.:.:.:.+.:.:.:.:.:.:.:.:.:.:.:.:.:.:.:.6.:.6.:.7.:.6.:.:.:.7.:.7.:.6.:.6.:.6.:.7.:.7.:.6.:.7.:.7.7.6.6.+.+.&.+.+.-.2.G.5XuX'.'.oXXXXX<X'.].yXMXR.g.| O.+.%.&.6.7.6.&.#.{ -.F.:X6X=X*X*X].'.*X*X<XXXoXoXoXoXoXoXoXoXoXoXoXoXoXoXoXoXXX*XXXXX*X*X<X<X_.*X-XAXbXD # , y 1 1 0 1 y y y 1 g W IXIXIXIXIXIXIXIXIXIXIXIXIXIXIXIXIXIXIXIXIXIXIXIXIXIXIXIXIXIXIXIXIXIX",
"IXIXIXIXIXIXIXIXIXIXIXIXIXIXIXIXIXIXIXIXIXIXIXIXIXIXIXIXIXIXIXIXIXIXIXW < 1 g 1 1 e 1 1 g < = $ H zXFX<X+X+X+XXXOXOXXXoXXXXXXXXXoXoXoXoX+XoXoXoXoXoXoXoX+XoX+XoXoXoXoXoX+XoX+XoXoXoXoXoXoXoXoXoXoX[.'.*X<XMX~.g.-...+.6.6.:.:.:.:.:.7.:.6.:.6.:.6.:.6.:.$.+.$.6.( y.R.MXeXoXoX'.<X<X*X*X<XoXoX+XoXoX+XoX+XoXoXoXoXoXoXoX+XoX+XoXoXoXoXoX+XoX+XoXoXoXoXoXoXoXoXoXoXoXoXoX+XoX+XoX+XoXoXoXoXoXoXoXoX[.'.1XMX/.x.( o.+.6.3.:.:.@.&.#.O.-.x.(.MXyX[.*X*X<X<X<X<XoXXXXXXXoXoXOXOX+X+XXXXXXXXXMXNXE.b.| O.+.w.+.:.:.:.:.:.:.:.:.:.:.:.:.:.:.:.:.:.:.:.:.:.:.:.:.+.+.+.:.:.6.:.6.:.6.:.6.:.:.:.6.:.6.:.6.:.6.:.6.:.6.:.6.:.6.:.6.:.6.:.:.:.+.:.:.:.:.:.:.:.:.:.:.:.:.:.:.:.6.:.6.:.6.:.6.:.:.:.6.:.6.:.6.:.6.:.6.:.6.:.6.:.6.:.6.:.6.6.6.6.+.@.&.+.+.-.2.G.5XuX'.XX+X+XXX<XXX'.yXMXR.g.-...+.%.&.$.6.:.&.O.X.;.F.:X8X*X*X].oXXX<X<XXXXXXXoXoXoX+XoXoXoXoXoXoXoX+XoX+XXXXXXXXXXXXXXXXXXX[.*X=XSXbXD # > y y 1 1 0 0 y y 1 g W IXIXIXIXIXIXIXIXIXIXIXIXIXIXIXIXIXIXIXIXIXIXIXIXIXIXIXIXIXIXIXIXIXIX",
"IXIXIXIXIXIXIXIXIXIXIXIXIXIXIXIXIXIXIXIXIXIXIXIXIXIXIXIXIXIXIXIXIXIXIX! 1 o > g > > > > > , , $ F }.FXuXXX@XXXXX+X+XXX'.XXXXXXXXXXXXXXXXXXXXXXXXXXXXXXXXXXXXXXXXXXXXXXXXXXXXXXXXXXXXXXXXXXXXXXXX@X+X+XXXMXNXR.v.,...+.+.$.+.+.+.+.:.:.+.+.+.:.+.+.+.+.+.+.+.+.:.) h.).NXZXeXXXXXXXXXXX'.XXXX+X+X+XXXXXXXXXXXXXXXXXXXXXXXXXXXXXXXXXXXXXXXXXXXXXXXXXXXXXXXXXXXXXXXXXXXXXXXXXXXXXXXXXXXXXXXXXXXXXXX@X@XXX6XMX(.z.( 7.9.6.6.:.+.%.&.%.| -.k.).MXCX+XXXXXXXXXXXXX+XXXXX'.XXXXXXXXoXoXXXXXXXXX6X3XT.f.;.O.O.+.+.+.+.+.+.+.$.6.+.+.+.+.+.+.$.+.+.+.+.+.6.:.$.$.$.$.$.$.+.+.+.+.+.+.+.+.+.+.+.+.+.+.+.+.+.+.+.+.+.+.+.+.+.+.+.+.+.+.+.+.6.6.6.6.6.6.6.6.+.+.+.+.+.+.+.+.+.+.+.+.+.+.:.:.+.+.+.:.+.+.+.+.:.:.:.:.:.:.:.:.+.+.+.+.+.+.+.+.$.%.+.+.+.+.;.,.2.F.mXMX+X+X@X@X+XXXXXoXCXMXR.f.,...O.O.O.O.| | :./ ^ ,.F./.7X2X'.XX+XXXXXXX+X+XXXXXXXXXXXXXXXXXXXXXXXXXXXXXXXXXXXXXXXXXXXXX+X+XXX'.aXHXnXF 7   1 1 1 1 1 1 1 1 > > ! IXIXIXIXIXIXIXIXIXIXIXIXIXIXIXIXIXIXIXIXIXIXIXIXIXIXIXIXIXIXIXIXIXIX",
"IXIXIXIXIXIXIXIXIXIXIXIXIXIXIXIXIXIXIXIXIXIXIXIXIXIXIXIXIXIXIXIXIXIXIXQ z g g z k k k k k c c r N.nXHXKXxXxXcXcXcXcXcXcXcXcXcXcXcXcXcXcXcXcXcXcXcXcXcXcXcXcXcXcXcXcXcXcXcXcXcXcXcXcXcXcXcXcXcXcXxXbXbXbXKXbXVXV.q.a.a.a.a.a.a.a.a.a.a.a.a.a.a.a.a.a.a.a.a.a.a.a.8.B.VXbXKXbXbXbXbXbXcXcXcXxXbXbXcXcXcXcXcXcXcXcXcXcXvXcXcXcXvXcXcXcXcXcXcXcXcXcXcXcXcXcXcXcXcXcXcXcXcXcXcXcXcXcXcXcXcXcXcXcXcXxXbXxXvXKXKXlXV.a.a.a.a.a.a.a.a.a.a.a.h.V.VXKXKXbXcXbXcXcXbXbXxXxXcXNXcXcXcXcXcXcXvXcXcXNXKXbX).V.q.a.a.a.a.a.a.a.a.a.a.a.a.a.a.a.a.a.a.a.a.a.a.a.a.a.a.a.a.a.a.a.a.a.a.a.a.a.a.a.a.a.a.a.a.a.a.a.a.a.a.a.a.a.a.a.a.a.a.a.a.a.a.a.a.a.a.a.a.a.a.a.a.a.a.a.a.a.a.a.a.a.a.a.a.a.a.a.a.a.a.a.a.a.a.a.a.a.a.a.a.a.a.a.a.a.a.a.a.a.a.a.a.a.s.s.a.a.a.a.B.^.bXKXbXbXbXbXcXcXvXcXKXbXVXB.q.8.a.a.s.s.a.a.B.a.i.B.L.lXNXZXcXbXbXbXbXbXbXbXcXcXcXcXcXcXcXcXcXcXcXcXcXcXcXcXcXbXcXxXxXxXbXbXvXvXJXHXbXN.c e k k k k k k k k k k IXIXIXIXIXIXIXIXIXIXIXIXIXIXIXIXIXIXIXIXIXIXIXIXIXIXIXIXIXIXIXIXIXIXIX",
"IXIXIXIXIXIXIXIXIXIXIXIXIXIXIXIXIXIXIXIXIXIXIXIXIXIXIXIXIXIXIXIXIXIXIXIXIXIXIXIXIXIXIXIXIXIXIXIXIXIXIXIXIXIXIXIXIXIXIXIXIXIXIXIXIXIXIXIXIXIXIXIXIXIXIXIXIXIXIXIXIXIXIXIXIXIXIXIXIXIXIXIXIXIXIXIXIXIXIXIXIXIXIXIXIXIXIXIXIXIXIXIXIXIXIXIXIXIXIXIXIXIXIXIXIXIXIXIXIXIXIXIXIXIXIXIXIXIXIXIXIXIXIXIXIXIXIXIXIXIXIXIXIXIXIXIXIXIXIXIXIXIXIXIXIXIXIXIXIXIXIXIXIXIXIXIXIXIXIXIXIXIXIXIXIXIXIXIXIXIXIXIXIXIXIXIXIXIXIXIXIXIXIXIXIXIXIXIXIXIXIXIXIXIXIXIXIXIXIXIXIXIXIXIXIXIXIXIXIXIXIXIXIXIXIXIXIXIXIXIXIXIXIXIXIXIXIXIXIXIXIXIXIXIXIXIXIXIXIXIXIXIXIXIXIXIXIXIXIXIXIXIXIXIXIXIXIXIXIXIXIXIXIXIXIXIXIXIXIXIXIXIXIXIXIXIXIXIXIXIXIXIXIXIXIXIXIXIXIXIXIXIXIXIXIXIXIXIXIXIXIXIXIXIXIXIXIXIXIXIXIXIXIXIXIXIXIXIXIXIXIXIXIXIXIXIXIXIXIXIXIXIXIXIXIXIXIXIXIXIXIXIXIXIXIXIXIXIXIXIXIXIXIXIXIXIXIXIXIXIXIXIXIXIXIXIXIXIXIXIXIXIXIXIXIXIXIXIXIXIXIXIXIXIXIXIXIXIXIXIXIXIXIXIXIXIXIXIXIXIXIXIXIXIXIXIXIXIXIXIXIXIXIXIXIXIXIXIXIXIXIXIXIXIXIXIXIXIXIXIXIXIXIXIXIXIXIXIXIXIXIXIXIXIXIXIXIXIXIXIXIXIXIXIXIXIXIX",
"IXIXIXIXIXIXIXIXIXIXIXIXIXIXIXIXIXIXIXIXIXIXIXIXIXIXIXIXIXIXIXIXIXIXIXIXIXIXIXIXIXIXIXIXIXIXIXIXIXIXIXIXIXIXIXIXIXIXIXIXIXIXIXIXIXIXIXIXIXIXIXIXIXIXIXIXIXIXIXIXIXIXIXIXIXIXIXIXIXIXIXIXIXIXIXIXIXIXIXIXIXIXIXIXIXIXIXIXIXIXIXIXIXIXIXIXIXIXIXIXIXIXIXIXIXIXIXIXIXIXIXIXIXIXIXIXIXIXIXIXIXIXIXIXIXIXIXIXIXIXIXIXIXIXIXIXIXIXIXIXIXIXIXIXIXIXIXIXIXIXIXIXIXIXIXIXIXIXIXIXIXIXIXIXIXIXIXIXIXIXIXIXIXIXIXIXIXIXIXIXIXIXIXIXIXIXIXIXIXIXIXIXIXIXIXIXIXIXIXIXIXIXIXIXIXIXIXIXIXIXIXIXIXIXIXIXIXIXIXIXIXIXIXIXIXIXIXIXIXIXIXIXIXIXIXIXIXIXIXIXIXIXIXIXIXIXIXIXIXIXIXIXIXIXIXIXIXIXIXIXIXIXIXIXIXIXIXIXIXIXIXIXIXIXIXIXIXIXIXIXIXIXIXIXIXIXIXIXIXIXIXIXIXIXIXIXIXIXIXIXIXIXIXIXIXIXIXIXIXIXIXIXIXIXIXIXIXIXIXIXIXIXIXIXIXIXIXIXIXIXIXIXIXIXIXIXIXIXIXIXIXIXIXIXIXIXIXIXIXIXIXIXIXIXIXIXIXIXIXIXIXIXIXIXIXIXIXIXIXIXIXIXIXIXIXIXIXIXIXIXIXIXIXIXIXIXIXIXIXIXIXIXIXIXIXIXIXIXIXIXIXIXIXIXIXIXIXIXIXIXIXIXIXIXIXIXIXIXIXIXIXIXIXIXIXIXIXIXIXIXIXIXIXIXIXIXIXIXIXIXIXIXIXIXIXIXIXIXIXIXIXIXIXIXIXIXIX",
"IXIXIXIXIXIXIXIXIXIXIXIXIXIXIXIXIXIXIXIXIXIXIXIXIXIXIXIXIXIXIXIXIXIXIXIXIXIXIXIXIXIXIXIXIXIXIXIXIXIXIXIXIXIXIXIXIXIXIXIXIXIXIXIXIXIXIXIXIXIXIXIXIXIXIXIXIXIXIXIXIXIXIXIXIXIXIXIXIXIXIXIXIXIXIXIXIXIXIXIXIXIXIXIXIXIXIXIXIXIXIXIXIXIXIXIXIXIXIXIXIXIXIXIXIXIXIXIXIXIXIXIXIXIXIXIXIXIXIXIXIXIXIXIXIXIXIXIXIXIXIXIXIXIXIXIXIXIXIXIXIXIXIXIXIXIXIXIXIXIXIXIXIXIXIXIXIXIXIXIXIXIXIXIXIXIXIXIXIXIXIXIXIXIXIXIXIXIXIXIXIXIXIXIXIXIXIXIXIXIXIXIXIXIXIXIXIXIXIXIXIXIXIXIXIXIXIXIXIXIXIXIXIXIXIXIXIXIXIXIXIXIXIXIXIXIXIXIXIXIXIXIXIXIXIXIXIXIXIXIXIXIXIXIXIXIXIXIXIXIXIXIXIXIXIXIXIXIXIXIXIXIXIXIXIXIXIXIXIXIXIXIXIXIXIXIXIXIXIXIXIXIXIXIXIXIXIXIXIXIXIXIXIXIXIXIXIXIXIXIXIXIXIXIXIXIXIXIXIXIXIXIXIXIXIXIXIXIXIXIXIXIXIXIXIXIXIXIXIXIXIXIXIXIXIXIXIXIXIXIXIXIXIXIXIXIXIXIXIXIXIXIXIXIXIXIXIXIXIXIXIXIXIXIXIXIXIXIXIXIXIXIXIXIXIXIXIXIXIXIXIXIXIXIXIXIXIXIXIXIXIXIXIXIXIXIXIXIXIXIXIXIXIXIXIXIXIXIXIXIXIXIXIXIXIXIXIXIXIXIXIXIXIXIXIXIXIXIXIXIXIXIXIXIXIXIXIXIXIXIXIXIXIXIXIXIXIXIXIXIXIXIXIXIXIXIXIX",
"IXIXIXIXIXIXIXIXIXIXIXIXIXIXIXIXIXIXIXIXIXIXIXIXIXIXIXIXIXIXIXIXIXIXIXIXIXIXIXIXIXIXIXIXIXIXIXIXIXIXIXIXIXIXIXIXIXIXIXIXIXIXIXIXIXIXIXIXIXIXIXIXIXIXIXIXIXIXIXIXIXIXIXIXIXIXIXIXIXIXIXIXIXIXIXIXIXIXIXIXIXIXIXIXIXIXIXIXIXIXIXIXIXIXIXIXIXIXIXIXIXIXIXIXIXIXIXIXIXIXIXIXIXIXIXIXIXIXIXIXIXIXIXIXIXIXIXIXIXIXIXIXIXIXIXIXIXIXIXIXIXIXIXIXIXIXIXIXIXIXIXIXIXIXIXIXIXIXIXIXIXIXIXIXIXIXIXIXIXIXIXIXIXIXIXIXIXIXIXIXIXIXIXIXIXIXIXIXIXIXIXIXIXIXIXIXIXIXIXIXIXIXIXIXIXIXIXIXIXIXIXIXIXIXIXIXIXIXIXIXIXIXIXIXIXIXIXIXIXIXIXIXIXIXIXIXIXIXIXIXIXIXIXIXIXIXIXIXIXIXIXIXIXIXIXIXIXIXIXIXIXIXIXIXIXIXIXIXIXIXIXIXIXIXIXIXIXIXIXIXIXIXIXIXIXIXIXIXIXIXIXIXIXIXIXIXIXIXIXIXIXIXIXIXIXIXIXIXIXIXIXIXIXIXIXIXIXIXIXIXIXIXIXIXIXIXIXIXIXIXIXIXIXIXIXIXIXIXIXIXIXIXIXIXIXIXIXIXIXIXIXIXIXIXIXIXIXIXIXIXIXIXIXIXIXIXIXIXIXIXIXIXIXIXIXIXIXIXIXIXIXIXIXIXIXIXIXIXIXIXIXIXIXIXIXIXIXIXIXIXIXIXIXIXIXIXIXIXIXIXIXIXIXIXIXIXIXIXIXIXIXIXIXIXIXIXIXIXIXIXIXIXIXIXIXIXIXIXIXIXIXIXIXIXIXIXIXIXIXIXIXIXIXIXIXIXIX",
"IXIXIXIXIXIXIXIXIXIXIXIXIXIXIXIXIXIXIXIXIXIXIXIXIXIXIXIXIXIXIXIXIXIXIXIXIXIXIXIXIXIXIXIXIXIXIXIXIXIXIXIXIXIXIXIXIXIXIXIXIXIXIXIXIXIXIXIXIXIXIXIXIXIXIXIXIXIXIXIXIXIXIXIXIXIXIXIXIXIXIXIXIXIXIXIXIXIXIXIXIXIXIXIXIXIXIXIXIXIXIXIXIXIXIXIXIXIXIXIXIXIXIXIXIXIXIXIXIXIXIXIXIXIXIXIXIXIXIXIXIXIXIXIXIXIXIXIXIXIXIXIXIXIXIXIXIXIXIXIXIXIXIXIXIXIXIXIXIXIXIXIXIXIXIXIXIXIXIXIXIXIXIXIXIXIXIXIXIXIXIXIXIXIXIXIXIXIXIXIXIXIXIXIXIXIXIXIXIXIXIXIXIXIXIXIXIXIXIXIXIXIXIXIXIXIXIXIXIXIXIXIXIXIXIXIXIXIXIXIXIXIXIXIXIXIXIXIXIXIXIXIXIXIXIXIXIXIXIXIXIXIXIXIXIXIXIXIXIXIXIXIXIXIXIXIXIXIXIXIXIXIXIXIXIXIXIXIXIXIXIXIXIXIXIXIXIXIXIXIXIXIXIXIXIXIXIXIXIXIXIXIXIXIXIXIXIXIXIXIXIXIXIXIXIXIXIXIXIXIXIXIXIXIXIXIXIXIXIXIXIXIXIXIXIXIXIXIXIXIXIXIXIXIXIXIXIXIXIXIXIXIXIXIXIXIXIXIXIXIXIXIXIXIXIXIXIXIXIXIXIXIXIXIXIXIXIXIXIXIXIXIXIXIXIXIXIXIXIXIXIXIXIXIXIXIXIXIXIXIXIXIXIXIXIXIXIXIXIXIXIXIXIXIXIXIXIXIXIXIXIXIXIXIXIXIXIXIXIXIXIXIXIXIXIXIXIXIXIXIXIXIXIXIXIXIXIXIXIXIXIXIXIXIXIXIXIXIXIXIXIXIXIXIXIXIXIX",
"IXIXIXIXIXIXIXIXIXIXIXIXIXIXIXIXIXIXIXIXIXIXIXIXIXIXIXIXIXIXIXIXIXIXIXIXIXIXIXIXIXIXIXIXIXIXIXIXIXIXIXIXIXIXIXIXIXIXIXIXIXIXIXIXIXIXIXIXIXIXIXIXIXIXIXIXIXIXIXIXIXIXIXIXIXIXIXIXIXIXIXIXIXIXIXIXIXIXIXIXIXIXIXIXIXIXIXIXIXIXIXIXIXIXIXIXIXIXIXIXIXIXIXIXIXIXIXIXIXIXIXIXIXIXIXIXIXIXIXIXIXIXIXIXIXIXIXIXIXIXIXIXIXIXIXIXIXIXIXIXIXIXIXIXIXIXIXIXIXIXIXIXIXIXIXIXIXIXIXIXIXIXIXIXIXIXIXIXIXIXIXIXIXIXIXIXIXIXIXIXIXIXIXIXIXIXIXIXIXIXIXIXIXIXIXIXIXIXIXIXIXIXIXIXIXIXIXIXIXIXIXIXIXIXIXIXIXIXIXIXIXIXIXIXIXIXIXIXIXIXIXIXIXIXIXIXIXIXIXIXIXIXIXIXIXIXIXIXIXIXIXIXIXIXIXIXIXIXIXIXIXIXIXIXIXIXIXIXIXIXIXIXIXIXIXIXIXIXIXIXIXIXIXIXIXIXIXIXIXIXIXIXIXIXIXIXIXIXIXIXIXIXIXIXIXIXIXIXIXIXIXIXIXIXIXIXIXIXIXIXIXIXIXIXIXIXIXIXIXIXIXIXIXIXIXIXIXIXIXIXIXIXIXIXIXIXIXIXIXIXIXIXIXIXIXIXIXIXIXIXIXIXIXIXIXIXIXIXIXIXIXIXIXIXIXIXIXIXIXIXIXIXIXIXIXIXIXIXIXIXIXIXIXIXIXIXIXIXIXIXIXIXIXIXIXIXIXIXIXIXIXIXIXIXIXIXIXIXIXIXIXIXIXIXIXIXIXIXIXIXIXIXIXIXIXIXIXIXIXIXIXIXIXIXIXIXIXIXIXIXIXIXIXIXIXIXIX",
"IXIXIXIXIXIXIXIXIXIXIXIXIXIXIXIXIXIXIXIXIXIXIXIXIXIXIXIXIXIXIXIXIXIXIXIXIXIXIXIXIXIXIXIXIXIXIXIXIXIXIXIXIXIXIXIXIXIXIXIXIXIXIXIXIXIXIXIXIXIXIXIXIXIXIXIXIXIXIXIXIXIXIXIXIXIXIXIXIXIXIXIXIXIXIXIXIXIXIXIXIXIXIXIXIXIXIXIXIXIXIXIXIXIXIXIXIXIXIXIXIXIXIXIXIXIXIXIXIXIXIXIXIXIXIXIXIXIXIXIXIXIXIXIXIXIXIXIXIXIXIXIXIXIXIXIXIXIXIXIXIXIXIXIXIXIXIXIXIXIXIXIXIXIXIXIXIXIXIXIXIXIXIXIXIXIXIXIXIXIXIXIXIXIXIXIXIXIXIXIXIXIXIXIXIXIXIXIXIXIXIXIXIXIXIXIXIXIXIXIXIXIXIXIXIXIXIXIXIXIXIXIXIXIXIXIXIXIXIXIXIXIXIXIXIXIXIXIXIXIXIXIXIXIXIXIXIXIXIXIXIXIXIXIXIXIXIXIXIXIXIXIXIXIXIXIXIXIXIXIXIXIXIXIXIXIXIXIXIXIXIXIXIXIXIXIXIXIXIXIXIXIXIXIXIXIXIXIXIXIXIXIXIXIXIXIXIXIXIXIXIXIXIXIXIXIXIXIXIXIXIXIXIXIXIXIXIXIXIXIXIXIXIXIXIXIXIXIXIXIXIXIXIXIXIXIXIXIXIXIXIXIXIXIXIXIXIXIXIXIXIXIXIXIXIXIXIXIXIXIXIXIXIXIXIXIXIXIXIXIXIXIXIXIXIXIXIXIXIXIXIXIXIXIXIXIXIXIXIXIXIXIXIXIXIXIXIXIXIXIXIXIXIXIXIXIXIXIXIXIXIXIXIXIXIXIXIXIXIXIXIXIXIXIXIXIXIXIXIXIXIXIXIXIXIXIXIXIXIXIXIXIXIXIXIXIXIXIXIXIXIXIXIXIXIXIXIX",
"IXIXIXIXIXIXIXIXIXIXIXIXIXIXIXIXIXIXIXIXIXIXIXIXIXIXIXIXIXIXIXIXIXIXIXIXIXIXIXIXIXIXIXIXIXIXIXIXIXIXIXIXIXIXIXIXIXIXIXIXIXIXIXIXIXIXIXIXIXIXIXIXIXIXIXIXIXIXIXIXIXIXIXIXIXIXIXIXIXIXIXIXIXIXIXIXIXIXIXIXIXIXIXIXIXIXIXIXIXIXIXIXIXIXIXIXIXIXIXIXIXIXIXIXIXIXIXIXIXIXIXIXIXIXIXIXIXIXIXIXIXIXIXIXIXIXIXIXIXIXIXIXIXIXIXIXIXIXIXIXIXIXIXIXIXIXIXIXIXIXIXIXIXIXIXIXIXIXIXIXIXIXIXIXIXIXIXIXIXIXIXIXIXIXIXIXIXIXIXIXIXIXIXIXIXIXIXIXIXIXIXIXIXIXIXIXIXIXIXIXIXIXIXIXIXIXIXIXIXIXIXIXIXIXIXIXIXIXIXIXIXIXIXIXIXIXIXIXIXIXIXIXIXIXIXIXIXIXIXIXIXIXIXIXIXIXIXIXIXIXIXIXIXIXIXIXIXIXIXIXIXIXIXIXIXIXIXIXIXIXIXIXIXIXIXIXIXIXIXIXIXIXIXIXIXIXIXIXIXIXIXIXIXIXIXIXIXIXIXIXIXIXIXIXIXIXIXIXIXIXIXIXIXIXIXIXIXIXIXIXIXIXIXIXIXIXIXIXIXIXIXIXIXIXIXIXIXIXIXIXIXIXIXIXIXIXIXIXIXIXIXIXIXIXIXIXIXIXIXIXIXIXIXIXIXIXIXIXIXIXIXIXIXIXIXIXIXIXIXIXIXIXIXIXIXIXIXIXIXIXIXIXIXIXIXIXIXIXIXIXIXIXIXIXIXIXIXIXIXIXIXIXIXIXIXIXIXIXIXIXIXIXIXIXIXIXIXIXIXIXIXIXIXIXIXIXIXIXIXIXIXIXIXIXIXIXIXIXIXIXIXIXIXIXIXIXIX",
"IXIXIXIXIXIXIXIXIXIXIXIXIXIXIXIXIXIXIXIXIXIXIXIXIXIXIXIXIXIXIXIXIXIXIXIXIXIXIXIXIXIXIXIXIXIXIXIXIXIXIXIXIXIXIXIXIXIXIXIXIXIXIXIXIXIXIXIXIXIXIXIXIXIXIXIXIXIXIXIXIXIXIXIXIXIXIXIXIXIXIXIXIXIXIXIXIXIXIXIXIXIXIXIXIXIXIXIXIXIXIXIXIXIXIXIXIXIXIXIXIXIXIXIXIXIXIXIXIXIXIXIXIXIXIXIXIXIXIXIXIXIXIXIXIXIXIXIXIXIXIXIXIXIXIXIXIXIXIXIXIXIXIXIXIXIXIXIXIXIXIXIXIXIXIXIXIXIXIXIXIXIXIXIXIXIXIXIXIXIXIXIXIXIXIXIXIXIXIXIXIXIXIXIXIXIXIXIXIXIXIXIXIXIXIXIXIXIXIXIXIXIXIXIXIXIXIXIXIXIXIXIXIXIXIXIXIXIXIXIXIXIXIXIXIXIXIXIXIXIXIXIXIXIXIXIXIXIXIXIXIXIXIXIXIXIXIXIXIXIXIXIXIXIXIXIXIXIXIXIXIXIXIXIXIXIXIXIXIXIXIXIXIXIXIXIXIXIXIXIXIXIXIXIXIXIXIXIXIXIXIXIXIXIXIXIXIXIXIXIXIXIXIXIXIXIXIXIXIXIXIXIXIXIXIXIXIXIXIXIXIXIXIXIXIXIXIXIXIXIXIXIXIXIXIXIXIXIXIXIXIXIXIXIXIXIXIXIXIXIXIXIXIXIXIXIXIXIXIXIXIXIXIXIXIXIXIXIXIXIXIXIXIXIXIXIXIXIXIXIXIXIXIXIXIXIXIXIXIXIXIXIXIXIXIXIXIXIXIXIXIXIXIXIXIXIXIXIXIXIXIXIXIXIXIXIXIXIXIXIXIXIXIXIXIXIXIXIXIXIXIXIXIXIXIXIXIXIXIXIXIXIXIXIXIXIXIXIXIXIXIXIXIXIXIXIXIX",
"IXIXIXIXIXIXIXIXIXIXIXIXIXIXIXIXIXIXIXIXIXIXIXIXIXIXIXIXIXIXIXIXIXIXIXIXIXIXIXIXIXIXIXIXIXIXIXIXIXIXIXIXIXIXIXIXIXIXIXIXIXIXIXIXIXIXIXIXIXIXIXIXIXIXIXIXIXIXIXIXIXIXIXIXIXIXIXIXIXIXIXIXIXIXIXIXIXIXIXIXIXIXIXIXIXIXIXIXIXIXIXIXIXIXIXIXIXIXIXIXIXIXIXIXIXIXIXIXIXIXIXIXIXIXIXIXIXIXIXIXIXIXIXIXIXIXIXIXIXIXIXIXIXIXIXIXIXIXIXIXIXIXIXIXIXIXIXIXIXIXIXIXIXIXIXIXIXIXIXIXIXIXIXIXIXIXIXIXIXIXIXIXIXIXIXIXIXIXIXIXIXIXIXIXIXIXIXIXIXIXIXIXIXIXIXIXIXIXIXIXIXIXIXIXIXIXIXIXIXIXIXIXIXIXIXIXIXIXIXIXIXIXIXIXIXIXIXIXIXIXIXIXIXIXIXIXIXIXIXIXIXIXIXIXIXIXIXIXIXIXIXIXIXIXIXIXIXIXIXIXIXIXIXIXIXIXIXIXIXIXIXIXIXIXIXIXIXIXIXIXIXIXIXIXIXIXIXIXIXIXIXIXIXIXIXIXIXIXIXIXIXIXIXIXIXIXIXIXIXIXIXIXIXIXIXIXIXIXIXIXIXIXIXIXIXIXIXIXIXIXIXIXIXIXIXIXIXIXIXIXIXIXIXIXIXIXIXIXIXIXIXIXIXIXIXIXIXIXIXIXIXIXIXIXIXIXIXIXIXIXIXIXIXIXIXIXIXIXIXIXIXIXIXIXIXIXIXIXIXIXIXIXIXIXIXIXIXIXIXIXIXIXIXIXIXIXIXIXIXIXIXIXIXIXIXIXIXIXIXIXIXIXIXIXIXIXIXIXIXIXIXIXIXIXIXIXIXIXIXIXIXIXIXIXIXIXIXIXIXIXIXIXIXIXIXIXIX",
"IXIXIXIXIXIXIXIXIXIXIXIXIXIXIXIXIXIXIXIXIXIXIXIXIXIXIXIXIXIXIXIXIXIXIXIXIXIXIXIXIXIXIXIXIXIXIXIXIXIXIXIXIXIXIXIXIXIXIXIXIXIXIXIXIXIXIXIXIXIXIXIXIXIXIXIXIXIXIXIXIXIXIXIXIXIXIXIXIXIXIXIXIXIXIXIXIXIXIXIXIXIXIXIXIXIXIXIXIXIXIXIXIXIXIXIXIXIXIXIXIXIXIXIXIXIXIXIXIXIXIXIXIXIXIXIXIXIXIXIXIXIXIXIXIXIXIXIXIXIXIXIXIXIXIXIXIXIXIXIXIXIXIXIXIXIXIXIXIXIXIXIXIXIXIXIXIXIXIXIXIXIXIXIXIXIXIXIXIXIXIXIXIXIXIXIXIXIXIXIXIXIXIXIXIXIXIXIXIXIXIXIXIXIXIXIXIXIXIXIXIXIXIXIXIXIXIXIXIXIXIXIXIXIXIXIXIXIXIXIXIXIXIXIXIXIXIXIXIXIXIXIXIXIXIXIXIXIXIXIXIXIXIXIXIXIXIXIXIXIXIXIXIXIXIXIXIXIXIXIXIXIXIXIXIXIXIXIXIXIXIXIXIXIXIXIXIXIXIXIXIXIXIXIXIXIXIXIXIXIXIXIXIXIXIXIXIXIXIXIXIXIXIXIXIXIXIXIXIXIXIXIXIXIXIXIXIXIXIXIXIXIXIXIXIXIXIXIXIXIXIXIXIXIXIXIXIXIXIXIXIXIXIXIXIXIXIXIXIXIXIXIXIXIXIXIXIXIXIXIXIXIXIXIXIXIXIXIXIXIXIXIXIXIXIXIXIXIXIXIXIXIXIXIXIXIXIXIXIXIXIXIXIXIXIXIXIXIXIXIXIXIXIXIXIXIXIXIXIXIXIXIXIXIXIXIXIXIXIXIXIXIXIXIXIXIXIXIXIXIXIXIXIXIXIXIXIXIXIXIXIXIXIXIXIXIXIXIXIXIXIXIXIXIXIXIXIX",
"IXIXIXIXIXIXIXIXIXIXIXIXIXIXIXIXIXIXIXIXIXIXIXIXIXIXIXIXIXIXIXIXIXIXIXIXIXIXIXIXIXIXIXIXIXIXIXIXIXIXIXIXIXIXIXIXIXIXIXIXIXIXIXIXIXIXIXIXIXIXIXIXIXIXIXIXIXIXIXIXIXIXIXIXIXIXIXIXIXIXIXIXIXIXIXIXIXIXIXIXIXIXIXIXIXIXIXIXIXIXIXIXIXIXIXIXIXIXIXIXIXIXIXIXIXIXIXIXIXIXIXIXIXIXIXIXIXIXIXIXIXIXIXIXIXIXIXIXIXIXIXIXIXIXIXIXIXIXIXIXIXIXIXIXIXIXIXIXIXIXIXIXIXIXIXIXIXIXIXIXIXIXIXIXIXIXIXIXIXIXIXIXIXIXIXIXIXIXIXIXIXIXIXIXIXIXIXIXIXIXIXIXIXIXIXIXIXIXIXIXIXIXIXIXIXIXIXIXIXIXIXIXIXIXIXIXIXIXIXIXIXIXIXIXIXIXIXIXIXIXIXIXIXIXIXIXIXIXIXIXIXIXIXIXIXIXIXIXIXIXIXIXIXIXIXIXIXIXIXIXIXIXIXIXIXIXIXIXIXIXIXIXIXIXIXIXIXIXIXIXIXIXIXIXIXIXIXIXIXIXIXIXIXIXIXIXIXIXIXIXIXIXIXIXIXIXIXIXIXIXIXIXIXIXIXIXIXIXIXIXIXIXIXIXIXIXIXIXIXIXIXIXIXIXIXIXIXIXIXIXIXIXIXIXIXIXIXIXIXIXIXIXIXIXIXIXIXIXIXIXIXIXIXIXIXIXIXIXIXIXIXIXIXIXIXIXIXIXIXIXIXIXIXIXIXIXIXIXIXIXIXIXIXIXIXIXIXIXIXIXIXIXIXIXIXIXIXIXIXIXIXIXIXIXIXIXIXIXIXIXIXIXIXIXIXIXIXIXIXIXIXIXIXIXIXIXIXIXIXIXIXIXIXIXIXIXIXIXIXIXIXIXIXIXIXIXIX"
};
