/* XPM */
static char *FLOOR[] = {
/* columns rows colors chars-per-pixel */
"64 64 13 1 ",
"  c #ABABAB",
". c #ACACAC",
"X c #ADADAD",
"o c #AEAEAE",
"O c #AFAFAF",
"+ c #B0B0B0",
"@ c #B1B1B1",
"# c #B2B2B2",
"$ c #B3B3B3",
"% c #B4B4B4",
"& c #B5B5B5",
"* c #B6B6B6",
"= c #B7B7B7",
/* pixels */
"==$=$$$$$==$=$=$$====$=$==$==$==$=$==$=$$$$$$$O$OOOO$OOO O O OOO",
"===$$$$$$$=$$=$=$=====$=$==$$==$=$=$$=$==$$$$O$$$$$OOOOO OO  OO$",
"==$=$$$$$$===$=$$=====$$$=$==$=$$=$=$==$$$$$$$$$$$OO$O$OOO O OOO",
"$$=$$$O$$==$$=$=====$====$=$$=$==$=$=$====$$$O$O$O$$OOOOO O OOOO",
"$==$$$$$=$=$==$==$===$==$===$==$$=$=$=$=$$$$$$$$$$OO$OOOOOO  OOO",
"$=$$$$$$$=$==$=$==$===$$=$===$$==$===$=$=$$$$O$O$O$OOO$OO  OO  O",
"=$$$$$$$=$$=$=$===$==$$=$$=$$=$=$$=$=$=$$$$$O$$$$$$$OOOOO O O  O",
"$=$$$O$$$==$=$=$$=========$==$=$==$=$=$=$$$O$$$O$O$O$O$OO  O O O",
"=$$$$$$$$=$=$=$===$==$=$=$$=$==$$$=$$=$=$$$$$$O$O$$O$OO$OO O O O",
"$$$$$$$$$==$=$$===$=$=$=$==$=$===$$$$$$$$$$$$$$$$$$$OOOOOOO O O ",
"$$$$$$$$$=$==$=$===$=$=$=$$=$=$=$$=$$$$$$$$$$OO$$$$OOOOOOO OO  O",
"$$$$$$$==$=$$=$=$=$=$=$=$==$=$$$$$$$$$$OOO$$$$$$$O$$O$$OOOO  O  ",
"$$$O$$$$$=$==$=$=$=$$=$==$=$$=$$$$$$$$$$$$O$$$O$$$$$O$OOO O O O ",
"$$$$$$$==$=$$=$=$=$==$==$===$$$=$$O$$$$OO$$$$$$$$O$O$$OOOO O O O",
"O$$O$$$$=$$=$===$=$=$==$=$$$$$$$$$O$$$O$$O$$$$$$$$$$$OO$O O O O ",
"$$$$$$==$==$=$=$=$=$=$$=$=$$$$$O$$$$$$$$$$$$$$O$O$O$$OOOOO O O O",
"$$$$$$$==$==$==$=$=$==$==$$$$$$$O$O$O$$O$O$$$$$$$O$$$OOO$OO O O ",
"$O$$$$$=$==$=$=$$=$==$=$$=$$$$$O$$$$$$$$$$$O$O$O$$$$$OOOOOO  OO ",
"$$$O$$=$=$=$$=$==$=$$=$$$$$$O$O$$$O$$$$$$O$$O$$$$$O$O$$OOOO  O O",
"$O$$$$$=$=$==$=$$=$==$==$$$O$$$$$O$$$OO$$$$O$$$O$O$$$$OOOOOOO O ",
"$O$$$$$$=$=$$==$=$=$$=$$$$O$$$$$$$$$$$$$$$$O$$O$O$$$O$OO$OOO O O",
"$$$O$$$==$$==$==$=$==$=$$$$$O$O$$O$OO$O$O$$$$O$$$$$O$$$$OO  O O ",
"$O$$$$$=$=$=$==$===$=$$$O$$$$$O$O$$$$$$O$O$O$$$$O$O$O$OOOOO  O O",
"$$$O$$$$=$=$=$$==$$=$=$$$$O$O$$$$$$OO$$$$$$$$O$O$$$$$$$O$OO O O ",
"$$$O$O$$=$=$=$=$$=$=$==$$$$OO$$$$$$$$$$O$O$O$$$$O$O$O$$OOOO  O O",
"O$$$$$$=$=$=$=$==$=$=$$$$$$$$$$O$OO$O$$$$$$$$$$O$$$$$$$O$OO O O ",
"$O$OO$$==$=$=$$=$=$=$$$$$O$O$$$$$$O$$$$O$O$$O$O$$$O$$$$OOOOO O O",
"$$$$$$=$$=$==$=$=$=$$$$$$$$$O$$$$$O$O$$$$$O$$$$$$O$$$O$$OOO O O ",
"$O$$$$=$===$=$$=$==$$$$$$O$$OOOOOOOOO$$O$O$O$$$$$$$$O$$OOOOO O O",
"$$O$$O$$$$$$===$=$=$$$O$$$O$$$$$$$OOO$O$$$$$O$O$$O$O$$OOOOO O O ",
"$$$$$$===$$=$=$=$$$$$$O$$$$$$$$$$OO$OO$$$O$$$$$O$$$$$OOOO$O  O O",
"O$O$O$$=$=$==$=$==$$$$$$O$O$$OOOOOOO$O$$$$O$O$$$O$$O$O$OOOO O O ",
"$$$$$$$$$$=$$=$=$=$$O$O$O$O$$$$OOOO$$$$$$O$O$$$$O$O$$OOOOO O O O",
"O$O$O$$O$$$==$=$$$$$$$$$$$$$$$OOO$OOOOO$$$$$$$$O$$$$$OO$$OOOO   ",
"$$O$$$$$$$=$=$$=$$$$$$O$$$O$OO$OO$O$OO$$$O$$O$O$$$O$$$$OOOO  O  ",
"O$$$$O$$$$$$$==$O$$$$O$$$O$$$OOOOOOOO$OO$$O$$$$$$O$$$OOOOOO O O ",
"$O$$$$$$$$$$$$$=$$$$O$$$$$$O$OOO$O$OOOO$$O$O$O$OO$$$OO$OOO O O  ",
"$$O$O$$$O$$$$$=$$$$$$$$O$O$$OOO$OOOO$OO$$$$$$$$$$$$OO$OOOOO O O ",
"$$$$$$$O$O$=$$$$$$$$O$O$O$$$$O$OOOOOO$$$$O$O$O$$O$O$$O$OOO O O  ",
"O$O$O$$$$$$$$$$=$$$$$$$$$$$O$$OOO$$OOOO$$O$$$$O$$$$$OOOOOOO O   ",
"$$$O$O$$$$O$O$$$$$$O$O$$$$O$O$OOOOOO$O$$OO$$$$O$$O$$$OOOOOO O   ",
"OOO$$$$$$$$$$$$$$$$O$$O$$O$$$$$$O$O$OO$$$$$$$O$$$$$$$$OOO   O   ",
"O$$O$$O$$O$$$$$$$$$$$$$$$$$$$$$OOOOOO$$$$$O$$$$$O$O$OO$OOO OO  O",
"$O$$$O$$$O$$$OO$$$$$O$O$$O$OO$O$OO$OO$O$$OO$$O$OOO$OOOOOO  O    ",
"OOOOO$O$$$O$$$$$$$$$$$O$$$O$$$$OO$$OOOO$O$$$$O$$OOO$OOOOO  O    ",
"O$O$$$$$$O$$$O$O$$OO$$$$$O$$OOOO$OOOO$OO$$O$$$$O$OOO$OO$O OOO   ",
"$OO$$$O$$$$$O$$$$$$$$$O$$$$$$OOOO$OOOO$$O$O$O$$$O$O$OOOOO       ",
"OOOOOO$$$O$O$$$O$$$O$O$$$O$O$$$OOO$$$OO$$$$$$OOOOOOO$OOO OO     ",
"$O$OO$$$O$$$O$O$O$$$$$O$$O$$$O$OO$$OOOOO$$$$$$OOOOOOOOOO  O     ",
"OOOOO$$$$$$O$$$$$$$O$O$$$$O$$$$O$O$$OO$$O$O$O$$$$OO$$O$O O O    ",
"$OO$O$$OO$O$$$O$O$O$$$$$$$$$$$$$OOOO$$O$$$OO$OOO$OOOOOOOO       ",
"OOOOOO$$$$$$$O$$$$$$$O$OO$O$O$OO$O$$$$$$$$$$$OOOOOO$OOO  OO     ",
"OO$OOOO$$O$OO$$OO$$$$O$O$$$O$O$$OO$$$$O$O$$$$OO$OOO$OOOOOO      ",
"O$OOO$$OO$$$$$$$$$$O$$$$O$$$$$$O$$$OOOO$$O$OOOOOO$OOO           ",
"OOOOO$OO$$$$$O$OO$O$$O$$$O$O$$$$$O$OOOO$$OOOO$OOOOO$OO OO      O",
"$OO$OOOOO$O$$$$$$$$$$$O$$$$$O$O$O$$$$OO$$OOOOO$OO$OOOOO         ",
"$OOO$O$O$$$$$$$O$$$$$O$$$O$$O$OO$O$$$OO$$OOOOOO$$OOOOO O        ",
"OO$OOOOOOOO$O$$$O$O$$$O$$$$O$$$OOOOO$OOOOOO$O$OOOOOO  O        O",
"OOO$OOOO$O$$$O$O$$$O$$$$$O$$$$O$$OO$O$OOO$$OOOOOOOOOO O        O",
"O$OOO$$OOOOOO$$$O$$$O$O$$$$O$$$$$$OOOO$OOOOOO$O$O$OO O O       O",
"OOO$OO$OOOOO$$$O$$$$$$$$$$O$O$$$O$$OO$OOOOOOO$OOOOOO O         O",
"$OOOO$OOOO$OO$O$O$O$$O$OO$OO$OOO$$OO$OOO$OO$OOO$$OO O O         ",
"$$O$OOOO$OO$OOOO$$$OO$$$$$$OOOOOOOOOO$O$OOO$OOOOOO OO        OO ",
"O$OOO$O$OOOO$OO$O$$$$$$O$OOO$OO$OO$OOOOO$OOOOOOOO O  O         O"
};
